;FLAVOR:Marlin
;TIME:2997
;Filament used: 1.12824m
;Layer height: 0.1
;MINX:-25.168
;MINY:-13.174
;MINZ:0.2
;MAXX:26.15
;MAXY:13.174
;MAXZ:8
;Generated with Cura_SteamEngine 4.13.1
M140 S110
M105
M190 S110
M104 S240
M105
M109 S240
M82 ;absolute extrusion mode
G28 ;Home
G1 Z15.0 F6000 ;Move the platform down 15mm
;Prime the extruder
G92 E0
G1 F200 E3
G92 E0
G92 E0
G92 E0
G1 F1500 E-6.5
;LAYER_COUNT:79
;LAYER:0
M107
G0 F1800 X-.565 Y8.084 Z0.2
;TYPE:SKIRT
G1 F1500 E0
G1 X-4.441 Y10.794 E0.11798
G1 X-4.601 Y10.9 E0.12276
G1 X-5.346 Y11.37 E0.14474
G1 X-5.688 Y11.564 E0.15455
G1 X-6.478 Y11.961 E0.1766
G1 X-6.824 Y12.114 E0.18604
G1 X-7.651 Y12.437 E0.20818
G1 X-8.044 Y12.568 E0.21852
G1 X-8.897 Y12.804 E0.2406
G1 X-9.267 Y12.888 E0.25006
G1 X-10.138 Y13.043 E0.27213
G1 X-10.532 Y13.094 E0.28204
G1 X-11.415 Y13.163 E0.30413
G1 X-11.809 Y13.174 E0.31397
G1 X-12.692 Y13.157 E0.336
G1 X-13.081 Y13.131 E0.34572
G1 X-13.959 Y13.029 E0.36777
G1 X-14.349 Y12.964 E0.37763
G1 X-15.217 Y12.776 E0.39979
G1 X-15.591 Y12.676 E0.40944
G1 X-16.434 Y12.407 E0.43152
G1 X-16.812 Y12.266 E0.44158
G1 X-17.623 Y11.915 E0.46363
G1 X-17.963 Y11.748 E0.47308
G1 X-18.741 Y11.321 E0.49521
G1 X-19.084 Y11.11 E0.50526
G1 X-19.811 Y10.611 E0.52725
G1 X-20.123 Y10.374 E0.53703
G1 X-20.803 Y9.803 E0.55918
G1 X-21.092 Y9.535 E0.56901
G1 X-21.71 Y8.904 E0.59104
G1 X-21.968 Y8.614 E0.60072
G1 X-22.525 Y7.924 E0.62285
G1 X-22.758 Y7.605 E0.6327
G1 X-23.244 Y6.866 E0.65476
G1 X-23.444 Y6.527 E0.66458
G1 X-23.856 Y5.744 E0.68665
G1 X-24.02 Y5.394 E0.69629
G1 X-24.356 Y4.574 E0.7184
G1 X-24.489 Y4.194 E0.72844
G1 X-24.741 Y3.348 E0.75046
G1 X-24.83 Y2.993 E0.75959
G1 X-24.96 Y2.346 E0.77605
G1 X-25.063 Y1.717 E0.79195
G1 X-25.149 Y0.838 E0.81398
G1 X-25.168 Y0.444 E0.82382
G1 X-25.168 Y-.442 E0.84593
G1 X-25.149 Y-.835 E0.85574
G1 X-25.063 Y-1.716 E0.87782
G1 X-25.005 Y-2.109 E0.88773
G1 X-24.833 Y-2.978 E0.90983
G1 X-24.74 Y-3.352 E0.91944
G1 X-24.487 Y-4.198 E0.94147
G1 X-24.356 Y-4.57 E0.95131
G1 X-24.021 Y-5.39 E0.9734
G1 X-23.856 Y-5.744 E0.98315
G1 X-23.444 Y-6.527 E1.00522
G1 X-23.244 Y-6.866 E1.01504
G1 X-22.758 Y-7.605 E1.0371
G1 X-22.528 Y-7.921 E1.04685
G1 X-21.972 Y-8.611 E1.06895
G1 X-21.709 Y-8.906 E1.07881
G1 X-21.09 Y-9.537 E1.10086
G1 X-20.803 Y-9.803 E1.11062
G1 X-20.123 Y-10.374 E1.13277
G1 X-19.806 Y-10.615 E1.14271
G1 X-19.078 Y-11.113 E1.16471
G1 X-18.749 Y-11.315 E1.17434
G1 X-17.972 Y-11.744 E1.19648
G1 X-17.619 Y-11.917 E1.20629
G1 X-16.808 Y-12.267 E1.22832
G1 X-16.434 Y-12.407 E1.23828
G1 X-15.591 Y-12.676 E1.26036
G1 X-15.232 Y-12.773 E1.26963
G1 X-14.589 Y-12.914 E1.28605
G1 X-13.96 Y-13.029 E1.302
G1 X-13.081 Y-13.131 E1.32408
G1 X-12.692 Y-13.157 E1.3338
G1 X-11.809 Y-13.174 E1.35583
G1 X-11.415 Y-13.163 E1.36567
G1 X-10.532 Y-13.094 E1.38776
G1 X-10.143 Y-13.044 E1.39754
G1 X-9.272 Y-12.89 E1.41961
G1 X-8.889 Y-12.803 E1.4294
G1 X-8.036 Y-12.565 E1.45149
G1 X-7.655 Y-12.438 E1.46151
G1 X-6.828 Y-12.116 E1.48365
G1 X-6.478 Y-11.961 E1.4932
G1 X-5.69 Y-11.565 E1.5152
G1 X-5.349 Y-11.372 E1.52497
G1 X-4.602 Y-10.901 E1.547
G1 X-4.442 Y-10.794 E1.5518
G1 X-.567 Y-8.085 E1.66974
G1 X1.855 Y-8.083 E1.73016
G1 X22.1 Y-8.082 E2.23518
G1 X22.668 Y-8.042 E2.24938
G1 X23.224 Y-7.923 E2.26356
G1 X23.758 Y-7.727 E2.27775
G1 X24.259 Y-7.458 E2.29194
G1 X24.718 Y-7.122 E2.30613
G1 X25.125 Y-6.725 E2.32031
G1 X25.473 Y-6.274 E2.33452
G1 X25.754 Y-5.78 E2.3487
G1 X25.962 Y-5.25 E2.3629
G1 X26.095 Y-4.697 E2.37709
G1 X26.15 Y-4.032 E2.39373
G1 X26.15 Y-1.4 E2.45939
G1 X26.11 Y-.833 E2.47357
G1 X25.991 Y-.276 E2.48778
G1 X25.89 Y-0.001 E2.49508
G1 X25.962 Y0.181 E2.49997
G1 X26.095 Y0.735 E2.51418
G1 X26.15 Y1.4 E2.53082
G1 X26.15 Y4.032 E2.59648
G1 X26.11 Y4.599 E2.61066
G1 X25.991 Y5.156 E2.62487
G1 X25.795 Y5.69 E2.63906
G1 X25.526 Y6.191 E2.65324
G1 X25.19 Y6.65 E2.66743
G1 X24.793 Y7.057 E2.68161
G1 X24.342 Y7.405 E2.69582
G1 X23.848 Y7.685 E2.70999
G1 X23.319 Y7.894 E2.72418
G1 X22.765 Y8.027 E2.73839
G1 X22.102 Y8.082 E2.75498
G1 X16.053 Y8.085 E2.90588
G1 X-.565 Y8.084 E3.32041
G0 F1800 X-.66 Y7.784
G1 F1500 X-4.613 Y10.548 E3.44074
G1 X-4.761 Y10.647 E3.44518
G1 X-5.506 Y11.117 E3.46715
G1 X-5.823 Y11.296 E3.47623
G1 X-6.613 Y11.693 E3.49829
G1 X-6.933 Y11.835 E3.50702
G1 X-7.76 Y12.158 E3.52917
G1 X-8.124 Y12.279 E3.53874
G1 X-8.977 Y12.515 E3.56081
G1 X-9.32 Y12.593 E3.56959
G1 X-10.191 Y12.748 E3.59166
G1 X-10.556 Y12.795 E3.60084
G1 X-11.439 Y12.864 E3.62293
G1 X-11.803 Y12.874 E3.63201
G1 X-12.686 Y12.857 E3.65404
G1 X-13.047 Y12.833 E3.66307
G1 X-13.925 Y12.731 E3.68512
G1 X-14.286 Y12.671 E3.69425
G1 X-15.154 Y12.483 E3.7164
G1 X-15.5 Y12.391 E3.72533
G1 X-16.343 Y12.122 E3.74741
G1 X-16.692 Y11.991 E3.75671
G1 X-17.503 Y11.64 E3.77875
G1 X-17.818 Y11.485 E3.78751
G1 X-18.596 Y11.058 E3.80964
G1 X-18.914 Y10.863 E3.81895
G1 X-19.641 Y10.364 E3.84095
G1 X-19.93 Y10.144 E3.85001
G1 X-20.61 Y9.573 E3.87216
G1 X-20.878 Y9.325 E3.88126
G1 X-21.496 Y8.694 E3.9033
G1 X-21.735 Y8.425 E3.91227
G1 X-22.292 Y7.735 E3.93439
G1 X-22.507 Y7.441 E3.94348
G1 X-22.993 Y6.702 E3.96554
G1 X-23.179 Y6.387 E3.97467
G1 X-23.591 Y5.604 E3.99674
G1 X-23.742 Y5.28 E4.00566
G1 X-24.078 Y4.46 E4.02776
G1 X-24.202 Y4.109 E4.03705
G1 X-24.454 Y3.263 E4.05907
G1 X-24.536 Y2.933 E4.06755
G1 X-24.665 Y2.291 E4.08388
G1 X-24.764 Y1.688 E4.09913
G1 X-24.85 Y0.809 E4.12116
G1 X-24.868 Y0.444 E4.13027
G1 X-24.868 Y-.442 E4.15238
G1 X-24.85 Y-.806 E4.16147
G1 X-24.764 Y-1.687 E4.18355
G1 X-24.711 Y-2.051 E4.19272
G1 X-24.539 Y-2.92 E4.21482
G1 X-24.453 Y-3.266 E4.22372
G1 X-24.2 Y-4.112 E4.24574
G1 X-24.078 Y-4.456 E4.25485
G1 X-23.743 Y-5.276 E4.27694
G1 X-23.591 Y-5.604 E4.28596
G1 X-23.179 Y-6.387 E4.30803
G1 X-22.993 Y-6.702 E4.31716
G1 X-22.507 Y-7.441 E4.33922
G1 X-22.294 Y-7.733 E4.34824
G1 X-21.738 Y-8.423 E4.37034
G1 X-21.495 Y-8.696 E4.37946
G1 X-20.876 Y-9.327 E4.40151
G1 X-20.61 Y-9.573 E4.41055
G1 X-19.93 Y-10.144 E4.4327
G1 X-19.636 Y-10.367 E4.4419
G1 X-18.908 Y-10.865 E4.4639
G1 X-18.604 Y-11.053 E4.47282
G1 X-17.827 Y-11.482 E4.49496
G1 X-17.5 Y-11.642 E4.50404
G1 X-16.689 Y-11.992 E4.52608
G1 X-16.343 Y-12.122 E4.5353
G1 X-15.5 Y-12.391 E4.55737
G1 X-15.167 Y-12.48 E4.56597
G1 X-14.528 Y-12.621 E4.58229
G1 X-13.925 Y-12.731 E4.59758
G1 X-13.046 Y-12.833 E4.61965
G1 X-12.686 Y-12.857 E4.62865
G1 X-11.803 Y-12.874 E4.65069
G1 X-11.439 Y-12.864 E4.65977
G1 X-10.556 Y-12.795 E4.68186
G1 X-10.195 Y-12.749 E4.69094
G1 X-9.324 Y-12.595 E4.713
G1 X-8.969 Y-12.514 E4.72209
G1 X-8.116 Y-12.276 E4.74418
G1 X-7.763 Y-12.158 E4.75346
G1 X-6.936 Y-11.836 E4.7756
G1 X-6.613 Y-11.693 E4.78441
G1 X-5.825 Y-11.297 E4.80641
G1 X-5.509 Y-11.118 E4.81547
G1 X-4.762 Y-10.647 E4.8375
G1 X-4.614 Y-10.549 E4.84193
G1 X-.66 Y-7.785 E4.96227
G1 X1.855 Y-7.783 E5.02501
G1 X22.1 Y-7.782 E5.53002
G1 X22.646 Y-7.742 E5.54368
G1 X23.18 Y-7.623 E5.55733
G1 X23.692 Y-7.427 E5.571
G1 X24.169 Y-7.16 E5.58464
G1 X24.602 Y-6.825 E5.59829
G1 X24.982 Y-6.431 E5.61195
G1 X25.301 Y-5.986 E5.62561
G1 X25.551 Y-5.499 E5.63926
G1 X25.728 Y-4.981 E5.65292
G1 X25.827 Y-4.443 E5.66656
G1 X25.85 Y-4.032 E5.67683
G1 X25.85 Y-1.4 E5.74249
G1 X25.81 Y-.854 E5.75614
G1 X25.691 Y-.32 E5.76979
G1 X25.572 Y-0.007 E5.77814
G1 X25.728 Y0.451 E5.79021
G1 X25.827 Y0.989 E5.80386
G1 X25.85 Y1.4 E5.81413
G1 X25.85 Y4.032 E5.87978
G1 X25.81 Y4.578 E5.89344
G1 X25.691 Y5.112 E5.90709
G1 X25.496 Y5.623 E5.92073
G1 X25.228 Y6.101 E5.9344
G1 X24.893 Y6.534 E5.94806
G1 X24.499 Y6.914 E5.96171
G1 X24.054 Y7.233 E5.97537
G1 X23.567 Y7.483 E5.98903
G1 X23.049 Y7.66 E6.00268
G1 X22.511 Y7.759 E6.01633
G1 X22.102 Y7.782 E6.02654
G1 X16.053 Y7.785 E6.17744
G1 X-.66 Y7.784 E6.59435
G0 F1800 X-.753 Y7.484
G1 F1500 X-4.785 Y10.303 E6.71707
G1 X-4.921 Y10.393 E6.72114
G1 X-5.666 Y10.863 E6.74311
G1 X-5.958 Y11.028 E6.75148
G1 X-6.748 Y11.425 E6.77353
G1 X-7.042 Y11.556 E6.78156
G1 X-7.869 Y11.879 E6.80371
G1 X-8.204 Y11.99 E6.81251
G1 X-9.057 Y12.226 E6.83459
G1 X-9.373 Y12.298 E6.84267
G1 X-10.244 Y12.453 E6.86474
G1 X-10.579 Y12.496 E6.87317
G1 X-11.462 Y12.565 E6.89526
G1 X-11.797 Y12.574 E6.90362
G1 X-12.68 Y12.557 E6.92565
G1 X-13.012 Y12.535 E6.93395
G1 X-13.89 Y12.433 E6.956
G1 X-14.222 Y12.378 E6.96439
G1 X-15.09 Y12.19 E6.98655
G1 X-15.409 Y12.105 E6.99478
G1 X-16.252 Y11.836 E7.01686
G1 X-16.573 Y11.715 E7.02541
G1 X-17.384 Y11.364 E7.04746
G1 X-17.674 Y11.222 E7.05551
G1 X-18.452 Y10.795 E7.07765
G1 X-18.744 Y10.615 E7.08621
G1 X-19.471 Y10.116 E7.1082
G1 X-19.738 Y9.914 E7.11656
G1 X-20.418 Y9.343 E7.13871
G1 X-20.664 Y9.115 E7.14707
G1 X-21.282 Y8.484 E7.1691
G1 X-21.501 Y8.237 E7.17734
G1 X-22.058 Y7.547 E7.19946
G1 X-22.257 Y7.276 E7.20785
G1 X-22.743 Y6.537 E7.22991
G1 X-22.913 Y6.248 E7.23827
G1 X-23.325 Y5.465 E7.26035
G1 X-23.464 Y5.166 E7.26857
G1 X-23.8 Y4.346 E7.29068
G1 X-23.914 Y4.023 E7.29922
G1 X-24.166 Y3.177 E7.32124
G1 X-24.242 Y2.874 E7.32903
G1 X-24.371 Y2.235 E7.34529
G1 X-24.466 Y1.659 E7.35986
G1 X-24.552 Y0.78 E7.38189
G1 X-24.568 Y0.444 E7.39028
G1 X-24.568 Y-.442 E7.41238
G1 X-24.552 Y-.777 E7.42075
G1 X-24.466 Y-1.658 E7.44283
G1 X-24.416 Y-1.993 E7.45128
G1 X-24.244 Y-2.862 E7.47337
G1 X-24.165 Y-3.18 E7.48155
G1 X-23.912 Y-4.026 E7.50358
G1 X-23.801 Y-4.343 E7.51195
G1 X-23.466 Y-5.163 E7.53405
G1 X-23.325 Y-5.465 E7.54236
G1 X-22.913 Y-6.248 E7.56443
G1 X-22.743 Y-6.537 E7.5728
G1 X-22.257 Y-7.276 E7.59486
G1 X-22.06 Y-7.545 E7.60318
G1 X-21.504 Y-8.235 E7.62528
G1 X-21.281 Y-8.486 E7.63366
G1 X-20.662 Y-9.117 E7.65571
G1 X-20.418 Y-9.343 E7.66401
G1 X-19.738 Y-9.914 E7.68616
G1 X-19.467 Y-10.12 E7.69465
G1 X-18.739 Y-10.618 E7.71665
G1 X-18.459 Y-10.79 E7.72485
G1 X-17.682 Y-11.219 E7.74699
G1 X-17.381 Y-11.367 E7.75535
G1 X-16.57 Y-11.717 E7.77739
G1 X-16.252 Y-11.836 E7.78586
G1 X-15.409 Y-12.105 E7.80793
G1 X-15.102 Y-12.187 E7.81586
G1 X-14.467 Y-12.327 E7.83208
G1 X-13.891 Y-12.433 E7.84669
G1 X-13.012 Y-12.535 E7.86876
G1 X-12.68 Y-12.557 E7.87706
G1 X-11.797 Y-12.574 E7.89909
G1 X-11.462 Y-12.565 E7.90745
G1 X-10.579 Y-12.496 E7.92955
G1 X-10.247 Y-12.453 E7.9379
G1 X-9.376 Y-12.299 E7.95996
G1 X-9.05 Y-12.225 E7.9683
G1 X-8.197 Y-11.987 E7.99039
G1 X-7.872 Y-11.879 E7.99893
G1 X-7.045 Y-11.557 E8.02107
G1 X-6.748 Y-11.425 E8.02918
G1 X-5.96 Y-11.029 E8.05118
G1 X-5.669 Y-10.864 E8.05952
G1 X-4.922 Y-10.393 E8.08155
G1 X-4.785 Y-10.303 E8.08564
G1 X-.754 Y-7.485 E8.20833
G1 X1.855 Y-7.483 E8.27341
G1 X22.1 Y-7.482 E8.77843
G1 X22.624 Y-7.442 E8.79153
G1 X23.135 Y-7.323 E8.80462
G1 X23.622 Y-7.128 E8.81771
G1 X24.074 Y-6.861 E8.8308
G1 X24.481 Y-6.529 E8.84391
G1 X24.832 Y-6.139 E8.85699
G1 X25.12 Y-5.7 E8.87009
G1 X25.338 Y-5.222 E8.8832
G1 X25.481 Y-4.717 E8.89629
G1 X25.55 Y-4.032 E8.91346
G1 X25.55 Y-1.4 E8.97912
G1 X25.51 Y-.877 E8.9922
G1 X25.391 Y-.365 E9.00532
G1 X25.244 Y0.003 E9.0152
G1 X25.338 Y0.21 E9.02087
G1 X25.481 Y0.715 E9.03396
G1 X25.55 Y1.4 E9.05114
G1 X25.55 Y4.032 E9.11679
G1 X25.51 Y4.555 E9.12988
G1 X25.391 Y5.067 E9.14299
G1 X25.196 Y5.554 E9.15608
G1 X24.929 Y6.006 E9.16917
G1 X24.597 Y6.413 E9.18227
G1 X24.207 Y6.764 E9.19536
G1 X23.768 Y7.052 E9.20846
G1 X23.29 Y7.27 E9.22156
G1 X22.785 Y7.413 E9.23466
G1 X22.102 Y7.482 E9.25178
G1 X16.053 Y7.485 E9.40267
G1 X-.753 Y7.484 E9.8219
G0 F1800 X-.848 Y7.184
G1 F1500 X-4.957 Y10.057 E9.94697
G1 X-5.081 Y10.139 E9.95068
G1 X-5.826 Y10.609 E9.97265
G1 X-6.093 Y10.76 E9.9803
G1 X-6.883 Y11.157 E10.00236
G1 X-7.151 Y11.276 E10.00967
G1 X-7.978 Y11.599 E10.03182
G1 X-8.284 Y11.701 E10.03987
G1 X-9.137 Y11.937 E10.06194
G1 X-9.425 Y12.002 E10.06931
G1 X-10.296 Y12.157 E10.09138
G1 X-10.603 Y12.196 E10.0991
G1 X-11.486 Y12.265 E10.12119
G1 X-11.792 Y12.274 E10.12883
G1 X-12.675 Y12.257 E10.15086
G1 X-12.978 Y12.237 E10.15843
G1 X-13.856 Y12.135 E10.18048
G1 X-14.159 Y12.085 E10.18814
G1 X-15.027 Y11.897 E10.2103
G1 X-15.318 Y11.819 E10.21781
G1 X-16.161 Y11.55 E10.23989
G1 X-16.454 Y11.44 E10.24769
G1 X-17.265 Y11.089 E10.26974
G1 X-17.53 Y10.959 E10.2771
G1 X-18.308 Y10.532 E10.29924
G1 X-18.575 Y10.368 E10.30705
G1 X-19.302 Y9.869 E10.32905
G1 X-19.545 Y9.684 E10.33667
G1 X-20.225 Y9.113 E10.35882
G1 X-20.449 Y8.905 E10.36644
G1 X-21.067 Y8.274 E10.38848
G1 X-21.268 Y8.049 E10.396
G1 X-21.825 Y7.359 E10.41812
G1 X-22.006 Y7.111 E10.42578
G1 X-22.492 Y6.372 E10.44785
G1 X-22.648 Y6.108 E10.45549
G1 X-23.06 Y5.325 E10.47757
G1 X-23.187 Y5.052 E10.48508
G1 X-23.523 Y4.232 E10.50718
G1 X-23.627 Y3.937 E10.51498
G1 X-23.879 Y3.091 E10.537
G1 X-23.948 Y2.815 E10.5441
G1 X-24.076 Y2.179 E10.56028
G1 X-24.167 Y1.63 E10.57417
G1 X-24.253 Y0.751 E10.5962
G1 X-24.268 Y0.444 E10.60387
G1 X-24.268 Y-.442 E10.62597
G1 X-24.253 Y-.748 E10.63361
G1 X-24.167 Y-1.629 E10.65569
G1 X-24.122 Y-1.935 E10.66341
G1 X-23.95 Y-2.804 E10.6855
G1 X-23.878 Y-3.095 E10.69298
G1 X-23.625 Y-3.941 E10.71501
G1 X-23.523 Y-4.229 E10.72263
G1 X-23.188 Y-5.049 E10.74473
G1 X-23.06 Y-5.325 E10.75231
G1 X-22.648 Y-6.108 E10.77439
G1 X-22.492 Y-6.372 E10.78203
G1 X-22.006 Y-7.111 E10.8041
G1 X-21.827 Y-7.356 E10.81167
G1 X-21.271 Y-8.046 E10.83377
G1 X-21.067 Y-8.276 E10.84144
G1 X-20.448 Y-8.907 E10.86349
G1 X-20.225 Y-9.113 E10.87106
G1 X-19.545 Y-9.684 E10.89321
G1 X-19.297 Y-9.872 E10.90098
G1 X-18.569 Y-10.37 E10.92298
G1 X-18.314 Y-10.528 E10.93046
G1 X-17.537 Y-10.957 E10.9526
G1 X-17.262 Y-11.091 E10.96023
G1 X-16.451 Y-11.441 E10.98227
G1 X-16.161 Y-11.55 E10.99
G1 X-15.318 Y-11.819 E11.01207
G1 X-15.038 Y-11.894 E11.0193
G1 X-14.405 Y-12.033 E11.03547
G1 X-13.856 Y-12.135 E11.0494
G1 X-12.977 Y-12.237 E11.07147
G1 X-12.675 Y-12.257 E11.07902
G1 X-11.792 Y-12.274 E11.10105
G1 X-11.486 Y-12.265 E11.10869
G1 X-10.603 Y-12.196 E11.13078
G1 X-10.3 Y-12.158 E11.1384
G1 X-9.429 Y-12.004 E11.16046
G1 X-9.13 Y-11.936 E11.16811
G1 X-8.277 Y-11.698 E11.1902
G1 X-7.981 Y-11.599 E11.19799
G1 X-7.154 Y-11.277 E11.22013
G1 X-6.883 Y-11.157 E11.22752
G1 X-6.095 Y-10.761 E11.24952
G1 X-5.829 Y-10.611 E11.25714
G1 X-5.082 Y-10.14 E11.27916
G1 X-4.957 Y-10.057 E11.28291
G1 X-.849 Y-7.185 E11.40794
G1 X1.855 Y-7.183 E11.47539
G1 X22.1 Y-7.182 E11.98041
G1 X22.6 Y-7.142 E11.99292
G1 X23.087 Y-7.023 E12.00543
G1 X23.55 Y-6.829 E12.01795
G1 X23.975 Y-6.563 E12.03046
G1 X24.353 Y-6.233 E12.04297
G1 X24.674 Y-5.848 E12.05548
G1 X24.93 Y-5.416 E12.068
G1 X25.113 Y-4.949 E12.08051
G1 X25.221 Y-4.459 E12.09303
G1 X25.25 Y-4.032 E12.10371
G1 X25.25 Y-1.4 E12.16936
G1 X25.21 Y-.9 E12.18187
G1 X25.091 Y-.413 E12.19438
G1 X24.93 Y0.016 E12.20581
G1 X25.113 Y0.483 E12.21832
G1 X25.221 Y0.972 E12.23081
G1 X25.25 Y1.4 E12.24152
G1 X25.25 Y4.032 E12.30717
G1 X25.21 Y4.532 E12.31968
G1 X25.091 Y5.019 E12.33219
G1 X24.897 Y5.482 E12.34471
G1 X24.631 Y5.907 E12.35722
G1 X24.301 Y6.285 E12.36974
G1 X23.916 Y6.606 E12.38224
G1 X23.484 Y6.862 E12.39477
G1 X23.017 Y7.045 E12.40728
G1 X22.528 Y7.153 E12.41977
G1 X22.102 Y7.182 E12.43042
G1 X16.053 Y7.185 E12.58131
G1 X-.848 Y7.184 E13.00291
G0 F1800 X-.942 Y6.884
G1 F1500 X-5.129 Y9.811 E13.13035
G1 X-5.241 Y9.885 E13.1337
G1 X-5.986 Y10.355 E13.15567
G1 X-6.227 Y10.492 E13.16258
G1 X-7.017 Y10.889 E13.18464
G1 X-7.26 Y10.997 E13.19127
G1 X-8.087 Y11.32 E13.21342
G1 X-8.364 Y11.412 E13.2207
G1 X-9.217 Y11.648 E13.24278
G1 X-9.478 Y11.707 E13.24945
G1 X-10.349 Y11.862 E13.27152
G1 X-10.626 Y11.897 E13.27849
G1 X-11.509 Y11.966 E13.30058
G1 X-11.786 Y11.974 E13.30749
G1 X-12.669 Y11.957 E13.32952
G1 X-12.943 Y11.939 E13.33637
G1 X-13.821 Y11.837 E13.35842
G1 X-14.095 Y11.791 E13.36535
G1 X-14.963 Y11.603 E13.38751
G1 X-15.226 Y11.533 E13.3943
G1 X-16.069 Y11.264 E13.41637
G1 X-16.335 Y11.165 E13.42345
G1 X-17.146 Y10.814 E13.44549
G1 X-17.385 Y10.696 E13.45214
G1 X-18.163 Y10.269 E13.47428
G1 X-18.405 Y10.121 E13.48136
G1 X-19.132 Y9.622 E13.50335
G1 X-19.352 Y9.455 E13.51024
G1 X-20.032 Y8.884 E13.53239
G1 X-20.235 Y8.695 E13.53931
G1 X-20.853 Y8.064 E13.56134
G1 X-21.035 Y7.86 E13.56816
G1 X-21.592 Y7.17 E13.59028
G1 X-21.755 Y6.946 E13.59719
G1 X-22.241 Y6.207 E13.61926
G1 X-22.382 Y5.968 E13.62618
G1 X-22.794 Y5.185 E13.64825
G1 X-22.909 Y4.939 E13.65502
G1 X-23.245 Y4.119 E13.67713
