;FLAVOR:Marlin
;TIME:2900
;Filament used: 1.11835m
;Layer height: 0.1
;MINX:-24.168
;MINY:-12.174
;MINZ:0.2
;MAXX:25.15
;MAXY:12.174
;MAXZ:8
;Generated with Cura_SteamEngine 4.13.1
M140 S110
M105
M190 S110
M104 S240
M105
M109 S240
M82 ;absolute extrusion mode
G28 ;Home
G1 Z15.0 F6000 ;Move the platform down 15mm
;Prime the extruder
G92 E0
G1 F200 E3
G92 E0
G92 E0
G92 E0
G1 F2700 E-5
;LAYER_COUNT:79
;LAYER:0
M107
G0 F900 X-.879 Y7.084 Z0.2
;TYPE:SKIRT
G1 F2700 E0.01123
G1 F900 X-5.018 Y9.978 E0.13721
G1 X-5.132 Y10.053 E0.14061
G1 X-5.889 Y10.53 E0.16293
G1 X-6.128 Y10.666 E0.16979
G1 X-6.936 Y11.072 E0.19235
G1 X-7.179 Y11.18 E0.19898
G1 X-8.024 Y11.51 E0.22161
G1 X-8.301 Y11.602 E0.22889
G1 X-9.172 Y11.843 E0.25144
G1 X-9.431 Y11.902 E0.25806
G1 X-10.322 Y12.061 E0.28064
G1 X-10.602 Y12.096 E0.28768
G1 X-11.504 Y12.166 E0.31025
G1 X-11.779 Y12.174 E0.31711
G1 X-12.681 Y12.157 E0.33961
G1 X-12.958 Y12.139 E0.34654
G1 X-13.856 Y12.034 E0.36909
G1 X-14.128 Y11.988 E0.37597
G1 X-15.015 Y11.796 E0.39861
G1 X-15.279 Y11.726 E0.40542
G1 X-16.14 Y11.451 E0.42797
G1 X-16.403 Y11.352 E0.43498
G1 X-17.232 Y10.994 E0.45751
G1 X-17.472 Y10.877 E0.46417
G1 X-18.267 Y10.441 E0.48678
G1 X-18.512 Y10.29 E0.49396
G1 X-19.255 Y9.779 E0.51646
G1 X-19.472 Y9.614 E0.52326
G1 X-20.167 Y9.031 E0.54589
G1 X-20.372 Y8.841 E0.55286
G1 X-21.003 Y8.196 E0.57537
G1 X-21.182 Y7.995 E0.58208
G1 X-21.752 Y7.29 E0.6047
G1 X-21.917 Y7.065 E0.61166
G1 X-22.414 Y6.31 E0.6342
G1 X-22.556 Y6.068 E0.6412
G1 X-22.976 Y5.268 E0.66374
G1 X-23.09 Y5.025 E0.67044
G1 X-23.434 Y4.187 E0.69304
G1 X-23.529 Y3.918 E0.70015
G1 X-23.786 Y3.054 E0.72264
G1 X-23.848 Y2.803 E0.72909
G1 X-23.977 Y2.163 E0.74537
G1 X-24.066 Y1.629 E0.75888
G1 X-24.154 Y0.732 E0.78136
G1 X-24.168 Y0.454 E0.7883
G1 X-24.168 Y-.452 E0.8109
G1 X-24.154 Y-.729 E0.81782
G1 X-24.066 Y-1.629 E0.84038
G1 X-24.026 Y-1.903 E0.84729
G1 X-23.851 Y-2.791 E0.86987
G1 X-23.785 Y-3.057 E0.8767
G1 X-23.526 Y-3.922 E0.89923
G1 X-23.434 Y-4.185 E0.90618
G1 X-23.091 Y-5.023 E0.92876
G1 X-22.976 Y-5.268 E0.93552
G1 X-22.556 Y-6.068 E0.95805
G1 X-22.414 Y-6.31 E0.96505
G1 X-21.917 Y-7.065 E0.9876
G1 X-21.754 Y-7.288 E0.99449
G1 X-21.185 Y-7.993 E1.01709
G1 X-21.003 Y-8.198 E1.02393
G1 X-20.371 Y-8.843 E1.04646
G1 X-20.167 Y-9.031 E1.05338
G1 X-19.472 Y-9.614 E1.076
G1 X-19.251 Y-9.782 E1.08293
G1 X-18.507 Y-10.292 E1.10543
G1 X-18.273 Y-10.436 E1.11228
G1 X-17.479 Y-10.874 E1.1349
G1 X-17.229 Y-10.997 E1.14185
G1 X-16.4 Y-11.354 E1.16437
G1 X-16.14 Y-11.451 E1.17129
G1 X-15.279 Y-11.726 E1.19384
G1 X-15.024 Y-11.794 E1.20042
G1 X-14.383 Y-11.935 E1.21679
G1 X-13.855 Y-12.034 E1.23019
G1 X-12.958 Y-12.139 E1.25272
G1 X-12.681 Y-12.157 E1.25965
G1 X-11.779 Y-12.174 E1.28215
G1 X-11.504 Y-12.166 E1.28902
G1 X-10.602 Y-12.096 E1.31158
G1 X-10.325 Y-12.061 E1.31855
G1 X-9.434 Y-11.903 E1.34112
G1 X-9.166 Y-11.842 E1.34798
G1 X-8.295 Y-11.599 E1.37053
G1 X-8.027 Y-11.51 E1.37758
G1 X-7.182 Y-11.181 E1.4002
G1 X-6.936 Y-11.072 E1.40691
G1 X-6.13 Y-10.667 E1.42941
G1 X-5.891 Y-10.532 E1.43626
G1 X-5.132 Y-10.054 E1.45863
G1 X-5.019 Y-9.978 E1.46203
G1 X-.88 Y-7.086 E1.58799
G1 X1.855 Y-7.083 E1.65621
G1 X22.3 Y-7.082 E2.16621
G1 X22.776 Y-7.042 E2.17813
G1 X23.238 Y-6.923 E2.19003
G1 X23.673 Y-6.729 E2.20191
G1 X24.071 Y-6.465 E2.21382
G1 X24.418 Y-6.139 E2.2257
G1 X24.707 Y-5.758 E2.23763
G1 X24.928 Y-5.336 E2.24951
G1 X25.075 Y-4.882 E2.26142
G1 X25.15 Y-4.232 E2.27774
G1 X25.15 Y-1.2 E2.35337
G1 X25.11 Y-.725 E2.36526
G1 X24.991 Y-.263 E2.37716
G1 X24.876 Y-0.004 E2.38423
G1 X25.075 Y0.55 E2.39892
G1 X25.15 Y1.2 E2.41524
G1 X25.15 Y4.232 E2.49087
G1 X25.11 Y4.707 E2.50276
G1 X24.991 Y5.169 E2.51466
G1 X24.797 Y5.605 E2.52657
G1 X24.533 Y6.003 E2.53848
G1 X24.207 Y6.35 E2.55036
G1 X23.827 Y6.639 E2.56227
G1 X23.404 Y6.86 E2.57417
G1 X22.95 Y7.007 E2.58608
G1 X22.301 Y7.082 E2.60237
G1 X16.053 Y7.085 E2.75823
G1 X-.879 Y7.084 E3.1806
G0 X-.974 Y6.784
G1 X-5.19 Y9.732 E3.30893
G1 X-5.292 Y9.799 E3.31197
G1 X-6.049 Y10.276 E3.33429
G1 X-6.263 Y10.398 E3.34044
G1 X-7.071 Y10.804 E3.363
G1 X-7.288 Y10.9 E3.36891
G1 X-8.133 Y11.23 E3.39154
G1 X-8.381 Y11.313 E3.39807
G1 X-9.252 Y11.554 E3.42061
G1 X-9.484 Y11.606 E3.42654
G1 X-10.375 Y11.765 E3.44912
G1 X-10.626 Y11.797 E3.45543
G1 X-11.528 Y11.867 E3.478
G1 X-11.773 Y11.875 E3.48411
G1 X-12.675 Y11.858 E3.50662
G1 X-12.923 Y11.841 E3.51282
G1 X-13.821 Y11.736 E3.53537
G1 X-14.064 Y11.695 E3.54152
G1 X-14.951 Y11.503 E3.56416
G1 X-15.188 Y11.44 E3.57028
G1 X-16.049 Y11.165 E3.59282
G1 X-16.284 Y11.077 E3.59908
G1 X-17.113 Y10.719 E3.62161
G1 X-17.328 Y10.614 E3.62758
G1 X-18.123 Y10.178 E3.65019
G1 X-18.342 Y10.043 E3.65661
G1 X-19.085 Y9.532 E3.67911
G1 X-19.279 Y9.385 E3.68518
G1 X-19.974 Y8.802 E3.70781
G1 X-20.158 Y8.631 E3.71407
G1 X-20.789 Y7.986 E3.73658
G1 X-20.949 Y7.806 E3.74259
G1 X-21.519 Y7.101 E3.7652
G1 X-21.666 Y6.9 E3.77142
G1 X-22.163 Y6.145 E3.79396
G1 X-22.291 Y5.928 E3.80025
G1 X-22.711 Y5.128 E3.82279
G1 X-22.812 Y4.911 E3.82876
G1 X-23.156 Y4.073 E3.85136
G1 X-23.241 Y3.832 E3.85773
G1 X-23.498 Y2.968 E3.88022
G1 X-23.554 Y2.743 E3.886
G1 X-23.682 Y2.107 E3.90218
G1 X-23.768 Y1.6 E3.91501
G1 X-23.856 Y0.703 E3.93749
G1 X-23.868 Y0.454 E3.94371
G1 X-23.868 Y-.452 E3.96631
G1 X-23.856 Y-.7 E3.97251
G1 X-23.768 Y-1.6 E3.99506
G1 X-23.732 Y-1.845 E4.00124
G1 X-23.557 Y-2.733 E4.02382
G1 X-23.498 Y-2.971 E4.02993
G1 X-23.239 Y-3.836 E4.05246
G1 X-23.156 Y-4.071 E4.05868
G1 X-22.813 Y-4.909 E4.08126
G1 X-22.711 Y-5.128 E4.08729
G1 X-22.291 Y-5.928 E4.10983
G1 X-22.163 Y-6.145 E4.11611
G1 X-21.666 Y-6.9 E4.13866
G1 X-21.52 Y-7.1 E4.14484
G1 X-20.951 Y-7.805 E4.16744
G1 X-20.788 Y-7.988 E4.17355
G1 X-20.156 Y-8.633 E4.19608
G1 X-19.974 Y-8.802 E4.20227
G1 X-19.279 Y-9.385 E4.2249
G1 X-19.082 Y-9.534 E4.23106
G1 X-18.338 Y-10.044 E4.25356
G1 X-18.128 Y-10.174 E4.25972
G1 X-17.334 Y-10.612 E4.28234
G1 X-17.111 Y-10.721 E4.28854
G1 X-16.282 Y-11.078 E4.31105
G1 X-16.049 Y-11.165 E4.31726
G1 X-15.188 Y-11.44 E4.3398
G1 X-14.96 Y-11.501 E4.34569
G1 X-14.322 Y-11.642 E4.36199
G1 X-13.82 Y-11.736 E4.37473
G1 X-12.923 Y-11.841 E4.39726
G1 X-12.675 Y-11.858 E4.40346
G1 X-11.773 Y-11.875 E4.42596
G1 X-11.528 Y-11.867 E4.43208
G1 X-10.626 Y-11.797 E4.45465
G1 X-10.378 Y-11.766 E4.46088
G1 X-9.487 Y-11.608 E4.48345
G1 X-9.247 Y-11.553 E4.4896
G1 X-8.376 Y-11.31 E4.51215
G1 X-8.136 Y-11.23 E4.51846
G1 X-7.291 Y-10.901 E4.54108
G1 X-7.071 Y-10.804 E4.54708
G1 X-6.265 Y-10.399 E4.56958
G1 X-6.051 Y-10.278 E4.57571
G1 X-5.292 Y-9.8 E4.59809
G1 X-5.19 Y-9.732 E4.60115
G1 X-.974 Y-6.786 E4.72945
G1 X1.855 Y-6.783 E4.80002
G1 X22.3 Y-6.782 E5.31002
G1 X22.75 Y-6.742 E5.32129
G1 X23.185 Y-6.624 E5.33253
G1 X23.593 Y-6.43 E5.3438
G1 X23.96 Y-6.168 E5.35505
G1 X24.275 Y-5.845 E5.36631
G1 X24.528 Y-5.472 E5.37755
G1 X24.712 Y-5.059 E5.38883
G1 X24.82 Y-4.621 E5.40008
G1 X24.85 Y-4.232 E5.40981
G1 X24.85 Y-1.2 E5.48545
G1 X24.81 Y-.751 E5.49669
G1 X24.692 Y-.315 E5.50796
G1 X24.544 Y-0.004 E5.51655
G1 X24.712 Y0.372 E5.52682
G1 X24.82 Y0.81 E5.53808
G1 X24.85 Y1.2 E5.54783
G1 X24.85 Y4.232 E5.62347
G1 X24.81 Y4.681 E5.63471
G1 X24.692 Y5.117 E5.64598
G1 X24.498 Y5.525 E5.65725
G1 X24.236 Y5.892 E5.6685
G1 X23.913 Y6.207 E5.67975
G1 X23.54 Y6.46 E5.69099
G1 X23.128 Y6.644 E5.70225
G1 X22.69 Y6.752 E5.7135
G1 X22.301 Y6.782 E5.72324
G1 X16.053 Y6.785 E5.87909
G1 X-.974 Y6.784 E6.30383
G0 X-1.069 Y6.484
G1 X-5.362 Y9.486 E6.43451
G1 X-5.452 Y9.546 E6.43721
G1 X-6.209 Y10.023 E6.45953
G1 X-6.398 Y10.129 E6.46493
G1 X-7.206 Y10.535 E6.48749
G1 X-7.398 Y10.621 E6.49274
G1 X-8.243 Y10.951 E6.51537
G1 X-8.461 Y11.024 E6.5211
G1 X-9.332 Y11.265 E6.54364
G1 X-9.537 Y11.311 E6.54888
G1 X-10.428 Y11.47 E6.57146
G1 X-10.649 Y11.498 E6.57702
G1 X-11.551 Y11.568 E6.59959
G1 X-11.767 Y11.575 E6.60498
G1 X-12.669 Y11.558 E6.62748
G1 X-12.888 Y11.543 E6.63296
G1 X-13.786 Y11.438 E6.65551
G1 X-14.001 Y11.402 E6.66095
G1 X-14.888 Y11.21 E6.68359
G1 X-15.097 Y11.154 E6.68899
G1 X-15.958 Y10.879 E6.71153
G1 X-16.165 Y10.802 E6.71704
G1 X-16.994 Y10.444 E6.73957
G1 X-17.184 Y10.351 E6.74484
G1 X-17.979 Y9.915 E6.76746
G1 X-18.172 Y9.796 E6.77312
G1 X-18.915 Y9.285 E6.79561
G1 X-19.086 Y9.155 E6.80097
G1 X-19.781 Y8.572 E6.8236
G1 X-19.943 Y8.421 E6.82912
G1 X-20.574 Y7.776 E6.85163
G1 X-20.716 Y7.618 E6.85693
G1 X-21.286 Y6.913 E6.87955
G1 X-21.415 Y6.735 E6.88503
G1 X-21.912 Y5.98 E6.90758
G1 X-22.025 Y5.789 E6.91311
G1 X-22.445 Y4.989 E6.93565
G1 X-22.534 Y4.797 E6.94093
G1 X-22.878 Y3.959 E6.96353
G1 X-22.954 Y3.746 E6.96917
G1 X-23.211 Y2.882 E6.99166
G1 X-23.26 Y2.684 E6.99674
G1 X-23.387 Y2.05 E7.01287
G1 X-23.469 Y1.571 E7.025
G1 X-23.557 Y0.674 E7.04748
G1 X-23.568 Y0.454 E7.05297
G1 X-23.568 Y-.452 E7.07557
G1 X-23.557 Y-.671 E7.08104
G1 X-23.469 Y-1.571 E7.1036
G1 X-23.438 Y-1.787 E7.10905
G1 X-23.263 Y-2.675 E7.13162
G1 X-23.21 Y-2.885 E7.13703
G1 X-22.951 Y-3.75 E7.15955
G1 X-22.878 Y-3.957 E7.16502
G1 X-22.535 Y-4.795 E7.18761
G1 X-22.445 Y-4.989 E7.19295
G1 X-22.025 Y-5.789 E7.21549
G1 X-21.912 Y-5.98 E7.22102
G1 X-21.415 Y-6.735 E7.24357
G1 X-21.287 Y-6.911 E7.249
G1 X-20.718 Y-7.616 E7.2716
G1 X-20.574 Y-7.778 E7.277
G1 X-19.942 Y-8.423 E7.29953
G1 X-19.781 Y-8.572 E7.305
G1 X-19.086 Y-9.155 E7.32763
G1 X-18.912 Y-9.287 E7.33308
G1 X-18.168 Y-9.797 E7.35558
G1 X-17.983 Y-9.911 E7.361
G1 X-17.189 Y-10.349 E7.38362
G1 X-16.992 Y-10.446 E7.3891
G1 X-16.163 Y-10.803 E7.41161
G1 X-15.958 Y-10.879 E7.41707
G1 X-15.097 Y-11.154 E7.43961
G1 X-14.896 Y-11.208 E7.44481
G1 X-14.261 Y-11.348 E7.46103
G1 X-13.786 Y-11.438 E7.47309
G1 X-12.889 Y-11.543 E7.49562
G1 X-12.669 Y-11.558 E7.50112
G1 X-11.767 Y-11.575 E7.52362
G1 X-11.551 Y-11.568 E7.52901
G1 X-10.649 Y-11.498 E7.55158
G1 X-10.43 Y-11.47 E7.55709
G1 X-9.539 Y-11.312 E7.57966
G1 X-9.327 Y-11.264 E7.58508
G1 X-8.456 Y-11.021 E7.60764
G1 X-8.245 Y-10.951 E7.61318
G1 X-7.4 Y-10.622 E7.6358
G1 X-7.206 Y-10.535 E7.64111
G1 X-6.4 Y-10.13 E7.66361
G1 X-6.211 Y-10.024 E7.66901
G1 X-5.452 Y-9.546 E7.69139
G1 X-5.362 Y-9.486 E7.69409
G1 X-1.069 Y-6.486 E7.82473
G1 X1.854 Y-6.483 E7.89765
G1 X22.3 Y-6.482 E8.40768
G1 X22.722 Y-6.442 E8.41825
G1 X23.129 Y-6.324 E8.42882
G1 X23.506 Y-6.131 E8.43939
G1 X23.841 Y-5.871 E8.44996
G1 X24.121 Y-5.553 E8.46053
G1 X24.337 Y-5.188 E8.47111
G1 X24.48 Y-4.789 E8.48169
G1 X24.55 Y-4.232 E8.49569
G1 X24.55 Y-1.2 E8.57132
G1 X24.51 Y-.778 E8.5819
G1 X24.392 Y-.371 E8.59247
G1 X24.197 Y0.008 E8.6031
G1 X24.337 Y0.244 E8.60995
G1 X24.48 Y0.643 E8.62052
G1 X24.55 Y1.2 E8.63452
G1 X24.55 Y4.232 E8.71016
G1 X24.51 Y4.654 E8.72073
G1 X24.392 Y5.061 E8.7313
G1 X24.199 Y5.438 E8.74187
G1 X23.939 Y5.773 E8.75244
G1 X23.621 Y6.053 E8.76301
G1 X23.256 Y6.269 E8.77359
G1 X22.857 Y6.412 E8.78417
G1 X22.301 Y6.482 E8.79815
G1 X16.053 Y6.485 E8.954
G1 X-1.069 Y6.484 E9.38111
G0 X-1.163 Y6.184
G1 X-5.534 Y9.24 E9.51415
G1 X-5.611 Y9.292 E9.51647
G1 X-6.368 Y9.769 E9.53879
G1 X-6.532 Y9.861 E9.54348
G1 X-7.34 Y10.267 E9.56604
G1 X-7.507 Y10.341 E9.5706
G1 X-8.352 Y10.671 E9.59322
G1 X-8.541 Y10.734 E9.59819
G1 X-9.412 Y10.975 E9.62074
G1 X-9.589 Y11.016 E9.62527
G1 X-10.48 Y11.175 E9.64785
G1 X-10.672 Y11.199 E9.65267
G1 X-11.574 Y11.269 E9.67524
G1 X-11.762 Y11.275 E9.67993
G1 X-12.664 Y11.258 E9.70244
G1 X-12.853 Y11.245 E9.70716
G1 X-13.751 Y11.14 E9.72972
G1 X-13.938 Y11.109 E9.73445
G1 X-14.825 Y10.917 E9.75708
G1 X-15.005 Y10.869 E9.76173
G1 X-15.866 Y10.594 E9.78428
G1 X-16.046 Y10.526 E9.78908
G1 X-16.875 Y10.168 E9.8116
G1 X-17.04 Y10.088 E9.81618
G1 X-17.835 Y9.652 E9.8388
G1 X-18.002 Y9.549 E9.84369
G1 X-18.745 Y9.038 E9.86618
G1 X-18.893 Y8.925 E9.87083
G1 X-19.588 Y8.342 E9.89346
G1 X-19.729 Y8.212 E9.89824
G1 X-20.36 Y7.567 E9.92075
G1 X-20.482 Y7.429 E9.92535
G1 X-21.052 Y6.724 E9.94796
G1 X-21.165 Y6.57 E9.95273
G1 X-21.662 Y5.815 E9.97527
G1 X-21.76 Y5.649 E9.98008
G1 X-22.18 Y4.849 E10.00262
G1 X-22.257 Y4.684 E10.00716
G1 X-22.601 Y3.846 E10.02976
G1 X-22.666 Y3.661 E10.03465
G1 X-22.923 Y2.797 E10.05714
G1 X-22.966 Y2.625 E10.06156
G1 X-23.092 Y1.994 E10.07761
G1 X-23.171 Y1.541 E10.08908
G1 X-23.259 Y0.644 E10.11156
G1 X-23.268 Y0.454 E10.11631
G1 X-23.268 Y-.452 E10.13891
G1 X-23.259 Y-.642 E10.14365
G1 X-23.171 Y-1.542 E10.16621
G1 X-23.143 Y-1.729 E10.17093
G1 X-22.968 Y-2.617 E10.19351
G1 X-22.923 Y-2.799 E10.19818
G1 X-22.664 Y-3.664 E10.22071
G1 X-22.601 Y-3.844 E10.22546
G1 X-22.258 Y-4.682 E10.24805
G1 X-22.18 Y-4.849 E10.25265
G1 X-21.76 Y-5.649 E10.27519
G1 X-21.662 Y-5.815 E10.28
G1 X-21.165 Y-6.57 E10.30255
G1 X-21.053 Y-6.723 E10.30728
G1 X-20.484 Y-7.428 E10.32987
G1 X-20.36 Y-7.568 E10.33454
G1 X-19.728 Y-8.213 E10.35707
G1 X-19.588 Y-8.342 E10.36181
G1 X-18.893 Y-8.925 E10.38444
G1 X-18.743 Y-9.039 E10.38914
G1 X-17.999 Y-9.549 E10.41164
G1 X-17.838 Y-9.648 E10.41636
G1 X-17.044 Y-10.086 E10.43898
G1 X-16.873 Y-10.17 E10.44373
G1 X-16.044 Y-10.527 E10.46625
G1 X-15.866 Y-10.594 E10.47099
G1 X-15.005 Y-10.869 E10.49354
G1 X-14.831 Y-10.915 E10.49803
G1 X-14.2 Y-11.054 E10.51415
G1 X-13.751 Y-11.14 E10.52555
G1 X-12.854 Y-11.245 E10.54808
G1 X-12.664 Y-11.258 E10.55283
G1 X-11.762 Y-11.275 E10.57533
G1 X-11.574 Y-11.269 E10.58002
G1 X-10.672 Y-11.199 E10.60259
G1 X-10.483 Y-11.175 E10.60735
G1 X-9.592 Y-11.017 E10.62992
G1 X-9.408 Y-10.975 E10.63463
G1 X-8.537 Y-10.732 E10.65718
G1 X-8.354 Y-10.671 E10.662
G1 X-7.509 Y-10.342 E10.68462
G1 X-7.34 Y-10.267 E10.68923
G1 X-6.534 Y-9.862 E10.71173
G1 X-6.371 Y-9.77 E10.7164
G1 X-5.612 Y-9.292 E10.73877
G1 X-5.534 Y-9.24 E10.74111
G1 X-1.164 Y-6.186 E10.8741
G1 X1.854 Y-6.183 E10.94939
G1 X22.3 Y-6.182 E11.45942
G1 X22.693 Y-6.142 E11.46927
G1 X23.069 Y-6.024 E11.4791
G1 X23.414 Y-5.833 E11.48894
G1 X23.713 Y-5.576 E11.49877
G1 X23.955 Y-5.264 E11.50862
G1 X24.128 Y-4.91 E11.51845
G1 X24.227 Y-4.528 E11.52829
G1 X24.25 Y-4.232 E11.5357
G1 X24.25 Y-1.2 E11.61133
G1 X24.21 Y-.808 E11.62116
G1 X24.092 Y-.431 E11.63102
G1 X23.826 Y0.001 E11.64367
G1 X23.955 Y0.168 E11.64894
G1 X24.128 Y0.522 E11.65876
G1 X24.227 Y0.904 E11.66861
G1 X24.25 Y1.2 E11.67601
G1 X24.25 Y4.232 E11.75165
G1 X24.21 Y4.624 E11.76148
G1 X24.092 Y5.001 E11.77133
G1 X23.901 Y5.346 E11.78117
G1 X23.644 Y5.645 E11.791
G1 X23.332 Y5.887 E11.80085
G1 X22.978 Y6.06 E11.81068
G1 X22.596 Y6.159 E11.82053
G1 X22.301 Y6.182 E11.82791
G1 X16.053 Y6.185 E11.98376
G1 X-1.163 Y6.184 E12.41322
G0 X-1.257 Y5.884
G1 X-5.705 Y8.994 E12.54861
G1 X-5.771 Y9.038 E12.55058
G1 X-6.528 Y9.515 E12.5729
G1 X-6.667 Y9.593 E12.57688
G1 X-7.475 Y9.999 E12.59944
G1 X-7.616 Y10.062 E12.60329
G1 X-8.461 Y10.392 E12.62592
G1 X-8.621 Y10.445 E12.63012
G1 X-9.492 Y10.686 E12.65267
G1 X-9.642 Y10.72 E12.6565
G1 X-10.533 Y10.879 E12.67908
G1 X-10.695 Y10.9 E12.68316
G1 X-11.597 Y10.97 E12.70572
G1 X-11.756 Y10.975 E12.70969
G1 X-12.658 Y10.958 E12.7322
G1 X-12.819 Y10.947 E12.73622
G1 X-13.717 Y10.842 E12.75878
G1 X-13.874 Y10.816 E12.76275
G1 X-14.761 Y10.624 E12.78538
G1 X-14.914 Y10.583 E12.78934
G1 X-15.775 Y10.308 E12.81188
G1 X-15.927 Y10.251 E12.81593
G1 X-16.756 Y9.893 E12.83846
G1 X-16.895 Y9.825 E12.84232
G1 X-17.69 Y9.389 E12.86493
G1 X-17.832 Y9.302 E12.86909
G1 X-18.575 Y8.791 E12.89158
G1 X-18.7 Y8.695 E12.89552
G1 X-19.395 Y8.112 E12.91814
G1 X-19.514 Y8.002 E12.92219
G1 X-20.145 Y7.357 E12.94469
G1 X-20.249 Y7.24 E12.9486
G1 X-20.819 Y6.535 E12.97122
G1 X-20.914 Y6.405 E12.97523
G1 X-21.411 Y5.65 E12.99778
G1 X-21.494 Y5.51 E13.00184
G1 X-21.914 Y4.71 E13.02438
G1 X-21.979 Y4.57 E13.02823
G1 X-22.323 Y3.732 E13.05083
G1 X-22.379 Y3.575 E13.05498
G1 X-22.636 Y2.711 E13.07747
G1 X-22.672 Y2.566 E13.0812
G1 X-22.798 Y1.938 E13.09717
G1 X-22.872 Y1.512 E13.10796
G1 X-22.96 Y0.615 E13.13044
G1 X-22.968 Y0.454 E13.13446
G1 X-22.968 Y-.452 E13.15706
G1 X-22.96 Y-.613 E13.16109
G1 X-22.872 Y-1.513 E13.18364
G1 X-22.849 Y-1.671 E13.18763
G1 X-22.674 Y-2.559 E13.2102
G1 X-22.636 Y-2.713 E13.21416
G1 X-22.377 Y-3.578 E13.23668
G1 X-22.323 Y-3.73 E13.24071
G1 X-21.98 Y-4.568 E13.2633
G1 X-21.914 Y-4.71 E13.2672
G1 X-21.494 Y-5.51 E13.28974
G1 X-21.411 Y-5.65 E13.2938
G1 X-20.914 Y-6.405 E13.31635
