;FLAVOR:Marlin
;TIME:3592
;Filament used: 1.13007m
;Layer height: 0.1
;MINX:-26.968
;MINY:-14.974
;MINZ:0.2
;MAXX:27.95
;MAXY:14.974
;MAXZ:8
;Generated with Cura_SteamEngine 4.13.1
M140 S100
M105
M190 S100
M104 S245
M105
M109 S245
M82 ;absolute extrusion mode
G28 ;Home
G1 Z15.0 F6000 ;Move the platform down 15mm
;Prime the extruder
G92 E0
G1 F200 E3
G92 E0
G92 E0
G92 E0
G1 F1500 E-6.5
;LAYER_COUNT:79
;LAYER:0
M107
G0 F1800 X0.001 Y9.884 Z0.2
;TYPE:SKIRT
G1 F1500 E0
G1 F1200 X-3.41 Y12.269 E0.10382
G1 X-3.641 Y12.423 E0.11075
G1 X-4.386 Y12.893 E0.13272
G1 X-4.88 Y13.172 E0.14688
G1 X-5.67 Y13.569 E0.16893
G1 X-6.169 Y13.791 E0.18255
G1 X-6.996 Y14.114 E0.2047
G1 X-7.564 Y14.303 E0.21963
G1 X-8.417 Y14.539 E0.24171
G1 X-8.952 Y14.661 E0.2554
G1 X-9.823 Y14.816 E0.27747
G1 X-10.392 Y14.888 E0.29178
G1 X-11.275 Y14.957 E0.31387
G1 X-11.844 Y14.974 E0.32807
G1 X-12.727 Y14.957 E0.3501
G1 X-13.289 Y14.919 E0.36415
G1 X-14.167 Y14.817 E0.3862
G1 X-14.73 Y14.723 E0.40044
G1 X-15.598 Y14.535 E0.42259
G1 X-16.138 Y14.391 E0.43653
G1 X-16.981 Y14.122 E0.45861
G1 X-17.527 Y13.918 E0.47315
G1 X-18.338 Y13.567 E0.49519
G1 X-18.829 Y13.326 E0.50883
G1 X-19.607 Y12.899 E0.53097
G1 X-20.103 Y12.594 E0.5455
G1 X-20.83 Y12.095 E0.56749
G1 X-21.281 Y11.752 E0.58163
G1 X-21.961 Y11.181 E0.60378
G1 X-22.378 Y10.794 E0.61797
G1 X-22.996 Y10.163 E0.64
G1 X-23.369 Y9.745 E0.65398
G1 X-23.926 Y9.055 E0.6761
G1 X-24.262 Y8.594 E0.69033
G1 X-24.748 Y7.855 E0.71239
G1 X-25.037 Y7.365 E0.72658
G1 X-25.449 Y6.582 E0.74865
G1 X-25.685 Y6.076 E0.76258
G1 X-26.021 Y5.256 E0.78469
G1 X-26.215 Y4.708 E0.79919
G1 X-26.467 Y3.862 E0.82121
G1 X-26.595 Y3.348 E0.83442
G1 X-26.729 Y2.682 E0.85137
G1 X-26.78 Y2.413 E0.8582
G1 X-26.854 Y1.893 E0.8713
G1 X-26.94 Y1.014 E0.89333
G1 X-26.968 Y0.444 E0.90757
G1 X-26.968 Y-.442 E0.92967
G1 X-26.94 Y-1.01 E0.94385
G1 X-26.854 Y-1.891 E0.96593
G1 X-26.771 Y-2.459 E0.98025
G1 X-26.599 Y-3.328 E1.00235
G1 X-26.465 Y-3.868 E1.01623
G1 X-26.212 Y-4.714 E1.03826
G1 X-26.023 Y-5.25 E1.05243
G1 X-25.688 Y-6.07 E1.07453
G1 X-25.449 Y-6.582 E1.08863
G1 X-25.037 Y-7.365 E1.1107
G1 X-24.748 Y-7.855 E1.12489
G1 X-24.262 Y-8.594 E1.14695
G1 X-23.929 Y-9.051 E1.16106
G1 X-23.373 Y-9.741 E1.18316
G1 X-22.994 Y-10.167 E1.19738
G1 X-22.375 Y-10.798 E1.21943
G1 X-21.961 Y-11.181 E1.2335
G1 X-21.281 Y-11.752 E1.25565
G1 X-20.822 Y-12.1 E1.27002
G1 X-20.094 Y-12.598 E1.29202
G1 X-19.619 Y-12.891 E1.30594
G1 X-18.842 Y-13.32 E1.32809
G1 X-18.332 Y-13.57 E1.34225
G1 X-17.521 Y-13.92 E1.36429
G1 X-16.981 Y-14.122 E1.37867
G1 X-16.138 Y-14.391 E1.40074
G1 X-15.619 Y-14.531 E1.41415
G1 X-14.958 Y-14.676 E1.43103
G1 X-14.69 Y-14.732 E1.43786
G1 X-14.167 Y-14.817 E1.45108
G1 X-13.288 Y-14.919 E1.47315
G1 X-12.727 Y-14.957 E1.48718
G1 X-11.844 Y-14.974 E1.50921
G1 X-11.275 Y-14.957 E1.52341
G1 X-10.392 Y-14.888 E1.5455
G1 X-9.829 Y-14.817 E1.55966
G1 X-8.958 Y-14.663 E1.58172
G1 X-8.405 Y-14.537 E1.59587
G1 X-7.552 Y-14.299 E1.61796
G1 X-7.001 Y-14.115 E1.63245
G1 X-6.174 Y-13.793 E1.65459
G1 X-5.67 Y-13.569 E1.66835
G1 X-4.882 Y-13.173 E1.69035
G1 X-4.389 Y-12.894 E1.70448
G1 X-3.642 Y-12.423 E1.72651
G1 X-3.41 Y-12.27 E1.73344
G1 X0.003 Y-9.885 E1.83731
G1 X1.857 Y-9.883 E1.88356
G1 X22.1 Y-9.882 E2.38852
G1 X22.783 Y-9.842 E2.40559
G1 X23.456 Y-9.723 E2.42263
G1 X24.111 Y-9.525 E2.4397
G1 X24.738 Y-9.253 E2.45675
G1 X25.33 Y-8.91 E2.47382
G1 X25.877 Y-8.5 E2.49087
G1 X26.372 Y-8.028 E2.50793
G1 X26.809 Y-7.502 E2.52499
G1 X27.182 Y-6.929 E2.54205
G1 X27.486 Y-6.316 E2.55912
G1 X27.715 Y-5.672 E2.57617
G1 X27.868 Y-5.006 E2.59321
G1 X27.95 Y-4.032 E2.61759
G1 X27.95 Y-1.4 E2.68325
G1 X27.91 Y-.717 E2.70032
G1 X27.791 Y-0.044 E2.71736
G1 X27.774 Y0.014 E2.71887
G1 X27.868 Y0.426 E2.72941
G1 X27.95 Y1.4 E2.7538
G1 X27.95 Y4.032 E2.81945
G1 X27.91 Y4.715 E2.83652
G1 X27.791 Y5.388 E2.85357
G1 X27.594 Y6.043 E2.87063
G1 X27.321 Y6.67 E2.88769
G1 X26.978 Y7.261 E2.90473
G1 X26.568 Y7.808 E2.92179
G1 X26.097 Y8.304 E2.93885
G1 X25.571 Y8.741 E2.95591
G1 X24.997 Y9.114 E2.97298
G1 X24.385 Y9.417 E2.99002
G1 X23.741 Y9.647 E3.00708
G1 X23.074 Y9.8 E3.02415
G1 X22.103 Y9.882 E3.04846
G1 X16.053 Y9.885 E3.19937
G1 X0.001 Y9.884 E3.59979
G0 F1800 X-0.092 Y9.584
G1 F1200 X-3.582 Y12.024 E3.70602
G1 X-3.801 Y12.169 E3.71257
G1 X-4.546 Y12.639 E3.73454
G1 X-5.015 Y12.904 E3.74798
G1 X-5.805 Y13.301 E3.77004
G1 X-6.278 Y13.512 E3.78295
G1 X-7.105 Y13.835 E3.8051
G1 X-7.644 Y14.014 E3.81927
G1 X-8.497 Y14.25 E3.84135
G1 X-9.005 Y14.365 E3.85434
G1 X-9.876 Y14.52 E3.87641
G1 X-10.416 Y14.589 E3.88999
G1 X-11.299 Y14.658 E3.91208
G1 X-11.838 Y14.674 E3.92553
G1 X-12.721 Y14.657 E3.94756
G1 X-13.254 Y14.621 E3.96089
G1 X-14.132 Y14.519 E3.98294
G1 X-14.667 Y14.43 E3.99647
G1 X-15.535 Y14.242 E4.01862
G1 X-16.047 Y14.105 E4.03184
G1 X-16.89 Y13.836 E4.05392
G1 X-17.407 Y13.642 E4.06769
G1 X-18.218 Y13.291 E4.08974
G1 X-18.684 Y13.063 E4.10268
G1 X-19.462 Y12.636 E4.12482
G1 X-19.933 Y12.347 E4.1386
G1 X-20.66 Y11.848 E4.1606
G1 X-21.088 Y11.522 E4.17402
G1 X-21.768 Y10.951 E4.19617
G1 X-22.164 Y10.584 E4.20963
G1 X-22.782 Y9.953 E4.23167
G1 X-23.136 Y9.556 E4.24493
G1 X-23.693 Y8.866 E4.26706
G1 X-24.011 Y8.43 E4.28052
G1 X-24.497 Y7.691 E4.30258
G1 X-24.772 Y7.225 E4.31608
G1 X-25.184 Y6.442 E4.33815
G1 X-25.408 Y5.962 E4.35136
G1 X-25.744 Y5.142 E4.37347
G1 X-25.927 Y4.622 E4.38722
G1 X-26.179 Y3.776 E4.40924
G1 X-26.3 Y3.289 E4.42176
G1 X-26.434 Y2.626 E4.43863
G1 X-26.556 Y1.863 E4.4579
G1 X-26.642 Y0.984 E4.47994
G1 X-26.668 Y0.444 E4.49342
G1 X-26.668 Y-.442 E4.51552
G1 X-26.642 Y-.981 E4.52898
G1 X-26.556 Y-1.862 E4.55107
G1 X-26.476 Y-2.401 E4.56466
G1 X-26.304 Y-3.27 E4.58676
G1 X-26.177 Y-3.782 E4.59991
G1 X-25.924 Y-4.628 E4.62194
G1 X-25.745 Y-5.137 E4.6354
G1 X-25.41 Y-5.957 E4.6575
G1 X-25.184 Y-6.442 E4.67084
G1 X-24.772 Y-7.225 E4.69292
G1 X-24.497 Y-7.691 E4.70641
G1 X-24.011 Y-8.43 E4.72848
G1 X-23.696 Y-8.862 E4.74181
G1 X-23.14 Y-9.552 E4.76392
G1 X-22.78 Y-9.957 E4.77744
G1 X-22.161 Y-10.588 E4.79949
G1 X-21.768 Y-10.951 E4.81283
G1 X-21.088 Y-11.522 E4.83498
G1 X-20.653 Y-11.853 E4.84862
G1 X-19.925 Y-12.351 E4.87062
G1 X-19.474 Y-12.629 E4.88383
G1 X-18.697 Y-13.058 E4.90597
G1 X-18.213 Y-13.295 E4.91942
G1 X-17.402 Y-13.645 E4.94145
G1 X-16.89 Y-13.836 E4.95508
G1 X-16.047 Y-14.105 E4.97716
G1 X-15.554 Y-14.238 E4.98989
G1 X-14.896 Y-14.383 E5.0067
G1 X-14.628 Y-14.439 E5.01353
G1 X-14.133 Y-14.519 E5.02604
G1 X-13.254 Y-14.621 E5.04811
G1 X-12.721 Y-14.657 E5.06144
G1 X-11.838 Y-14.674 E5.08347
G1 X-11.299 Y-14.658 E5.09692
G1 X-10.416 Y-14.589 E5.11902
G1 X-9.882 Y-14.521 E5.13244
G1 X-9.011 Y-14.367 E5.15451
G1 X-8.485 Y-14.248 E5.16796
G1 X-7.632 Y-14.01 E5.19005
G1 X-7.11 Y-13.836 E5.20378
G1 X-6.283 Y-13.514 E5.22592
G1 X-5.805 Y-13.301 E5.23897
G1 X-5.017 Y-12.905 E5.26097
G1 X-4.549 Y-12.641 E5.27437
G1 X-3.802 Y-12.17 E5.2964
G1 X-3.582 Y-12.024 E5.30299
G1 X-0.092 Y-9.585 E5.4092
G1 X1.857 Y-9.583 E5.45782
G1 X22.1 Y-9.582 E5.96278
G1 X22.765 Y-9.542 E5.9794
G1 X23.42 Y-9.423 E5.99601
G1 X24.057 Y-9.226 E6.01264
G1 X24.665 Y-8.954 E6.02925
G1 X25.236 Y-8.611 E6.04587
G1 X25.762 Y-8.203 E6.06247
G1 X26.235 Y-7.734 E6.07909
G1 X26.649 Y-7.212 E6.09571
G1 X26.997 Y-6.644 E6.11233
G1 X27.274 Y-6.039 E6.12893
G1 X27.478 Y-5.404 E6.14556
G1 X27.603 Y-4.75 E6.16217
G1 X27.65 Y-4.032 E6.18012
G1 X27.65 Y-1.4 E6.24578
G1 X27.61 Y-.735 E6.26239
G1 X27.491 Y-0.08 E6.279
G1 X27.478 Y0.027 E6.28169
G1 X27.603 Y0.681 E6.2983
G1 X27.65 Y1.4 E6.31627
G1 X27.65 Y4.032 E6.38193
G1 X27.61 Y4.697 E6.39855
G1 X27.491 Y5.352 E6.41515
G1 X27.294 Y5.988 E6.43176
G1 X27.022 Y6.596 E6.44838
G1 X26.679 Y7.168 E6.46502
G1 X26.271 Y7.694 E6.48162
G1 X25.802 Y8.167 E6.49824
G1 X25.28 Y8.581 E6.51486
G1 X24.712 Y8.929 E6.53147
G1 X24.107 Y9.206 E6.54807
G1 X23.473 Y9.41 E6.56468
G1 X22.819 Y9.535 E6.58129
G1 X22.103 Y9.582 E6.59919
G1 X16.053 Y9.585 E6.75011
G1 X-0.092 Y9.584 E7.15285
G0 F1800 X-.187 Y9.284
G1 F1200 X-3.754 Y11.778 E7.26142
G1 X-3.961 Y11.915 E7.26761
G1 X-4.706 Y12.385 E7.28959
G1 X-5.15 Y12.636 E7.30231
G1 X-5.94 Y13.033 E7.32436
G1 X-6.387 Y13.232 E7.33657
G1 X-7.214 Y13.555 E7.35872
G1 X-7.724 Y13.725 E7.37213
G1 X-8.577 Y13.961 E7.39421
G1 X-9.057 Y14.07 E7.40648
G1 X-9.928 Y14.225 E7.42855
G1 X-10.439 Y14.29 E7.4414
G1 X-11.322 Y14.359 E7.4635
G1 X-11.832 Y14.374 E7.47622
G1 X-12.715 Y14.357 E7.49825
G1 X-13.22 Y14.323 E7.51088
G1 X-14.098 Y14.221 E7.53293
G1 X-14.603 Y14.137 E7.5457
G1 X-15.471 Y13.949 E7.56785
G1 X-15.956 Y13.82 E7.58037
G1 X-16.799 Y13.551 E7.60245
G1 X-17.288 Y13.367 E7.61548
G1 X-18.099 Y13.016 E7.63752
G1 X-18.54 Y12.8 E7.64977
G1 X-19.318 Y12.373 E7.67191
G1 X-19.763 Y12.099 E7.68495
G1 X-20.49 Y11.6 E7.70694
G1 X-20.895 Y11.293 E7.71962
G1 X-21.575 Y10.722 E7.74177
G1 X-21.95 Y10.374 E7.75453
G1 X-22.568 Y9.743 E7.77656
G1 X-22.902 Y9.368 E7.78909
G1 X-23.459 Y8.678 E7.81121
G1 X-23.76 Y8.265 E7.82396
G1 X-24.246 Y7.526 E7.84602
G1 X-24.506 Y7.086 E7.85877
G1 X-24.918 Y6.303 E7.88084
G1 X-25.13 Y5.849 E7.89334
G1 X-25.466 Y5.029 E7.91545
G1 X-25.64 Y4.537 E7.92846
G1 X-25.892 Y3.691 E7.95048
G1 X-26.006 Y3.23 E7.96233
G1 X-26.139 Y2.57 E7.97913
G1 X-26.257 Y1.834 E7.99772
G1 X-26.343 Y0.955 E8.01975
G1 X-26.368 Y0.444 E8.03251
G1 X-26.368 Y-.442 E8.05461
G1 X-26.343 Y-.952 E8.06735
G1 X-26.257 Y-1.833 E8.08943
G1 X-26.182 Y-2.342 E8.10227
G1 X-26.01 Y-3.211 E8.12436
G1 X-25.89 Y-3.696 E8.13683
G1 X-25.637 Y-4.542 E8.15886
G1 X-25.467 Y-5.024 E8.1716
G1 X-25.132 Y-5.844 E8.1937
G1 X-24.918 Y-6.303 E8.20633
G1 X-24.506 Y-7.086 E8.2284
G1 X-24.246 Y-7.526 E8.24115
G1 X-23.76 Y-8.265 E8.26322
G1 X-23.462 Y-8.674 E8.27584
G1 X-22.906 Y-9.364 E8.29795
G1 X-22.566 Y-9.747 E8.31072
G1 X-21.947 Y-10.378 E8.33277
G1 X-21.575 Y-10.722 E8.34541
G1 X-20.895 Y-11.293 E8.36756
G1 X-20.483 Y-11.605 E8.38045
G1 X-19.755 Y-12.103 E8.40245
G1 X-19.329 Y-12.366 E8.41494
G1 X-18.552 Y-12.795 E8.43708
G1 X-18.094 Y-13.019 E8.4498
G1 X-17.283 Y-13.369 E8.47183
G1 X-16.799 Y-13.551 E8.48473
G1 X-15.956 Y-13.82 E8.50681
G1 X-15.49 Y-13.945 E8.51884
G1 X-14.835 Y-14.089 E8.53557
G1 X-14.098 Y-14.221 E8.55425
G1 X-13.219 Y-14.323 E8.57632
G1 X-12.715 Y-14.357 E8.58892
G1 X-11.832 Y-14.374 E8.61095
G1 X-11.322 Y-14.359 E8.62368
G1 X-10.439 Y-14.29 E8.64578
G1 X-9.934 Y-14.226 E8.65847
G1 X-9.063 Y-14.072 E8.68054
G1 X-8.566 Y-13.959 E8.69325
G1 X-7.713 Y-13.721 E8.71534
G1 X-7.219 Y-13.556 E8.72833
G1 X-6.392 Y-13.234 E8.75047
G1 X-5.94 Y-13.033 E8.76281
G1 X-5.152 Y-12.637 E8.78481
G1 X-4.709 Y-12.387 E8.7975
G1 X-3.962 Y-11.916 E8.81953
G1 X-3.754 Y-11.778 E8.82576
G1 X-.187 Y-9.285 E8.93431
G1 X1.856 Y-9.283 E8.98528
G1 X22.1 Y-9.282 E9.49026
G1 X22.747 Y-9.242 E9.50643
G1 X23.383 Y-9.123 E9.52258
G1 X24.001 Y-8.926 E9.53876
G1 X24.589 Y-8.655 E9.55491
G1 X25.139 Y-8.313 E9.57106
G1 X25.643 Y-7.906 E9.58722
G1 X26.093 Y-7.44 E9.60338
G1 X26.483 Y-6.923 E9.61954
G1 X26.805 Y-6.361 E9.63569
G1 X27.056 Y-5.764 E9.65185
G1 X27.232 Y-5.14 E9.66802
G1 X27.329 Y-4.5 E9.68417
G1 X27.35 Y-4.032 E9.69585
G1 X27.35 Y-1.4 E9.76151
G1 X27.31 Y-.753 E9.77768
G1 X27.191 Y-.117 E9.79382
G1 X27.152 Y0.007 E9.79706
G1 X27.232 Y0.292 E9.80445
G1 X27.329 Y0.932 E9.82059
G1 X27.35 Y1.4 E9.83228
G1 X27.35 Y4.032 E9.89794
G1 X27.31 Y4.679 E9.91411
G1 X27.191 Y5.315 E9.93025
G1 X26.994 Y5.932 E9.9464
G1 X26.723 Y6.521 E9.96258
G1 X26.381 Y7.071 E9.97873
G1 X25.974 Y7.575 E9.99489
G1 X25.508 Y8.025 E10.01105
G1 X24.991 Y8.414 E10.02719
G1 X24.429 Y8.737 E10.04336
G1 X23.832 Y8.988 E10.05952
G1 X23.208 Y9.164 E10.07569
G1 X22.568 Y9.261 E10.09184
G1 X22.103 Y9.282 E10.10345
G1 X16.053 Y9.285 E10.25437
G1 X-.187 Y9.284 E10.65947
G0 F1800 X-.282 Y8.984
G1 F1200 X-3.926 Y11.532 E10.77039
G1 X-4.121 Y11.662 E10.77624
G1 X-4.866 Y12.132 E10.79821
G1 X-5.284 Y12.368 E10.81019
G1 X-6.074 Y12.765 E10.83224
G1 X-6.496 Y12.953 E10.84376
G1 X-7.323 Y13.276 E10.86591
G1 X-7.804 Y13.436 E10.87856
G1 X-8.657 Y13.672 E10.90063
G1 X-9.11 Y13.774 E10.91222
G1 X-9.981 Y13.929 E10.93429
G1 X-10.462 Y13.991 E10.94638
G1 X-11.345 Y14.06 E10.96848
G1 X-11.826 Y14.074 E10.98048
G1 X-12.709 Y14.057 E11.00251
G1 X-13.185 Y14.025 E11.01441
G1 X-14.063 Y13.923 E11.03646
G1 X-14.54 Y13.844 E11.04852
G1 X-15.408 Y13.656 E11.07068
G1 X-15.865 Y13.534 E11.08248
G1 X-16.708 Y13.265 E11.10455
G1 X-17.169 Y13.092 E11.11683
G1 X-17.98 Y12.741 E11.13888
G1 X-18.396 Y12.537 E11.15043
G1 X-19.174 Y12.11 E11.17257
G1 X-19.593 Y11.852 E11.18485
G1 X-20.32 Y11.353 E11.20684
G1 X-20.702 Y11.063 E11.21881
G1 X-21.382 Y10.492 E11.24096
G1 X-21.735 Y10.165 E11.25296
G1 X-22.353 Y9.534 E11.27499
G1 X-22.669 Y9.179 E11.28685
G1 X-23.226 Y8.489 E11.30897
G1 X-23.51 Y8.1 E11.32098
G1 X-23.996 Y7.361 E11.34305
G1 X-24.241 Y6.946 E11.35507
G1 X-24.653 Y6.163 E11.37714
G1 X-24.852 Y5.735 E11.38891
G1 X-25.188 Y4.915 E11.41102
G1 X-25.352 Y4.451 E11.42329
G1 X-25.604 Y3.605 E11.44531
G1 X-25.712 Y3.171 E11.45647
G1 X-25.844 Y2.514 E11.47319
G1 X-25.958 Y1.805 E11.4911
G1 X-26.044 Y0.926 E11.51313
G1 X-26.068 Y0.444 E11.52517
G1 X-26.068 Y-.442 E11.54727
G1 X-26.045 Y-.923 E11.55928
G1 X-25.959 Y-1.804 E11.58136
G1 X-25.888 Y-2.284 E11.59347
G1 X-25.716 Y-3.153 E11.61557
G1 X-25.602 Y-3.61 E11.62732
G1 X-25.349 Y-4.456 E11.64934
G1 X-25.189 Y-4.91 E11.66135
G1 X-24.854 Y-5.73 E11.68345
G1 X-24.653 Y-6.163 E11.69535
G1 X-24.241 Y-6.946 E11.71743
G1 X-23.996 Y-7.361 E11.72945
G1 X-23.51 Y-8.1 E11.75151
G1 X-23.228 Y-8.486 E11.76344
G1 X-22.672 Y-9.176 E11.78554
G1 X-22.352 Y-9.536 E11.79756
G1 X-21.733 Y-10.167 E11.81961
G1 X-21.382 Y-10.492 E11.83154
G1 X-20.702 Y-11.063 E11.85369
G1 X-20.314 Y-11.358 E11.86585
G1 X-19.586 Y-11.856 E11.88785
G1 X-19.184 Y-12.103 E11.89962
G1 X-18.407 Y-12.532 E11.92176
G1 X-17.975 Y-12.744 E11.93376
G1 X-17.164 Y-13.094 E11.9558
G1 X-16.708 Y-13.265 E11.96794
G1 X-15.865 Y-13.534 E11.99002
G1 X-15.425 Y-13.652 E12.00138
G1 X-14.773 Y-13.795 E12.01803
G1 X-14.064 Y-13.923 E12.036
G1 X-13.185 Y-14.025 E12.05808
G1 X-12.709 Y-14.057 E12.06998
G1 X-11.826 Y-14.074 E12.09201
G1 X-11.345 Y-14.06 E12.10401
G1 X-10.462 Y-13.991 E12.12611
G1 X-9.986 Y-13.93 E12.13808
G1 X-9.115 Y-13.776 E12.16014
G1 X-8.647 Y-13.67 E12.17211
G1 X-7.794 Y-13.432 E12.1942
G1 X-7.328 Y-13.277 E12.20645
G1 X-6.501 Y-12.955 E12.22859
G1 X-6.074 Y-12.765 E12.24025
G1 X-5.286 Y-12.369 E12.26225
G1 X-4.869 Y-12.133 E12.2742
G1 X-4.122 Y-11.662 E12.29623
G1 X-3.926 Y-11.532 E12.3021
G1 X-.282 Y-8.985 E12.413
G1 X1.856 Y-8.983 E12.46633
G1 X22.1 Y-8.982 E12.97132
G1 X22.728 Y-8.942 E12.98702
G1 X23.345 Y-8.823 E13.00269
G1 X23.943 Y-8.626 E13.0184
G1 X24.511 Y-8.355 E13.0341
G1 X25.039 Y-8.015 E13.04976
G1 X25.521 Y-7.61 E13.06547
G1 X25.947 Y-7.147 E13.08116
G1 X26.311 Y-6.634 E13.09685
G1 X26.607 Y-6.079 E13.11255
G1 X26.83 Y-5.491 E13.12823
G1 X26.977 Y-4.88 E13.14391
G1 X27.05 Y-4.032 E13.16514
G1 X27.05 Y-1.4 E13.2308
G1 X27.01 Y-.772 E13.24649
G1 X26.891 Y-.155 E13.26217
G1 X26.843 Y-0.008 E13.26603
G1 X26.977 Y0.552 E13.28039
G1 X27.05 Y1.4 E13.30162
G1 X27.05 Y4.032 E13.36728
G1 X27.01 Y4.66 E13.38297
G1 X26.891 Y5.277 E13.39865
G1 X26.694 Y5.875 E13.41435
G1 X26.423 Y6.442 E13.43003
G1 X26.083 Y6.971 E13.44572
G1 X25.678 Y7.453 E13.46142
G1 X25.215 Y7.879 E13.47712
G1 X24.702 Y8.243 E13.49281
G1 X24.148 Y8.539 E13.50848
G1 X23.56 Y8.762 E13.52416
G1 X22.948 Y8.909 E13.53986
G1 X22.102 Y8.982 E13.56104
G1 X16.053 Y8.985 E13.71194
G1 X-.282 Y8.984 E14.11942
G0 F1800 X-.376 Y8.684
G1 F1200 X-4.098 Y11.286 E14.2327
G1 X-4.281 Y11.408 E14.23819
G1 X-5.026 Y11.878 E14.26016
G1 X-5.419 Y12.1 E14.27142
G1 X-6.209 Y12.497 E14.29347
G1 X-6.605 Y12.673 E14.30428
G1 X-7.432 Y12.996 E14.32643
G1 X-7.884 Y13.147 E14.33832
G1 X-8.737 Y13.383 E14.3604
G1 X-9.162 Y13.479 E14.37127
G1 X-10.033 Y13.634 E14.39333
G1 X-10.486 Y13.692 E14.40473
G1 X-11.369 Y13.761 E14.42682
G1 X-11.821 Y13.774 E14.4381
G1 X-12.704 Y13.757 E14.46013
G1 X-13.151 Y13.727 E14.47131
G1 X-14.029 Y13.625 E14.49336
G1 X-14.476 Y13.551 E14.50466
G1 X-15.344 Y13.363 E14.52681
G1 X-15.774 Y13.248 E14.53792
