;FLAVOR:Marlin
;TIME:1684
;Filament used: 0.437368m
;Layer height: 0.1
;MINX:-13.179
;MINY:-8.75
;MINZ:0.2
;MAXX:13.738
;MAXY:8.75
;MAXZ:13
;Generated with Cura_SteamEngine 4.13.1
M140 S60
M105
M190 S60
M104 S205
M105
M109 S205
M82 ;absolute extrusion mode
G28 ;Home
G1 Z15.0 F6000 ;Move the platform down 15mm
;Prime the extruder
G92 E0
G1 F200 E3
G92 E0
G92 E0
G92 E0
G1 F2400 E-5
;LAYER_COUNT:129
;LAYER:0
M107
G0 F900 X-7.192 Y5.733 Z0.2
;TYPE:SKIRT
G1 F2400 E0.01123
G1 F900 X-7.441 Y5.814 E0.01776
G1 X-7.993 Y5.952 E0.03195
G1 X-8.559 Y6.011 E0.04615
G1 X-9.127 Y5.99 E0.06032
G1 X-9.687 Y5.89 E0.07451
G1 X-10.227 Y5.712 E0.0887
G1 X-10.738 Y5.46 E0.10291
G1 X-11.207 Y5.14 E0.11707
G1 X-11.628 Y4.756 E0.13129
G1 X-12.04 Y4.247 E0.14762
G1 X-12.477 Y3.607 E0.16695
G1 X-12.764 Y3.116 E0.18114
G1 X-12.979 Y2.589 E0.19534
G1 X-13.118 Y2.038 E0.20952
G1 X-13.179 Y1.472 E0.22372
G1 X-13.167 Y0.979 E0.23602
G1 X-13.098 Y0.169 E0.2563
G1 X-13.01 Y-.393 E0.27049
G1 X-12.739 Y-1.182 E0.2913
G1 X-12.755 Y-1.5 E0.29924
G1 X-12.746 Y-2.252 E0.318
G1 X-12.699 Y-2.819 E0.33219
G1 X-12.573 Y-3.374 E0.34639
G1 X-12.371 Y-3.906 E0.36058
G1 X-12.096 Y-4.404 E0.37477
G1 X-11.755 Y-4.859 E0.38896
G1 X-11.352 Y-5.261 E0.40316
G1 X-10.898 Y-5.603 E0.41734
G1 X-10.4 Y-5.878 E0.43153
G1 X-9.793 Y-6.103 E0.44768
G1 X-9.054 Y-6.311 E0.46683
G1 X-8.497 Y-6.426 E0.48101
G1 X-7.93 Y-6.462 E0.49519
G1 X-7.362 Y-6.418 E0.5094
G1 X-6.948 Y-6.326 E0.51998
G1 X-6.773 Y-6.654 E0.52925
G1 X-6.436 Y-7.113 E0.54345
G1 X-6.005 Y-7.564 E0.55902
G1 X-5.575 Y-7.937 E0.57322
G1 X-5.098 Y-8.246 E0.58739
G1 X-4.582 Y-8.485 E0.60158
G1 X-4.037 Y-8.65 E0.61578
G1 X-3.475 Y-8.736 E0.62997
G1 X-3.141 Y-8.75 E0.6383
G1 X5.004 Y-8.75 E0.84148
G1 X5.299 Y-8.739 E0.84885
G1 X5.969 Y-8.69 E0.8656
G1 X6.544 Y-8.606 E0.8801
G1 X7.212 Y-8.459 E0.89716
G1 X7.763 Y-8.296 E0.9115
G1 X8.366 Y-8.07 E0.92756
G1 X8.882 Y-7.835 E0.9417
G1 X9.488 Y-7.505 E0.95892
G1 X9.986 Y-7.184 E0.97369
G1 X10.523 Y-6.78 E0.99046
G1 X10.955 Y-6.405 E1.00473
G1 X11.409 Y-5.95 E1.02076
G1 X11.774 Y-5.53 E1.03464
G1 X12.181 Y-4.991 E1.05149
G1 X12.506 Y-4.487 E1.06645
G1 X12.835 Y-3.883 E1.08361
G1 X13.071 Y-3.365 E1.09781
G1 X13.298 Y-2.758 E1.11397
G1 X13.46 Y-2.21 E1.12823
G1 X13.606 Y-1.547 E1.14516
G1 X13.69 Y-.968 E1.15976
G1 X13.738 Y-.305 E1.17634
G1 X13.738 Y0.305 E1.19155
G1 X13.69 Y0.967 E1.20811
G1 X13.607 Y1.542 E1.2226
G1 X13.461 Y2.207 E1.23959
G1 X13.298 Y2.758 E1.25392
G1 X13.072 Y3.362 E1.27001
G1 X12.84 Y3.873 E1.28401
G1 X12.523 Y4.458 E1.3006
G1 X12.184 Y4.986 E1.31626
G1 X11.78 Y5.523 E1.33302
G1 X11.405 Y5.955 E1.34729
G1 X10.95 Y6.409 E1.36332
G1 X10.53 Y6.774 E1.3772
G1 X9.991 Y7.181 E1.39405
G1 X9.485 Y7.507 E1.40907
G1 X8.88 Y7.836 E1.42625
G1 X8.366 Y8.071 E1.44034
G1 X7.76 Y8.298 E1.45649
G1 X7.21 Y8.46 E1.47079
G1 X6.547 Y8.606 E1.48772
G1 X5.97 Y8.69 E1.50227
G1 X5.297 Y8.739 E1.5191
G1 X5.003 Y8.75 E1.52644
G1 X-3.14 Y8.75 E1.72957
G1 X-3.707 Y8.71 E1.74375
G1 X-4.264 Y8.591 E1.75796
G1 X-4.798 Y8.395 E1.77215
G1 X-5.299 Y8.126 E1.78633
G1 X-5.758 Y7.79 E1.80052
G1 X-6.209 Y7.359 E1.81608
G1 X-6.582 Y6.929 E1.83028
G1 X-6.891 Y6.452 E1.84446
G1 X-7.13 Y5.936 E1.85864
G1 X-7.192 Y5.733 E1.86394
G0 X-6.871 Y5.771
G1 X-6.989 Y5.351 E1.87482
G1 X-7.534 Y5.529 E1.88912
G1 X-8.065 Y5.66 E1.90277
G1 X-8.61 Y5.712 E1.91642
G1 X-9.157 Y5.684 E1.93009
G1 X-9.694 Y5.578 E1.94374
G1 X-10.209 Y5.394 E1.95738
G1 X-10.692 Y5.137 E1.97103
G1 X-11.133 Y4.812 E1.98469
G1 X-11.522 Y4.427 E1.99835
G1 X-11.792 Y4.078 E2.00935
G1 X-12.229 Y3.438 E2.02869
G1 X-12.504 Y2.964 E2.04236
G1 X-12.707 Y2.456 E2.056
G1 X-12.834 Y1.923 E2.06967
G1 X-12.882 Y1.378 E2.08332
G1 X-12.868 Y1.005 E2.09263
G1 X-12.799 Y0.195 E2.11291
G1 X-12.713 Y-.346 E2.12657
G1 X-12.462 Y-1.071 E2.14571
G1 X-12.455 Y-1.497 E2.15634
G1 X-12.446 Y-2.249 E2.1751
G1 X-12.399 Y-2.794 E2.18874
G1 X-12.274 Y-3.327 E2.2024
G1 X-12.072 Y-3.836 E2.21606
G1 X-11.799 Y-4.31 E2.22971
G1 X-11.459 Y-4.739 E2.24336
G1 X-11.061 Y-5.115 E2.25702
G1 X-10.612 Y-5.428 E2.27067
G1 X-10.122 Y-5.672 E2.28433
G1 X-9.712 Y-5.814 E2.29515
G1 X-8.973 Y-6.022 E2.3143
G1 X-8.437 Y-6.131 E2.32795
G1 X-7.89 Y-6.161 E2.34161
G1 X-7.345 Y-6.112 E2.35526
G1 X-6.813 Y-5.983 E2.36892
G1 X-6.786 Y-5.972 E2.36964
G1 X-6.742 Y-6.086 E2.37269
G1 X-6.474 Y-6.563 E2.38634
G1 X-5.998 Y-7.147 E2.40513
G1 X-5.793 Y-7.352 E2.41237
G1 X-5.378 Y-7.709 E2.42602
G1 X-4.916 Y-8.003 E2.43968
G1 X-4.417 Y-8.226 E2.45332
G1 X-3.89 Y-8.374 E2.46697
G1 X-3.141 Y-8.45 E2.48575
G1 X5.004 Y-8.45 E2.68893
G1 X5.278 Y-8.44 E2.69577
G1 X5.948 Y-8.391 E2.71253
G1 X6.48 Y-8.313 E2.72594
G1 X7.148 Y-8.166 E2.743
G1 X7.658 Y-8.015 E2.75627
G1 X8.261 Y-7.789 E2.77233
G1 X8.738 Y-7.571 E2.78541
G1 X9.344 Y-7.241 E2.80263
G1 X9.805 Y-6.945 E2.81629
G1 X10.342 Y-6.541 E2.83306
G1 X10.743 Y-6.193 E2.8463
G1 X11.197 Y-5.738 E2.86233
G1 X11.535 Y-5.349 E2.87519
G1 X11.942 Y-4.81 E2.89204
G1 X12.242 Y-4.344 E2.90586
G1 X12.571 Y-3.74 E2.92302
G1 X12.79 Y-3.26 E2.93618
G1 X13.017 Y-2.653 E2.95235
G1 X13.167 Y-2.145 E2.96556
G1 X13.313 Y-1.482 E2.98249
G1 X13.391 Y-.947 E2.99598
G1 X13.439 Y-.284 E3.01256
G1 X13.439 Y0.283 E3.02671
G1 X13.391 Y0.945 E3.04326
G1 X13.314 Y1.478 E3.0567
G1 X13.168 Y2.143 E3.07368
G1 X13.017 Y2.653 E3.08695
G1 X12.791 Y3.257 E3.10304
G1 X12.576 Y3.73 E3.116
G1 X12.259 Y4.315 E3.13259
G1 X11.945 Y4.805 E3.14711
G1 X11.541 Y5.342 E3.16388
G1 X11.193 Y5.743 E3.17712
G1 X10.738 Y6.197 E3.19315
G1 X10.349 Y6.535 E3.20601
G1 X9.81 Y6.942 E3.22286
G1 X9.341 Y7.243 E3.23676
G1 X8.736 Y7.572 E3.25394
G1 X8.26 Y7.79 E3.267
G1 X7.654 Y8.017 E3.28314
G1 X7.145 Y8.167 E3.29638
G1 X6.482 Y8.313 E3.31331
G1 X5.948 Y8.391 E3.32677
G1 X5.275 Y8.44 E3.34361
G1 X5.003 Y8.45 E3.3504
G1 X-3.14 Y8.45 E3.55352
G1 X-3.686 Y8.41 E3.56718
G1 X-4.22 Y8.291 E3.58083
G1 X-4.731 Y8.096 E3.59447
G1 X-5.209 Y7.828 E3.60814
G1 X-5.792 Y7.352 E3.62692
G1 X-5.997 Y7.147 E3.63415
G1 X-6.354 Y6.732 E3.6478
G1 X-6.648 Y6.27 E3.66146
G1 X-6.871 Y5.771 E3.6751
G0 X-6.611 Y5.608
G1 X-6.742 Y5.1 E3.68818
G1 X-6.768 Y4.953 E3.69191
G1 X-7.019 Y5.045 E3.69858
G1 X-7.627 Y5.243 E3.71453
G1 X-8.137 Y5.368 E3.72763
G1 X-8.66 Y5.413 E3.74072
G1 X-9.184 Y5.378 E3.75382
G1 X-9.696 Y5.265 E3.7669
G1 X-10.186 Y5.074 E3.78002
G1 X-10.64 Y4.812 E3.79309
G1 X-11.05 Y4.484 E3.80619
G1 X-11.544 Y3.908 E3.82512
G1 X-11.981 Y3.268 E3.84445
G1 X-12.243 Y2.814 E3.85753
G1 X-12.433 Y2.324 E3.87064
G1 X-12.547 Y1.812 E3.88372
G1 X-12.57 Y1.03 E3.90324
G1 X-12.501 Y0.22 E3.92352
G1 X-12.416 Y-.298 E3.93661
G1 X-12.19 Y-.944 E3.95368
G1 X-12.123 Y-1.087 E3.95762
G1 X-12.155 Y-1.493 E3.96778
G1 X-12.146 Y-2.245 E3.98654
G1 X-12.1 Y-2.768 E3.99964
G1 X-11.975 Y-3.278 E4.01274
G1 X-11.774 Y-3.763 E4.02583
G1 X-11.501 Y-4.212 E4.03894
G1 X-11.164 Y-4.614 E4.05203
G1 X-10.77 Y-4.961 E4.06512
G1 X-10.328 Y-5.244 E4.07821
G1 X-9.631 Y-5.525 E4.09696
G1 X-8.892 Y-5.733 E4.11611
G1 X-8.377 Y-5.836 E4.12921
G1 X-7.853 Y-5.86 E4.1423
G1 X-7.331 Y-5.805 E4.15539
G1 X-6.823 Y-5.67 E4.1685
G1 X-6.617 Y-5.58 E4.17411
G1 X-6.442 Y-6.017 E4.18585
G1 X-6.175 Y-6.469 E4.19895
G1 X-5.786 Y-6.935 E4.21409
G1 X-5.581 Y-7.14 E4.22132
G1 X-5.182 Y-7.481 E4.23442
G1 X-4.736 Y-7.759 E4.24753
G1 X-4.254 Y-7.966 E4.26061
G1 X-3.746 Y-8.097 E4.2737
G1 X-3.141 Y-8.15 E4.28885
G1 X5.004 Y-8.15 E4.49203
G1 X5.256 Y-8.141 E4.49832
G1 X5.926 Y-8.092 E4.51507
G1 X6.415 Y-8.02 E4.5274
G1 X7.083 Y-7.873 E4.54447
G1 X7.553 Y-7.735 E4.55668
G1 X8.156 Y-7.509 E4.57275
G1 X8.595 Y-7.308 E4.58479
G1 X9.201 Y-6.978 E4.60201
G1 X9.625 Y-6.705 E4.61458
G1 X10.162 Y-6.301 E4.63135
G1 X10.53 Y-5.981 E4.64351
G1 X10.984 Y-5.526 E4.65955
G1 X11.295 Y-5.168 E4.67138
G1 X11.702 Y-4.629 E4.68822
G1 X11.979 Y-4.2 E4.70096
G1 X12.308 Y-3.596 E4.71812
G1 X12.509 Y-3.154 E4.73023
G1 X12.736 Y-2.547 E4.7464
G1 X12.874 Y-2.081 E4.75852
G1 X13.02 Y-1.418 E4.77546
G1 X13.092 Y-.925 E4.78788
G1 X13.14 Y-.262 E4.80447
G1 X13.14 Y0.261 E4.81751
G1 X13.092 Y0.923 E4.83407
G1 X13.021 Y1.414 E4.84644
G1 X12.875 Y2.079 E4.86343
G1 X12.736 Y2.548 E4.87563
G1 X12.51 Y3.152 E4.89172
G1 X12.312 Y3.587 E4.90364
G1 X11.995 Y4.172 E4.92024
G1 X11.705 Y4.625 E4.93365
G1 X11.301 Y5.162 E4.95042
G1 X10.981 Y5.53 E4.96258
G1 X10.526 Y5.984 E4.97862
G1 X10.168 Y6.295 E4.99045
G1 X9.629 Y6.702 E5.00729
G1 X9.198 Y6.98 E5.02009
G1 X8.593 Y7.309 E5.03727
G1 X8.155 Y7.509 E5.04928
G1 X7.549 Y7.736 E5.06542
G1 X7.081 Y7.874 E5.07759
G1 X6.418 Y8.02 E5.09453
G1 X5.927 Y8.092 E5.10691
G1 X5.254 Y8.141 E5.12374
G1 X5.003 Y8.15 E5.13
G1 X-3.14 Y8.15 E5.33313
G1 X-3.663 Y8.11 E5.34622
G1 X-4.175 Y7.991 E5.35933
G1 X-4.662 Y7.796 E5.37241
G1 X-5.114 Y7.529 E5.38551
G1 X-5.58 Y7.14 E5.40065
G1 X-5.785 Y6.935 E5.40788
G1 X-6.126 Y6.536 E5.42098
G1 X-6.404 Y6.09 E5.43409
G1 X-6.611 Y5.608 E5.44717
G0 X-6.348 Y5.447
G1 X-6.461 Y4.959 E5.45967
G1 X-6.495 Y4.476 E5.47175
G1 X-6.571 Y4.526 E5.47401
G1 X-7.112 Y4.76 E5.48872
G1 X-7.72 Y4.958 E5.50467
G1 X-8.207 Y5.075 E5.51716
G1 X-8.708 Y5.113 E5.5297
G1 X-9.207 Y5.071 E5.54219
G1 X-9.694 Y4.95 E5.55471
G1 X-10.156 Y4.754 E5.56722
G1 X-10.58 Y4.487 E5.57972
G1 X-10.957 Y4.155 E5.59225
G1 X-11.296 Y3.739 E5.60564
G1 X-11.733 Y3.099 E5.62497
G1 X-11.982 Y2.664 E5.63748
G1 X-12.159 Y2.194 E5.65
G1 X-12.259 Y1.703 E5.6625
G1 X-12.271 Y1.056 E5.67865
G1 X-12.202 Y0.246 E5.69892
G1 X-12.119 Y-.249 E5.71144
G1 X-11.918 Y-.818 E5.7265
G1 X-11.821 Y-1.025 E5.7322
G1 X-11.855 Y-1.49 E5.74383
G1 X-11.846 Y-2.242 E5.76259
G1 X-11.8 Y-2.741 E5.77509
G1 X-11.675 Y-3.227 E5.78761
G1 X-11.475 Y-3.687 E5.80012
G1 X-11.204 Y-4.109 E5.81263
G1 X-10.87 Y-4.483 E5.82514
G1 X-10.481 Y-4.8 E5.83766
G1 X-10.046 Y-5.05 E5.85017
G1 X-9.549 Y-5.236 E5.86341
G1 X-8.81 Y-5.444 E5.88256
G1 X-8.318 Y-5.541 E5.89507
G1 X-7.817 Y-5.559 E5.90758
G1 X-7.319 Y-5.497 E5.92009
G1 X-6.838 Y-5.356 E5.9326
G1 X-6.417 Y-5.156 E5.94422
G1 X-6.337 Y-5.482 E5.9526
G1 X-6.143 Y-5.944 E5.9651
G1 X-5.877 Y-6.37 E5.97763
G1 X-5.368 Y-6.927 E5.99645
G1 X-4.987 Y-7.253 E6.00896
G1 X-4.558 Y-7.513 E6.02147
G1 X-4.093 Y-7.703 E6.034
G1 X-3.605 Y-7.816 E6.0465
G1 X-3.141 Y-7.85 E6.0581
G1 X5.004 Y-7.85 E6.26128
G1 X5.234 Y-7.842 E6.26702
G1 X5.904 Y-7.793 E6.28378
G1 X6.351 Y-7.727 E6.29505
G1 X7.019 Y-7.58 E6.31211
G1 X7.448 Y-7.454 E6.32326
G1 X8.051 Y-7.228 E6.33933
G1 X8.451 Y-7.044 E6.35031
G1 X9.057 Y-6.714 E6.36752
G1 X9.445 Y-6.465 E6.37902
G1 X9.982 Y-6.061 E6.39579
G1 X10.318 Y-5.769 E6.40689
G1 X10.772 Y-5.314 E6.42293
G1 X11.056 Y-4.987 E6.43373
G1 X11.463 Y-4.448 E6.45058
G1 X11.715 Y-4.057 E6.46218
G1 X12.044 Y-3.453 E6.47934
G1 X12.228 Y-3.049 E6.49041
G1 X12.455 Y-2.442 E6.50658
G1 X12.581 Y-2.016 E6.51766
G1 X12.727 Y-1.353 E6.53459
G1 X12.793 Y-.903 E6.54594
G1 X12.841 Y-.24 E6.56252
G1 X12.841 Y0.24 E6.5745
G1 X12.793 Y0.902 E6.59105
G1 X12.728 Y1.349 E6.60232
G1 X12.582 Y2.014 E6.6193
G1 X12.455 Y2.443 E6.63046
G1 X12.229 Y3.047 E6.64655
G1 X12.049 Y3.444 E6.65742
G1 X11.732 Y4.029 E6.67402
G1 X11.465 Y4.445 E6.68635
G1 X11.061 Y4.982 E6.70312
G1 X10.769 Y5.318 E6.71422
G1 X10.314 Y5.772 E6.73025
G1 X9.987 Y6.056 E6.74106
G1 X9.448 Y6.463 E6.75791
G1 X9.055 Y6.716 E6.76957
G1 X8.45 Y7.045 E6.78674
G1 X8.05 Y7.228 E6.79772
G1 X7.444 Y7.455 E6.81386
G1 X7.016 Y7.581 E6.82499
G1 X6.353 Y7.727 E6.84192
G1 X5.905 Y7.793 E6.85322
G1 X5.232 Y7.842 E6.87005
G1 X5.003 Y7.85 E6.87577
G1 X-3.14 Y7.85 E7.0789
G1 X-3.64 Y7.81 E7.09141
G1 X-4.127 Y7.691 E7.10391
G1 X-4.59 Y7.497 E7.11644
G1 X-5.015 Y7.231 E7.12894
G1 X-5.572 Y6.722 E7.14777
G1 X-5.898 Y6.341 E7.16027
G1 X-6.158 Y5.912 E7.17279
G1 X-6.348 Y5.447 E7.18532
G0 X-6.082 Y5.29
G1 X-6.176 Y4.822 E7.19723
G1 X-6.195 Y4.495 E7.2054
G1 X-6.195 Y3.884 E7.22064
G1 X-6.429 Y4.083 E7.2283
G1 X-6.839 Y4.327 E7.2402
G1 X-7.204 Y4.475 E7.25003
G1 X-7.812 Y4.673 E7.26598
G1 X-8.277 Y4.782 E7.27789
G1 X-8.753 Y4.812 E7.28979
G1 X-9.227 Y4.763 E7.30168
G1 X-9.687 Y4.635 E7.31359
G1 X-10.119 Y4.432 E7.32549
G1 X-10.511 Y4.16 E7.3374
G1 X-10.852 Y3.826 E7.3493
G1 X-11.049 Y3.57 E7.35736
G1 X-11.486 Y2.93 E7.37669
G1 X-11.721 Y2.515 E7.38859
G1 X-11.883 Y2.066 E7.4005
G1 X-11.969 Y1.597 E7.41239
G1 X-11.972 Y1.081 E7.42526
G1 X-11.903 Y0.271 E7.44554
G1 X-11.823 Y-.199 E7.45743
G1 X-11.646 Y-.691 E7.47048
G1 X-11.502 Y-1 E7.47898
G1 X-11.555 Y-1.486 E7.49118
G1 X-11.546 Y-2.238 E7.50994
G1 X-11.5 Y-2.713 E7.52184
G1 X-11.376 Y-3.174 E7.53375
G1 X-11.177 Y-3.607 E7.54564
G1 X-10.908 Y-4.001 E7.55754
G1 X-10.577 Y-4.345 E7.56944
G1 X-10.194 Y-4.629 E7.58134
G1 X-9.768 Y-4.845 E7.59325
G1 X-9.468 Y-4.947 E7.60116
G1 X-8.729 Y-5.155 E7.62031
G1 X-8.261 Y-5.246 E7.6322
G1 X-7.784 Y-5.257 E7.6441
G1 X-7.312 Y-5.188 E7.656
G1 X-6.858 Y-5.041 E7.66791
G1 X-6.216 Y-4.669 E7.68642
G1 X-6.183 Y-4.644 E7.68745
G1 X-6.156 Y-4.97 E7.69561
G1 X-6.038 Y-5.432 E7.7075
G1 X-5.843 Y-5.868 E7.71942
G1 X-5.579 Y-6.265 E7.73131
G1 X-5.156 Y-6.715 E7.74672
G1 X-4.792 Y-7.023 E7.75861
G1 X-4.381 Y-7.266 E7.77052
G1 X-3.936 Y-7.437 E7.78241
G1 X-3.468 Y-7.531 E7.79432
G1 X-3.141 Y-7.55 E7.80249
G1 X5.004 Y-7.55 E8.00567
G1 X5.212 Y-7.542 E8.01086
G1 X5.882 Y-7.493 E8.02762
G1 X6.287 Y-7.434 E8.03783
G1 X6.955 Y-7.287 E8.05489
G1 X7.342 Y-7.173 E8.06495
G1 X7.945 Y-6.947 E8.08102
G1 X8.308 Y-6.781 E8.09097
G1 X8.914 Y-6.451 E8.10819
G1 X9.264 Y-6.225 E8.11858
G1 X9.801 Y-5.821 E8.13534
G1 X10.105 Y-5.557 E8.14539
G1 X10.559 Y-5.102 E8.16142
G1 X10.816 Y-4.806 E8.1712
G1 X11.223 Y-4.267 E8.18805
G1 X11.452 Y-3.913 E8.19856
G1 X11.781 Y-3.309 E8.21572
G1 X11.947 Y-2.944 E8.22572
G1 X12.174 Y-2.337 E8.24189
G1 X12.288 Y-1.952 E8.25191
G1 X12.434 Y-1.289 E8.26884
G1 X12.494 Y-.882 E8.2791
G1 X12.542 Y-.219 E8.29568
G1 X12.542 Y0.218 E8.30659
G1 X12.494 Y0.88 E8.32314
G1 X12.435 Y1.285 E8.33335
G1 X12.289 Y1.95 E8.35034
G1 X12.174 Y2.338 E8.36043
G1 X11.948 Y2.942 E8.37652
G1 X11.785 Y3.301 E8.38635
G1 X11.468 Y3.886 E8.40295
G1 X11.225 Y4.264 E8.41416
G1 X10.821 Y4.801 E8.43092
G1 X10.557 Y5.105 E8.44097
G1 X10.102 Y5.559 E8.457
G1 X9.806 Y5.816 E8.46678
G1 X9.267 Y6.223 E8.48363
G1 X8.912 Y6.453 E8.49418
G1 X8.307 Y6.782 E8.51136
G1 X7.945 Y6.947 E8.52128
G1 X7.339 Y7.174 E8.53742
G1 X6.952 Y7.288 E8.54749
G1 X6.289 Y7.434 E8.56442
G1 X5.883 Y7.493 E8.57466
G1 X5.21 Y7.542 E8.59149
G1 X5.003 Y7.55 E8.59666
G1 X-3.14 Y7.55 E8.79979
G1 X-3.615 Y7.51 E8.81168
G1 X-4.077 Y7.391 E8.82358
G1 X-4.513 Y7.197 E8.83548
G1 X-4.911 Y6.933 E8.84739
G1 X-5.36 Y6.51 E8.86278
G1 X-5.668 Y6.146 E8.87468
G1 X-5.911 Y5.735 E8.88659
G1 X-6.082 Y5.29 E8.89848
G0 X-5.813 Y5.135
G1 X-5.895 Y4.495 E8.91457
G1 X-5.895 Y3.051 E8.9506
G1 X-6.047 Y3.295 E8.95777
G1 X-6.349 Y3.631 E8.96904
G1 X-6.705 Y3.908 E8.98029
G1 X-7.297 Y4.19 E8.99665
G1 X-7.905 Y4.388 E9.0126
G1 X-8.345 Y4.489 E9.02386
G1 X-8.796 Y4.511 E9.03512
G1 X-9.243 Y4.453 E9.04636
G1 X-9.674 Y4.318 E9.05763
G1 X-10.073 Y4.108 E9.06888
G1 X-10.43 Y3.832 E9.08013
G1 X-10.801 Y3.401 E9.09432
G1 X-11.238 Y2.761 E9.11365
G1 X-11.458 Y2.367 E9.12491
G1 X-11.606 Y1.941 E9.13616
G1 X-11.676 Y1.495 E9.14742
G1 X-11.673 Y1.107 E9.1571
G1 X-11.604 Y0.297 E9.17738
G1 X-11.526 Y-.148 E9.18865
G1 X-11.198 Y-.943 E9.2101
G1 X-11.255 Y-1.483 E9.22365
G1 X-11.246 Y-2.235 E9.24241
G1 X-11.201 Y-2.683 E9.25364
G1 X-11.077 Y-3.117 E9.2649
G1 X-10.879 Y-3.523 E9.27617
G1 X-10.612 Y-3.887 E9.28743
G1 X-10.285 Y-4.198 E9.29868
G1 X-9.909 Y-4.447 E9.30993
G1 X-9.387 Y-4.659 E9.32399
G1 X-8.648 Y-4.867 E9.34314
G1 X-8.204 Y-4.95 E9.35441
G1 X-7.753 Y-4.954 E9.36566
G1 X-7.308 Y-4.878 E9.37692
G1 X-6.884 Y-4.725 E9.38816
G1 X-6.4 Y-4.431 E9.40229
G1 X-5.989 Y-4.114 E9.41524
G1 X-5.896 Y-4.028 E9.4184
G1 X-5.856 Y-4.944 E9.44127
G1 X-5.738 Y-5.38 E9.45253
G1 X-5.544 Y-5.787 E9.46378
G1 X-5.149 Y-6.298 E9.47989
G1 X-4.598 Y-6.793 E9.49837
G1 X-4.206 Y-7.017 E9.50963
G1 X-3.781 Y-7.168 E9.52088
G1 X-3.141 Y-7.25 E9.53698
G1 X5.004 Y-7.25 E9.74016
G1 X5.19 Y-7.243 E9.7448
G1 X5.86 Y-7.194 E9.76156
G1 X6.222 Y-7.141 E9.77068
G1 X6.89 Y-6.994 E9.78774
G1 X7.237 Y-6.892 E9.79677
G1 X7.84 Y-6.666 E9.81283
G1 X8.165 Y-6.517 E9.82175
G1 X8.771 Y-6.187 E9.83896
