;FLAVOR:Marlin
;TIME:1417
;Filament used: 0.422629m
;Layer height: 0.1
;MINX:-14.223
;MINY:-8.75
;MINZ:0.2
;MAXX:14.476
;MAXY:8.75
;MAXZ:13
;Generated with Cura_SteamEngine 4.13.1
M140 S55
M105
M190 S55
M104 S205
M105
M109 S205
M82 ;absolute extrusion mode
G28 ;Home
G1 Z15.0 F6000 ;Move the platform down 15mm
;Prime the extruder
G92 E0
G1 F200 E3
G92 E0
G92 E0
G92 E0
G1 F2700 E-5
;LAYER_COUNT:129
;LAYER:0
M107
G0 F900 X-6.628 Y4.933 Z0.2
;TYPE:SKIRT
G1 F2700 E0.01123
G1 F900 X-7.209 Y5.187 E0.02704
G1 X-8.07 Y5.486 E0.04978
G1 X-8.62 Y5.634 E0.06399
G1 X-9.184 Y5.704 E0.07816
G1 X-9.753 Y5.695 E0.09236
G1 X-10.315 Y5.605 E0.10656
G1 X-10.858 Y5.438 E0.12073
G1 X-11.373 Y5.196 E0.13492
G1 X-11.738 Y4.967 E0.14567
G1 X-12.387 Y4.508 E0.1655
G1 X-12.827 Y4.147 E0.1797
G1 X-13.212 Y3.729 E0.19387
G1 X-13.535 Y3.261 E0.20806
G1 X-13.789 Y2.752 E0.22225
G1 X-13.97 Y2.212 E0.23646
G1 X-14.069 Y1.684 E0.24986
G1 X-14.195 Y0.634 E0.27624
G1 X-14.223 Y0.065 E0.29045
G1 X-14.135 Y-.694 E0.30951
G1 X-13.968 Y-1.477 E0.32948
G1 X-13.78 Y-2.103 E0.34578
G1 X-13.472 Y-2.893 E0.36693
G1 X-13.229 Y-3.407 E0.38112
G1 X-12.916 Y-3.882 E0.39531
G1 X-12.54 Y-4.309 E0.4095
G1 X-12.107 Y-4.678 E0.42369
G1 X-11.627 Y-4.984 E0.43789
G1 X-11.101 Y-5.222 E0.45229
G1 X-10.483 Y-5.45 E0.46872
G1 X-9.937 Y-5.609 E0.48291
G1 X-9.374 Y-5.689 E0.4971
G1 X-8.805 Y-5.691 E0.51129
G1 X-8.241 Y-5.612 E0.5255
G1 X-7.694 Y-5.455 E0.53969
G1 X-7.592 Y-5.409 E0.54248
G1 X-7.392 Y-5.453 E0.54759
G1 X-6.825 Y-5.495 E0.56177
G1 X-6.53 Y-5.475 E0.56915
G1 X-6.499 Y-5.618 E0.5728
G1 X-6.303 Y-6.152 E0.58699
G1 X-6.035 Y-6.654 E0.60118
G1 X-5.698 Y-7.113 E0.61539
G1 X-5.267 Y-7.564 E0.63095
G1 X-4.837 Y-7.937 E0.64515
G1 X-4.36 Y-8.246 E0.65933
G1 X-3.844 Y-8.485 E0.67351
G1 X-3.299 Y-8.65 E0.68772
G1 X-2.737 Y-8.736 E0.7019
G1 X-2.403 Y-8.75 E0.71024
G1 X5.742 Y-8.75 E0.91342
G1 X6.037 Y-8.739 E0.92078
G1 X6.707 Y-8.69 E0.93754
G1 X7.282 Y-8.606 E0.95203
G1 X7.941 Y-8.461 E0.96887
G1 X8.489 Y-8.3 E0.98311
G1 X9.107 Y-8.069 E0.99957
G1 X9.629 Y-7.83 E1.01389
G1 X10.21 Y-7.513 E1.0304
G1 X10.723 Y-7.183 E1.04562
G1 X11.255 Y-6.784 E1.06221
G1 X11.692 Y-6.405 E1.07664
G1 X12.146 Y-5.95 E1.09267
G1 X12.515 Y-5.525 E1.10671
G1 X12.917 Y-4.991 E1.12338
G1 X13.25 Y-4.473 E1.13874
G1 X13.572 Y-3.882 E1.15553
G1 X13.809 Y-3.363 E1.16977
G1 X14.036 Y-2.756 E1.18593
G1 X14.198 Y-2.209 E1.20016
G1 X14.344 Y-1.547 E1.21707
G1 X14.428 Y-.968 E1.23167
G1 X14.476 Y-.306 E1.24822
G1 X14.476 Y0.304 E1.26344
G1 X14.428 Y0.967 E1.28002
G1 X14.343 Y1.553 E1.29479
G1 X14.196 Y2.215 E1.31171
G1 X14.038 Y2.749 E1.3256
G1 X13.813 Y3.354 E1.3417
G1 X13.575 Y3.877 E1.35604
G1 X13.253 Y4.469 E1.37285
G1 X12.918 Y4.99 E1.3883
G1 X12.518 Y5.522 E1.4049
G1 X12.142 Y5.955 E1.41921
G1 X11.687 Y6.409 E1.43524
G1 X11.259 Y6.78 E1.44937
G1 X10.724 Y7.182 E1.46606
G1 X10.213 Y7.511 E1.48122
G1 X9.631 Y7.829 E1.49777
G1 X9.112 Y8.067 E1.51201
G1 X8.494 Y8.299 E1.52848
G1 X7.936 Y8.464 E1.54299
G1 X7.277 Y8.608 E1.55982
G1 X6.707 Y8.69 E1.57418
G1 X6.036 Y8.739 E1.59097
G1 X5.741 Y8.75 E1.59833
G1 X-2.402 Y8.75 E1.80146
G1 X-2.969 Y8.71 E1.81564
G1 X-3.526 Y8.591 E1.82985
G1 X-4.06 Y8.395 E1.84404
G1 X-4.561 Y8.126 E1.85822
G1 X-5.02 Y7.79 E1.87241
G1 X-5.471 Y7.359 E1.88797
G1 X-5.844 Y6.929 E1.90217
G1 X-6.153 Y6.452 E1.91635
G1 X-6.392 Y5.936 E1.93053
G1 X-6.557 Y5.391 E1.94474
G1 X-6.628 Y4.933 E1.9563
G0 X-6.825 Y4.697
G1 X-7.308 Y4.903 E1.9694
G1 X-8.169 Y5.202 E1.99213
G1 X-8.698 Y5.344 E2.0058
G1 X-9.241 Y5.407 E2.01943
G1 X-9.788 Y5.39 E2.03308
G1 X-10.327 Y5.293 E2.04675
G1 X-10.846 Y5.119 E2.0604
G1 X-11.334 Y4.872 E2.07404
G1 X-11.564 Y4.722 E2.08089
G1 X-12.213 Y4.263 E2.10072
G1 X-12.636 Y3.915 E2.11439
G1 X-13.003 Y3.509 E2.12804
G1 X-13.308 Y3.054 E2.1417
G1 X-13.543 Y2.56 E2.15535
G1 X-13.704 Y2.037 E2.169
G1 X-13.771 Y1.648 E2.17885
G1 X-13.897 Y0.598 E2.20523
G1 X-13.923 Y0.051 E2.21889
G1 X-13.842 Y-.631 E2.23602
G1 X-13.675 Y-1.414 E2.25599
G1 X-13.501 Y-1.994 E2.2711
G1 X-13.193 Y-2.784 E2.29225
G1 X-12.957 Y-3.278 E2.3059
G1 X-12.652 Y-3.733 E2.31957
G1 X-12.285 Y-4.138 E2.3332
G1 X-11.862 Y-4.486 E2.34687
G1 X-11.393 Y-4.768 E2.36052
G1 X-10.997 Y-4.94 E2.37129
G1 X-10.379 Y-5.168 E2.38772
G1 X-9.853 Y-5.32 E2.40138
G1 X-9.311 Y-5.393 E2.41502
G1 X-8.763 Y-5.387 E2.42869
G1 X-8.223 Y-5.3 E2.44233
G1 X-7.7 Y-5.137 E2.456
G1 X-7.617 Y-5.097 E2.4583
G1 X-7.329 Y-5.159 E2.46565
G1 X-6.782 Y-5.195 E2.47932
G1 X-6.292 Y-5.155 E2.49158
G1 X-6.199 Y-5.575 E2.50231
G1 X-6.004 Y-6.086 E2.51596
G1 X-5.736 Y-6.563 E2.52961
G1 X-5.26 Y-7.147 E2.5484
G1 X-5.055 Y-7.352 E2.55563
G1 X-4.64 Y-7.709 E2.56929
G1 X-4.178 Y-8.003 E2.58295
G1 X-3.679 Y-8.226 E2.59658
G1 X-3.152 Y-8.374 E2.61024
G1 X-2.403 Y-8.45 E2.62902
G1 X5.742 Y-8.45 E2.83219
G1 X6.016 Y-8.44 E2.83903
G1 X6.686 Y-8.391 E2.85579
G1 X7.218 Y-8.313 E2.8692
G1 X7.877 Y-8.168 E2.88604
G1 X8.384 Y-8.019 E2.89922
G1 X9.002 Y-7.788 E2.91568
G1 X9.485 Y-7.567 E2.92893
G1 X10.066 Y-7.25 E2.94544
G1 X10.543 Y-6.943 E2.95959
G1 X11.075 Y-6.544 E2.97618
G1 X11.48 Y-6.193 E2.98954
G1 X11.934 Y-5.738 E3.00558
G1 X12.275 Y-5.344 E3.01858
G1 X12.677 Y-4.81 E3.03525
G1 X12.987 Y-4.329 E3.04952
G1 X13.309 Y-3.738 E3.06631
G1 X13.528 Y-3.258 E3.07947
G1 X13.755 Y-2.651 E3.09564
G1 X13.905 Y-2.145 E3.1088
G1 X14.051 Y-1.483 E3.12572
G1 X14.129 Y-.946 E3.13925
G1 X14.177 Y-.284 E3.15581
G1 X14.177 Y0.283 E3.16995
G1 X14.129 Y0.946 E3.18653
G1 X14.05 Y1.488 E3.2002
G1 X13.903 Y2.15 E3.21711
G1 X13.757 Y2.644 E3.22996
G1 X13.532 Y3.249 E3.24606
G1 X13.311 Y3.734 E3.25936
G1 X12.989 Y4.326 E3.27617
G1 X12.678 Y4.81 E3.29052
G1 X12.278 Y5.342 E3.30712
G1 X11.93 Y5.743 E3.32037
G1 X11.475 Y6.197 E3.3364
G1 X11.079 Y6.54 E3.34947
G1 X10.544 Y6.942 E3.36616
G1 X10.069 Y7.248 E3.38026
G1 X9.487 Y7.566 E3.3968
G1 X9.007 Y7.786 E3.40997
G1 X8.389 Y8.018 E3.42644
G1 X7.872 Y8.171 E3.43989
G1 X7.213 Y8.315 E3.45672
G1 X6.685 Y8.391 E3.47002
G1 X6.014 Y8.44 E3.48681
G1 X5.741 Y8.45 E3.49362
G1 X-2.402 Y8.45 E3.69675
G1 X-2.948 Y8.41 E3.71041
G1 X-3.482 Y8.291 E3.72405
G1 X-3.993 Y8.096 E3.7377
G1 X-4.471 Y7.828 E3.75137
G1 X-5.054 Y7.352 E3.77014
G1 X-5.259 Y7.147 E3.77737
G1 X-5.616 Y6.732 E3.79103
G1 X-5.91 Y6.27 E3.80469
G1 X-6.133 Y5.771 E3.81832
G1 X-6.281 Y5.244 E3.83198
G1 X-6.357 Y4.495 E3.85076
G1 X-6.357 Y4.412 E3.85283
G1 X-6.825 Y4.697 E3.8665
G0 X-7.019 Y4.459
G1 X-7.406 Y4.62 E3.87695
G1 X-8.267 Y4.919 E3.89969
G1 X-8.775 Y5.053 E3.91279
G1 X-9.297 Y5.108 E3.92589
G1 X-9.821 Y5.084 E3.93897
G1 X-10.336 Y4.98 E3.95208
G1 X-10.829 Y4.8 E3.96517
G1 X-11.391 Y4.477 E3.98134
G1 X-12.04 Y4.018 E4.00117
G1 X-12.444 Y3.683 E4.01426
G1 X-12.793 Y3.291 E4.02735
G1 X-13.078 Y2.85 E4.04045
G1 X-13.294 Y2.371 E4.05356
G1 X-13.473 Y1.612 E4.07301
G1 X-13.599 Y0.562 E4.09939
G1 X-13.622 Y0.038 E4.11248
G1 X-13.548 Y-.569 E4.12773
G1 X-13.381 Y-1.352 E4.1477
G1 X-13.221 Y-1.885 E4.16158
G1 X-12.913 Y-2.675 E4.18273
G1 X-12.686 Y-3.148 E4.19582
G1 X-12.389 Y-3.582 E4.20894
G1 X-12.031 Y-3.965 E4.22202
G1 X-11.618 Y-4.289 E4.23511
G1 X-11.161 Y-4.547 E4.2482
G1 X-10.893 Y-4.659 E4.25545
G1 X-10.275 Y-4.887 E4.27188
G1 X-9.77 Y-5.03 E4.28497
G1 X-9.249 Y-5.096 E4.29807
G1 X-8.725 Y-5.082 E4.31115
G1 X-8.208 Y-4.988 E4.32426
G1 X-7.712 Y-4.817 E4.33735
G1 X-7.648 Y-4.783 E4.33915
G1 X-7.266 Y-4.865 E4.3489
G1 X-6.742 Y-4.894 E4.36199
G1 X-6.219 Y-4.844 E4.3751
G1 X-6.035 Y-4.798 E4.37983
G1 X-6.018 Y-5.018 E4.38533
G1 X-5.899 Y-5.529 E4.39842
G1 X-5.704 Y-6.017 E4.41153
G1 X-5.437 Y-6.469 E4.42462
G1 X-5.048 Y-6.935 E4.43977
G1 X-4.843 Y-7.14 E4.447
G1 X-4.444 Y-7.481 E4.46009
G1 X-3.998 Y-7.759 E4.4732
G1 X-3.516 Y-7.966 E4.48629
G1 X-3.008 Y-8.097 E4.49937
G1 X-2.403 Y-8.15 E4.51452
G1 X5.742 Y-8.15 E4.7177
G1 X5.994 Y-8.141 E4.72399
G1 X6.664 Y-8.092 E4.74075
G1 X7.153 Y-8.02 E4.75308
G1 X7.812 Y-7.875 E4.76991
G1 X8.279 Y-7.738 E4.78205
G1 X8.897 Y-7.507 E4.79851
G1 X9.341 Y-7.304 E4.81069
G1 X9.922 Y-6.987 E4.8272
G1 X10.363 Y-6.703 E4.84028
G1 X10.895 Y-6.304 E4.85687
G1 X11.267 Y-5.981 E4.86916
G1 X11.721 Y-5.526 E4.88519
G1 X12.035 Y-5.164 E4.89715
G1 X12.437 Y-4.63 E4.91382
G1 X12.724 Y-4.186 E4.92701
G1 X13.046 Y-3.595 E4.9438
G1 X13.247 Y-3.152 E4.95593
G1 X13.474 Y-2.545 E4.9721
G1 X13.612 Y-2.08 E4.9842
G1 X13.758 Y-1.418 E5.00111
G1 X13.83 Y-.924 E5.01356
G1 X13.878 Y-.262 E5.03012
G1 X13.878 Y0.261 E5.04316
G1 X13.83 Y0.924 E5.05975
G1 X13.757 Y1.423 E5.07233
G1 X13.61 Y2.085 E5.08924
G1 X13.476 Y2.54 E5.10107
G1 X13.251 Y3.145 E5.11718
G1 X13.048 Y3.59 E5.12938
G1 X12.726 Y4.182 E5.14619
G1 X12.439 Y4.629 E5.15944
G1 X12.039 Y5.161 E5.17604
G1 X11.718 Y5.53 E5.18824
G1 X11.263 Y5.984 E5.20428
G1 X10.898 Y6.3 E5.21632
G1 X10.363 Y6.702 E5.23301
G1 X9.925 Y6.985 E5.24602
G1 X9.343 Y7.303 E5.26256
G1 X8.902 Y7.505 E5.27466
G1 X8.284 Y7.737 E5.29113
G1 X7.807 Y7.877 E5.30353
G1 X7.148 Y8.021 E5.32036
G1 X6.663 Y8.092 E5.33259
G1 X5.992 Y8.141 E5.34937
G1 X5.741 Y8.15 E5.35563
G1 X-2.402 Y8.15 E5.55876
G1 X-2.925 Y8.11 E5.57185
G1 X-3.437 Y7.991 E5.58496
G1 X-3.924 Y7.796 E5.59804
G1 X-4.376 Y7.529 E5.61114
G1 X-4.842 Y7.14 E5.62628
G1 X-5.047 Y6.935 E5.63351
G1 X-5.388 Y6.536 E5.64661
G1 X-5.666 Y6.09 E5.65972
G1 X-5.873 Y5.608 E5.6728
G1 X-6.004 Y5.1 E5.68589
G1 X-6.057 Y4.495 E5.70104
G1 X-6.057 Y3.747 E5.7197
G1 X-6.16 Y3.861 E5.72353
G1 X-6.567 Y4.193 E5.73663
G1 X-7.019 Y4.459 E5.74971
G0 X-7.187 Y3.524
G1 X-7.701 Y3.77 E5.76393
G1 X-8.562 Y4.069 E5.78666
G1 X-9 Y4.179 E5.79793
G1 X-9.45 Y4.209 E5.80918
G1 X-9.899 Y4.161 E5.82044
G1 X-10.332 Y4.033 E5.83171
G1 X-10.871 Y3.742 E5.84699
G1 X-11.52 Y3.283 E5.86682
G1 X-11.864 Y2.991 E5.87807
G1 X-12.151 Y2.643 E5.88932
G1 X-12.373 Y2.249 E5.90061
G1 X-12.521 Y1.823 E5.91186
G1 X-12.58 Y1.505 E5.91992
G1 X-12.706 Y0.455 E5.9463
G1 X-12.72 Y0.004 E5.95756
G1 X-12.668 Y-.381 E5.96725
G1 X-12.501 Y-1.164 E5.98722
G1 X-12.383 Y-1.558 E5.99748
G1 X-12.075 Y-2.348 E6.01863
G1 X-11.874 Y-2.753 E6.02991
G1 X-11.606 Y-3.115 E6.04115
G1 X-11.278 Y-3.425 E6.0524
G1 X-10.9 Y-3.672 E6.06367
G1 X-10.582 Y-3.814 E6.07236
G1 X-9.964 Y-4.042 E6.08879
G1 X-9.528 Y-4.16 E6.10006
G1 X-9.079 Y-4.2 E6.1113
G1 X-8.629 Y-4.16 E6.12257
G1 X-8.194 Y-4.041 E6.13382
G1 X-7.755 Y-3.825 E6.14602
G1 X-7.083 Y-3.98 E6.16323
G1 X-6.632 Y-3.989 E6.17448
G1 X-6.187 Y-3.918 E6.18572
G1 X-5.76 Y-3.77 E6.19699
G1 X-5.367 Y-3.549 E6.20824
G1 X-5.158 Y-3.377 E6.21499
G1 X-5.158 Y-4.495 E6.24288
G1 X-5.118 Y-4.944 E6.25413
G1 X-5 Y-5.38 E6.26539
G1 X-4.806 Y-5.787 E6.27664
G1 X-4.411 Y-6.298 E6.29275
G1 X-3.86 Y-6.793 E6.31123
G1 X-3.468 Y-7.017 E6.32249
G1 X-3.043 Y-7.168 E6.33374
G1 X-2.403 Y-7.25 E6.34984
G1 X5.742 Y-7.25 E6.55302
G1 X5.928 Y-7.243 E6.55766
G1 X6.598 Y-7.194 E6.57442
G1 X6.96 Y-7.141 E6.58354
G1 X7.619 Y-6.996 E6.60037
G1 X7.964 Y-6.895 E6.60934
G1 X8.582 Y-6.664 E6.6258
G1 X8.91 Y-6.513 E6.63481
G1 X9.491 Y-6.196 E6.65132
G1 X9.823 Y-5.983 E6.66116
G1 X10.355 Y-5.584 E6.67775
G1 X10.63 Y-5.345 E6.68683
G1 X11.084 Y-4.89 E6.70287
G1 X11.316 Y-4.623 E6.71169
G1 X11.718 Y-4.089 E6.72836
G1 X11.933 Y-3.755 E6.73827
G1 X12.255 Y-3.164 E6.75506
G1 X12.404 Y-2.837 E6.76403
G1 X12.631 Y-2.23 E6.78019
G1 X12.733 Y-1.886 E6.78914
G1 X12.879 Y-1.224 E6.80605
G1 X12.932 Y-.859 E6.81525
G1 X12.98 Y-.197 E6.83181
G1 X12.98 Y0.196 E6.84161
G1 X12.932 Y0.859 E6.8582
G1 X12.878 Y1.228 E6.8675
G1 X12.731 Y1.89 E6.88441
G1 X12.632 Y2.226 E6.89315
G1 X12.407 Y2.831 E6.90925
G1 X12.257 Y3.16 E6.91827
G1 X11.935 Y3.752 E6.93508
G1 X11.719 Y4.088 E6.94505
G1 X11.319 Y4.62 E6.96165
G1 X11.082 Y4.893 E6.97067
G1 X10.627 Y5.347 E6.9867
G1 X10.358 Y5.581 E6.9956
G1 X9.823 Y5.983 E7.01229
G1 X9.494 Y6.195 E7.02205
G1 X8.912 Y6.513 E7.0386
G1 X8.585 Y6.662 E7.04756
G1 X7.967 Y6.894 E7.06403
G1 X7.615 Y6.998 E7.07318
G1 X6.956 Y7.142 E7.09001
G1 X6.598 Y7.194 E7.09903
G1 X5.927 Y7.243 E7.11582
G1 X5.741 Y7.25 E7.12046
G1 X-2.402 Y7.25 E7.32359
G1 X-2.851 Y7.21 E7.33483
G1 X-3.287 Y7.092 E7.3461
G1 X-3.695 Y6.898 E7.35737
G1 X-4.205 Y6.503 E7.37346
G1 X-4.7 Y5.952 E7.39194
G1 X-4.924 Y5.56 E7.4032
G1 X-5.075 Y5.135 E7.41445
G1 X-5.157 Y4.495 E7.43055
G1 X-5.157 Y1.957 E7.49386
G1 X-5.426 Y2.274 E7.50423
G1 X-5.775 Y2.561 E7.5155
G1 X-6.168 Y2.782 E7.52675
G1 X-6.52 Y2.921 E7.53619
G1 X-6.827 Y3.252 E7.54745
G1 X-7.187 Y3.524 E7.5587
G0 X-7.39 Y3.296
G1 X-7.8 Y3.486 E7.56998
G1 X-8.661 Y3.785 E7.59271
G1 X-9.073 Y3.886 E7.60329
G1 X-9.496 Y3.908 E7.61386
G1 X-9.916 Y3.85 E7.62444
G1 X-10.317 Y3.714 E7.635
G1 X-10.698 Y3.497 E7.64594
G1 X-11.347 Y3.038 E7.66577
G1 X-11.669 Y2.762 E7.67635
G1 X-11.933 Y2.43 E7.68693
G1 X-12.13 Y2.055 E7.69749
G1 X-12.282 Y1.469 E7.71259
G1 X-12.408 Y0.419 E7.73897
G1 X-12.419 Y-0.005 E7.74955
G1 X-12.375 Y-.318 E7.75744
G1 X-12.208 Y-1.101 E7.77741
G1 X-12.103 Y-1.449 E7.78648
G1 X-11.795 Y-2.239 E7.80763
G1 X-11.605 Y-2.618 E7.81821
G1 X-11.347 Y-2.954 E7.82877
G1 X-11.03 Y-3.236 E7.83936
G1 X-10.478 Y-3.533 E7.85499
G1 X-9.86 Y-3.761 E7.87142
G1 X-9.45 Y-3.87 E7.88201
G1 X-9.027 Y-3.899 E7.89258
G1 X-8.607 Y-3.849 E7.90313
G1 X-8.203 Y-3.721 E7.91371
G1 X-7.803 Y-3.498 E7.92513
G1 X-7.025 Y-3.684 E7.94508
G1 X-6.602 Y-3.686 E7.95564
G1 X-6.185 Y-3.607 E7.96622
G1 X-5.791 Y-3.452 E7.97678
G1 X-5.432 Y-3.226 E7.98737
G1 X-5.123 Y-2.936 E7.99794
G1 X-4.858 Y-2.562 E8.00937
G1 X-4.858 Y-4.495 E8.05759
G1 X-4.818 Y-4.917 E8.06816
G1 X-4.7 Y-5.324 E8.07874
G1 X-4.507 Y-5.701 E8.0893
G1 X-3.994 Y-6.291 E8.1088
G1 X-3.667 Y-6.561 E8.11938
G1 X-3.296 Y-6.765 E8.12994
G1 X-2.893 Y-6.896 E8.14051
G1 X-2.403 Y-6.95 E8.15281
G1 X5.742 Y-6.95 E8.35599
G1 X5.906 Y-6.944 E8.36008
G1 X6.576 Y-6.895 E8.37684
G1 X6.896 Y-6.848 E8.38491
G1 X7.555 Y-6.703 E8.40174
G1 X7.859 Y-6.614 E8.40964
G1 X8.477 Y-6.383 E8.4261
G1 X8.767 Y-6.25 E8.43406
G1 X9.348 Y-5.933 E8.45057
G1 X9.643 Y-5.743 E8.45932
G1 X10.175 Y-5.344 E8.47591
G1 X10.418 Y-5.133 E8.48394
G1 X10.872 Y-4.678 E8.49997
G1 X11.077 Y-4.442 E8.50777
G1 X11.479 Y-3.908 E8.52444
G1 X11.67 Y-3.611 E8.53325
G1 X11.992 Y-3.02 E8.55004
G1 X12.123 Y-2.732 E8.55793
G1 X12.35 Y-2.125 E8.5741
G1 X12.44 Y-1.822 E8.58198
G1 X12.586 Y-1.16 E8.59889
G1 X12.633 Y-.838 E8.60701
G1 X12.681 Y-.176 E8.62357
G1 X12.681 Y0.174 E8.6323
G1 X12.633 Y0.837 E8.64888
G1 X12.585 Y1.163 E8.6571
G1 X12.438 Y1.825 E8.67402
G1 X12.351 Y2.121 E8.68171
G1 X12.126 Y2.726 E8.69781
G1 X11.994 Y3.017 E8.70579
G1 X11.672 Y3.609 E8.7226
G1 X11.479 Y3.908 E8.73147
G1 X11.079 Y4.44 E8.74808
G1 X10.87 Y4.681 E8.75603
G1 X10.415 Y5.135 E8.77207
G1 X10.178 Y5.341 E8.7799
G1 X9.643 Y5.743 E8.79659
G1 X9.35 Y5.931 E8.80528
G1 X8.768 Y6.249 E8.82182
G1 X8.48 Y6.381 E8.82973
G1 X7.862 Y6.613 E8.84619
G1 X7.551 Y6.705 E8.85428
G1 X6.892 Y6.849 E8.87111
G1 X6.576 Y6.895 E8.87907
G1 X5.905 Y6.944 E8.89586
G1 X5.741 Y6.95 E8.89995
G1 X-2.402 Y6.95 E9.10308
G1 X-2.824 Y6.91 E9.11365
G1 X-3.231 Y6.792 E9.12422
G1 X-3.608 Y6.599 E9.13479
G1 X-4.198 Y6.086 E9.15429
G1 X-4.468 Y5.759 E9.16487
G1 X-4.672 Y5.388 E9.17543
G1 X-4.803 Y4.985 E9.186
G1 X-4.857 Y4.495 E9.1983
G1 X-4.857 Y0.731 E9.29219
G1 X-4.885 Y0.785 E9.29371
G1 X-5.179 Y1.412 E9.31098
G1 X-5.394 Y1.777 E9.32155
G1 X-5.674 Y2.096 E9.33214
G1 X-6.009 Y2.356 E9.34272
G1 X-6.595 Y2.62 E9.35875
G1 X-6.688 Y2.647 E9.36117
G1 X-7.047 Y3.046 E9.37456
G1 X-7.39 Y3.296 E9.38514
G0 X-7.59 Y3.065
G1 X-7.898 Y3.203 E9.39356
G1 X-8.759 Y3.502 E9.4163
G1 X-9.143 Y3.593 E9.42614
G1 X-9.537 Y3.605 E9.43597
G1 X-9.926 Y3.537 E9.44583
G1 X-10.293 Y3.393 E9.45566
G1 X-10.525 Y3.252 E9.46243
G1 X-11.174 Y2.793 E9.48226
G1 X-11.471 Y2.534 E9.49209
G1 X-11.71 Y2.22 E9.50194
G1 X-11.882 Y1.865 E9.51178
G1 X-11.984 Y1.433 E9.52285
G1 X-12.11 Y0.383 E9.54923
G1 X-12.081 Y-.256 E9.56518
G1 X-11.914 Y-1.039 E9.58516
G1 X-11.824 Y-1.34 E9.59299
G1 X-11.516 Y-2.13 E9.61414
G1 X-11.336 Y-2.481 E9.62398
G1 X-11.089 Y-2.789 E9.63383
G1 X-10.786 Y-3.041 E9.64366
G1 X-10.374 Y-3.251 E9.6552
G1 X-9.756 Y-3.479 E9.67163
G1 X-9.374 Y-3.578 E9.68147
G1 X-8.98 Y-3.597 E9.69131
G1 X-8.59 Y-3.537 E9.70116
G1 X-8.22 Y-3.4 E9.711
G1 X-7.863 Y-3.167 E9.72163
G1 X-7.357 Y-3.316 E9.73479
