;FLAVOR:Marlin
;TIME:2290
;Filament used: 0.435807m
;Layer height: 0.1
;MINX:-12.62
;MINY:-8.85
;MINZ:0.2
;MAXX:13.338
;MAXY:8.85
;MAXZ:13
;Generated with Cura_SteamEngine 4.13.1
M140 S60
M105
M190 S60
M104 S205
M105
M109 S205
M82 ;absolute extrusion mode
G28 ;Home
G1 Z15.0 F6000 ;Move the platform down 15mm
;Prime the extruder
G92 E0
G1 F200 E3
G92 E0
G92 E0
G92 E0
G1 F3900 E-5
;LAYER_COUNT:129
;LAYER:0
M107
G0 F750 X-6.709 Y-6.009 Z0.2
;TYPE:SKIRT
G1 F2700 E0.01123
G1 F750 X-6.641 Y-6.193 E0.01612
G1 X-6.373 Y-6.695 E0.03031
G1 X-6.036 Y-7.154 E0.04452
G1 X-5.546 Y-7.664 E0.06216
G1 X-5.116 Y-8.037 E0.07636
G1 X-4.639 Y-8.346 E0.09054
G1 X-4.123 Y-8.585 E0.10472
G1 X-3.578 Y-8.75 E0.11893
G1 X-3.016 Y-8.836 E0.13311
G1 X-2.682 Y-8.85 E0.14145
G1 X4.508 Y-8.85 E0.3208
G1 X4.804 Y-8.839 E0.32819
G1 X5.486 Y-8.789 E0.34525
G1 X6.049 Y-8.708 E0.35944
G1 X6.699 Y-8.567 E0.37603
G1 X7.29 Y-8.393 E0.3914
G1 X7.907 Y-8.162 E0.40783
G1 X8.42 Y-7.928 E0.4219
G1 X9.013 Y-7.606 E0.43873
G1 X9.534 Y-7.273 E0.45416
G1 X10.059 Y-6.88 E0.47051
G1 X10.52 Y-6.481 E0.48572
G1 X10.98 Y-6.021 E0.50195
G1 X11.377 Y-5.563 E0.51707
G1 X11.77 Y-5.039 E0.53341
G1 X12.084 Y-4.551 E0.54789
G1 X12.451 Y-3.877 E0.56703
G1 X12.662 Y-3.407 E0.57988
G1 X12.893 Y-2.79 E0.59632
G1 X13.054 Y-2.245 E0.61049
G1 X13.204 Y-1.567 E0.62781
G1 X13.289 Y-.985 E0.64249
G1 X13.338 Y-.31 E0.65937
G1 X13.338 Y0.31 E0.67483
G1 X13.289 Y0.984 E0.69169
G1 X13.208 Y1.549 E0.70593
G1 X13.067 Y2.199 E0.72252
G1 X12.893 Y2.789 E0.73786
G1 X12.663 Y3.404 E0.75424
G1 X12.431 Y3.915 E0.76824
G1 X12.109 Y4.509 E0.7851
G1 X11.773 Y5.034 E0.80065
G1 X11.38 Y5.559 E0.817
G1 X10.981 Y6.02 E0.83221
G1 X10.521 Y6.48 E0.84844
G1 X10.061 Y6.878 E0.86361
G1 X9.535 Y7.272 E0.88001
G1 X9.009 Y7.608 E0.89558
G1 X8.417 Y7.929 E0.91238
G1 X7.907 Y8.162 E0.92636
G1 X7.29 Y8.393 E0.9428
G1 X6.745 Y8.554 E0.95697
G1 X6.067 Y8.704 E0.9743
G1 X5.487 Y8.789 E0.98892
G1 X4.802 Y8.839 E1.00605
G1 X4.507 Y8.85 E1.01342
G1 X-2.681 Y8.85 E1.19272
G1 X-3.248 Y8.81 E1.2069
G1 X-3.805 Y8.691 E1.22111
G1 X-4.339 Y8.495 E1.2353
G1 X-4.84 Y8.226 E1.24948
G1 X-5.299 Y7.89 E1.26367
G1 X-5.809 Y7.4 E1.28131
G1 X-6.182 Y6.97 E1.29551
G1 X-6.491 Y6.493 E1.30969
G1 X-6.568 Y6.327 E1.31426
G1 X-6.619 Y6.338 E1.31556
G1 X-7.184 Y6.412 E1.32977
G1 X-7.752 Y6.446 E1.34397
G1 X-8.319 Y6.4 E1.35816
G1 X-8.874 Y6.275 E1.37235
G1 X-9.406 Y6.074 E1.38653
G1 X-9.786 Y5.874 E1.39725
G1 X-10.575 Y5.403 E1.42017
G1 X-11.042 Y5.077 E1.43438
G1 X-11.458 Y4.69 E1.44855
G1 X-11.817 Y4.248 E1.46275
G1 X-12.109 Y3.76 E1.47694
G1 X-12.331 Y3.236 E1.49113
G1 X-12.477 Y2.687 E1.50531
G1 X-12.535 Y2.266 E1.51591
G1 X-12.612 Y1.354 E1.53874
G1 X-12.62 Y0.785 E1.55293
G1 X-12.548 Y0.221 E1.56712
G1 X-12.398 Y-.328 E1.58131
G1 X-12.311 Y-.529 E1.58678
G1 X-12.178 Y-1.174 E1.6032
G1 X-12.188 Y-1.265 E1.60549
G1 X-12.173 Y-1.834 E1.61969
G1 X-12.079 Y-2.395 E1.63388
G1 X-11.907 Y-2.937 E1.64806
G1 X-11.661 Y-3.45 E1.66225
G1 X-11.352 Y-3.915 E1.67618
G1 X-10.911 Y-4.488 E1.69422
G1 X-10.533 Y-4.913 E1.7084
G1 X-10.099 Y-5.282 E1.72261
G1 X-9.618 Y-5.585 E1.7368
G1 X-9.099 Y-5.819 E1.751
G1 X-8.553 Y-5.977 E1.76518
G1 X-7.99 Y-6.058 E1.77936
G1 X-7.365 Y-6.068 E1.79496
G1 X-6.798 Y-6.028 E1.80914
G1 X-6.709 Y-6.009 E1.81141
G0 X-6.819 Y-5.728
G1 X-6.52 Y-5.661 E1.81905
G1 X-6.342 Y-6.127 E1.83149
G1 X-6.074 Y-6.604 E1.84514
G1 X-5.598 Y-7.188 E1.86394
G1 X-5.334 Y-7.452 E1.87325
G1 X-4.919 Y-7.809 E1.8869
G1 X-4.457 Y-8.103 E1.90057
G1 X-3.958 Y-8.326 E1.9142
G1 X-3.431 Y-8.474 E1.92785
G1 X-2.682 Y-8.55 E1.94663
G1 X4.508 Y-8.55 E2.12599
G1 X4.782 Y-8.54 E2.13283
G1 X5.464 Y-8.49 E2.14989
G1 X5.985 Y-8.415 E2.16302
G1 X6.635 Y-8.274 E2.17961
G1 X7.185 Y-8.112 E2.19391
G1 X7.802 Y-7.881 E2.21035
G1 X8.276 Y-7.665 E2.22334
G1 X8.869 Y-7.343 E2.24017
G1 X9.354 Y-7.033 E2.25453
G1 X9.879 Y-6.64 E2.27089
G1 X10.308 Y-6.269 E2.28504
G1 X10.768 Y-5.809 E2.30127
G1 X11.137 Y-5.383 E2.31532
G1 X11.53 Y-4.859 E2.33166
G1 X11.821 Y-4.407 E2.34507
G1 X12.2 Y-3.71 E2.36486
G1 X12.381 Y-3.302 E2.376
G1 X12.612 Y-2.685 E2.39243
G1 X12.761 Y-2.18 E2.40557
G1 X12.911 Y-1.502 E2.42289
G1 X12.99 Y-.964 E2.43645
G1 X13.039 Y-.289 E2.45334
G1 X13.039 Y0.288 E2.46773
G1 X12.99 Y0.962 E2.48459
G1 X12.915 Y1.485 E2.49777
G1 X12.774 Y2.135 E2.51436
G1 X12.612 Y2.684 E2.52864
G1 X12.382 Y3.299 E2.54501
G1 X12.167 Y3.772 E2.55798
G1 X11.845 Y4.366 E2.57483
G1 X11.533 Y4.854 E2.58928
G1 X11.14 Y5.379 E2.60564
G1 X10.769 Y5.808 E2.61979
G1 X10.309 Y6.268 E2.63601
G1 X9.881 Y6.638 E2.65013
G1 X9.355 Y7.032 E2.66652
G1 X8.866 Y7.345 E2.681
G1 X8.274 Y7.666 E2.6978
G1 X7.802 Y7.881 E2.71074
G1 X7.185 Y8.112 E2.72717
G1 X6.68 Y8.261 E2.74031
G1 X6.002 Y8.411 E2.75763
G1 X5.465 Y8.49 E2.77117
G1 X4.78 Y8.54 E2.7883
G1 X4.507 Y8.55 E2.79512
G1 X-2.681 Y8.55 E2.97442
G1 X-3.227 Y8.51 E2.98808
G1 X-3.761 Y8.391 E3.00173
G1 X-4.272 Y8.196 E3.01537
G1 X-4.75 Y7.928 E3.02904
G1 X-5.333 Y7.452 E3.04781
G1 X-5.597 Y7.188 E3.05713
G1 X-5.954 Y6.773 E3.07078
G1 X-6.248 Y6.311 E3.08444
G1 X-6.392 Y5.988 E3.09327
G1 X-6.658 Y6.04 E3.10003
G1 X-7.223 Y6.114 E3.11424
G1 X-7.769 Y6.146 E3.12788
G1 X-8.315 Y6.097 E3.14156
G1 X-8.847 Y5.969 E3.15521
G1 X-9.355 Y5.766 E3.16886
G1 X-9.632 Y5.616 E3.17671
G1 X-10.421 Y5.145 E3.19963
G1 X-10.869 Y4.831 E3.21328
G1 X-11.267 Y4.455 E3.22694
G1 X-11.606 Y4.025 E3.2406
G1 X-11.879 Y3.55 E3.25427
G1 X-12.079 Y3.041 E3.26791
G1 X-12.236 Y2.24 E3.28827
G1 X-12.313 Y1.328 E3.3111
G1 X-12.319 Y0.781 E3.32475
G1 X-12.245 Y0.239 E3.33839
G1 X-12.093 Y-.287 E3.35205
G1 X-12.018 Y-.452 E3.35657
G1 X-11.971 Y-.797 E3.36526
G1 X-11.87 Y-1.143 E3.37425
G1 X-11.891 Y-1.361 E3.37971
G1 X-11.863 Y-1.908 E3.39337
G1 X-11.756 Y-2.445 E3.40703
G1 X-11.572 Y-2.96 E3.42067
G1 X-11.315 Y-3.443 E3.43432
G1 X-11.114 Y-3.732 E3.4431
G1 X-10.673 Y-4.305 E3.46114
G1 X-10.308 Y-4.713 E3.4748
G1 X-9.888 Y-5.064 E3.48845
G1 X-9.421 Y-5.35 E3.50211
G1 X-8.918 Y-5.565 E3.51576
G1 X-8.389 Y-5.704 E3.5294
G1 X-7.701 Y-5.768 E3.54664
G1 X-7.365 Y-5.768 E3.55502
G1 X-6.819 Y-5.728 E3.56867
G0 X-6.842 Y-5.428
G1 X-6.33 Y-5.309 E3.58179
G1 X-6.301 Y-5.297 E3.58257
G1 X-6.237 Y-5.57 E3.58956
G1 X-6.042 Y-6.058 E3.60267
G1 X-5.775 Y-6.51 E3.61577
G1 X-5.386 Y-6.976 E3.63091
G1 X-5.122 Y-7.24 E3.64022
G1 X-4.723 Y-7.581 E3.65332
G1 X-4.277 Y-7.859 E3.66643
G1 X-3.795 Y-8.066 E3.67951
G1 X-3.287 Y-8.197 E3.6926
G1 X-2.682 Y-8.25 E3.70775
G1 X4.508 Y-8.25 E3.8871
G1 X4.76 Y-8.241 E3.89339
G1 X5.442 Y-8.191 E3.91045
G1 X5.921 Y-8.122 E3.92252
G1 X6.571 Y-7.981 E3.93912
G1 X7.08 Y-7.831 E3.95235
G1 X7.697 Y-7.6 E3.96879
G1 X8.133 Y-7.401 E3.98074
G1 X8.726 Y-7.079 E3.99757
G1 X9.174 Y-6.793 E4.01083
G1 X9.699 Y-6.4 E4.02719
G1 X10.096 Y-6.057 E4.04028
G1 X10.556 Y-5.597 E4.05651
G1 X10.897 Y-5.203 E4.06951
G1 X11.29 Y-4.679 E4.08584
G1 X11.558 Y-4.263 E4.09819
G1 X11.918 Y-3.601 E4.11699
G1 X12.1 Y-3.197 E4.12804
G1 X12.331 Y-2.58 E4.14447
G1 X12.469 Y-2.115 E4.15657
G1 X12.619 Y-1.437 E4.17389
G1 X12.691 Y-.942 E4.18637
G1 X12.74 Y-.267 E4.20326
G1 X12.74 Y0.266 E4.21655
G1 X12.691 Y0.94 E4.23341
G1 X12.622 Y1.421 E4.24553
G1 X12.481 Y2.071 E4.26212
G1 X12.331 Y2.578 E4.27531
G1 X12.101 Y3.193 E4.29169
G1 X11.903 Y3.629 E4.30363
G1 X11.581 Y4.223 E4.32049
G1 X11.293 Y4.674 E4.33384
G1 X10.9 Y5.199 E4.3502
G1 X10.557 Y5.596 E4.36328
G1 X10.097 Y6.056 E4.37951
G1 X9.701 Y6.398 E4.39256
G1 X9.175 Y6.792 E4.40896
G1 X8.723 Y7.081 E4.42234
G1 X8.131 Y7.402 E4.43914
G1 X7.697 Y7.6 E4.45104
G1 X7.08 Y7.831 E4.46747
G1 X6.615 Y7.969 E4.47957
G1 X5.937 Y8.119 E4.49689
G1 X5.443 Y8.191 E4.50935
G1 X4.758 Y8.241 E4.52648
G1 X4.507 Y8.25 E4.53275
G1 X-2.681 Y8.25 E4.71205
G1 X-3.204 Y8.21 E4.72514
G1 X-3.716 Y8.091 E4.73825
G1 X-4.203 Y7.896 E4.75133
G1 X-4.655 Y7.629 E4.76443
G1 X-5.121 Y7.24 E4.77957
G1 X-5.385 Y6.976 E4.78888
G1 X-5.726 Y6.577 E4.80198
G1 X-6.004 Y6.131 E4.81509
G1 X-6.211 Y5.649 E4.82817
G1 X-6.697 Y5.743 E4.84052
G1 X-7.262 Y5.817 E4.85473
G1 X-7.786 Y5.845 E4.86782
G1 X-8.309 Y5.794 E4.88093
G1 X-8.817 Y5.664 E4.89401
G1 X-9.478 Y5.358 E4.91218
G1 X-10.267 Y4.887 E4.93511
G1 X-10.696 Y4.585 E4.94819
G1 X-11.074 Y4.221 E4.96128
G1 X-11.393 Y3.803 E4.9744
G1 X-11.644 Y3.342 E4.98749
G1 X-11.823 Y2.849 E5.00058
G1 X-11.937 Y2.215 E5.01665
G1 X-12.014 Y1.303 E5.03948
G1 X-12.018 Y0.778 E5.05257
G1 X-11.943 Y0.259 E5.06565
G1 X-11.789 Y-.243 E5.07875
G1 X-11.736 Y-.352 E5.08178
G1 X-11.648 Y-.86 E5.09464
G1 X-11.566 Y-1.106 E5.1011
G1 X-11.592 Y-1.454 E5.10981
G1 X-11.551 Y-1.977 E5.1229
G1 X-11.431 Y-2.488 E5.13599
G1 X-11.234 Y-2.975 E5.14909
G1 X-10.876 Y-3.549 E5.16597
G1 X-10.435 Y-4.122 E5.18401
G1 X-10.084 Y-4.513 E5.19711
G1 X-9.678 Y-4.845 E5.2102
G1 X-9.226 Y-5.113 E5.2233
G1 X-8.739 Y-5.308 E5.23639
G1 X-8.228 Y-5.428 E5.24948
G1 X-7.701 Y-5.468 E5.26267
G1 X-7.365 Y-5.468 E5.27105
G1 X-6.842 Y-5.428 E5.28413
G0 X-6.865 Y-5.128
G1 X-6.378 Y-5.009 E5.29664
G1 X-6.069 Y-4.879 E5.305
G1 X-6.056 Y-5.036 E5.30893
G1 X-5.937 Y-5.523 E5.32144
G1 X-5.743 Y-5.985 E5.33394
G1 X-5.477 Y-6.411 E5.34646
G1 X-4.909 Y-7.027 E5.36737
G1 X-4.528 Y-7.353 E5.37987
G1 X-4.099 Y-7.613 E5.39239
G1 X-3.634 Y-7.803 E5.40492
G1 X-3.146 Y-7.916 E5.41741
G1 X-2.682 Y-7.95 E5.42902
G1 X4.508 Y-7.95 E5.60837
G1 X4.738 Y-7.942 E5.61412
G1 X5.42 Y-7.892 E5.63117
G1 X5.858 Y-7.828 E5.64222
G1 X6.508 Y-7.687 E5.65881
G1 X6.974 Y-7.55 E5.67092
G1 X7.591 Y-7.319 E5.68736
G1 X7.99 Y-7.137 E5.6983
G1 X8.583 Y-6.815 E5.71513
G1 X8.995 Y-6.553 E5.72731
G1 X9.52 Y-6.16 E5.74367
G1 X9.883 Y-5.844 E5.75567
G1 X10.343 Y-5.384 E5.7719
G1 X10.657 Y-5.023 E5.78384
G1 X11.05 Y-4.499 E5.80018
G1 X11.294 Y-4.119 E5.81144
G1 X11.667 Y-3.434 E5.8309
G1 X11.819 Y-3.091 E5.84026
G1 X12.05 Y-2.474 E5.85669
G1 X12.176 Y-2.05 E5.86772
G1 X12.326 Y-1.372 E5.88505
G1 X12.392 Y-.92 E5.89644
G1 X12.441 Y-.245 E5.91332
G1 X12.441 Y0.244 E5.92552
G1 X12.392 Y0.918 E5.94238
G1 X12.328 Y1.358 E5.95347
G1 X12.187 Y2.008 E5.97006
G1 X12.05 Y2.473 E5.98215
G1 X11.82 Y3.088 E5.99853
G1 X11.639 Y3.486 E6.00944
G1 X11.317 Y4.08 E6.02629
G1 X11.053 Y4.495 E6.03856
G1 X10.66 Y5.02 E6.05492
G1 X10.344 Y5.383 E6.06693
G1 X9.884 Y5.843 E6.08316
G1 X9.521 Y6.158 E6.09514
G1 X8.995 Y6.552 E6.11154
G1 X8.58 Y6.817 E6.12382
G1 X7.988 Y7.138 E6.14062
G1 X7.591 Y7.319 E6.1515
G1 X6.974 Y7.55 E6.16794
G1 X6.55 Y7.676 E6.17897
G1 X5.872 Y7.826 E6.19629
G1 X5.421 Y7.892 E6.20766
G1 X4.736 Y7.942 E6.2248
G1 X4.507 Y7.95 E6.23051
G1 X-2.681 Y7.95 E6.40982
G1 X-3.181 Y7.91 E6.42233
G1 X-3.668 Y7.791 E6.43484
G1 X-4.131 Y7.597 E6.44736
G1 X-4.556 Y7.331 E6.45987
G1 X-5.172 Y6.763 E6.48077
G1 X-5.498 Y6.382 E6.49328
G1 X-5.758 Y5.953 E6.50579
G1 X-5.948 Y5.488 E6.51832
G1 X-6.004 Y5.247 E6.52449
G1 X-6.228 Y5.335 E6.53049
G1 X-6.736 Y5.445 E6.54346
G1 X-7.301 Y5.519 E6.55767
G1 X-7.802 Y5.545 E6.57019
G1 X-8.301 Y5.49 E6.58271
G1 X-8.784 Y5.357 E6.59521
G1 X-9.325 Y5.101 E6.61014
G1 X-10.114 Y4.63 E6.63306
G1 X-10.522 Y4.339 E6.64556
G1 X-10.88 Y3.987 E6.65809
G1 X-11.177 Y3.583 E6.67059
G1 X-11.406 Y3.137 E6.6831
G1 X-11.562 Y2.66 E6.69562
G1 X-11.638 Y2.19 E6.7075
G1 X-11.715 Y1.278 E6.73033
G1 X-11.717 Y0.776 E6.74285
G1 X-11.64 Y0.281 E6.75535
G1 X-11.485 Y-.196 E6.76786
G1 X-11.426 Y-.425 E6.77376
G1 X-11.322 Y-.916 E6.78628
G1 X-11.267 Y-1.059 E6.7901
G1 X-11.29 Y-1.542 E6.80216
G1 X-11.235 Y-2.041 E6.81468
G1 X-11.101 Y-2.524 E6.82719
G1 X-10.893 Y-2.98 E6.83969
G1 X-10.638 Y-3.366 E6.85123
G1 X-10.197 Y-3.939 E6.86927
G1 X-9.861 Y-4.311 E6.88177
G1 X-9.469 Y-4.625 E6.8943
G1 X-9.033 Y-4.872 E6.9068
G1 X-8.563 Y-5.048 E6.91932
G1 X-8.071 Y-5.146 E6.93183
G1 X-7.365 Y-5.168 E6.94945
G1 X-6.865 Y-5.128 E6.96196
G0 X-6.89 Y-4.828
G1 X-6.428 Y-4.709 E6.97387
G1 X-5.814 Y-4.409 E6.99091
G1 X-5.756 Y-5.011 E7.006
G1 X-5.638 Y-5.473 E7.01789
G1 X-5.443 Y-5.909 E7.02981
G1 X-5.179 Y-6.306 E7.0417
G1 X-4.697 Y-6.815 E7.05919
G1 X-4.333 Y-7.123 E7.07108
G1 X-3.922 Y-7.366 E7.08299
G1 X-3.477 Y-7.537 E7.09488
G1 X-3.009 Y-7.631 E7.10679
G1 X-2.682 Y-7.65 E7.11496
G1 X4.508 Y-7.65 E7.29432
G1 X4.716 Y-7.642 E7.29951
G1 X5.398 Y-7.592 E7.31657
G1 X5.794 Y-7.535 E7.32655
G1 X6.444 Y-7.394 E7.34314
G1 X6.869 Y-7.269 E7.35419
G1 X7.486 Y-7.038 E7.37062
G1 X7.847 Y-6.874 E7.38052
G1 X8.44 Y-6.552 E7.39735
G1 X8.815 Y-6.313 E7.40844
G1 X9.34 Y-5.92 E7.4248
G1 X9.671 Y-5.632 E7.43574
G1 X10.131 Y-5.172 E7.45197
G1 X10.417 Y-4.843 E7.46285
G1 X10.81 Y-4.319 E7.47919
G1 X11.031 Y-3.976 E7.48936
G1 X11.355 Y-3.383 E7.50622
G1 X11.538 Y-2.986 E7.51712
G1 X11.769 Y-2.369 E7.53356
G1 X11.883 Y-1.986 E7.54353
G1 X12.033 Y-1.308 E7.56085
G1 X12.093 Y-.898 E7.57119
G1 X12.142 Y-.223 E7.58807
G1 X12.141 Y0.223 E7.59919
G1 X12.092 Y0.897 E7.61605
G1 X12.035 Y1.294 E7.62606
G1 X11.894 Y1.944 E7.64265
G1 X11.769 Y2.368 E7.65367
G1 X11.539 Y2.983 E7.67005
G1 X11.376 Y3.343 E7.67991
G1 X11.054 Y3.937 E7.69677
G1 X10.813 Y4.315 E7.70795
G1 X10.42 Y4.84 E7.72431
G1 X10.132 Y5.171 E7.73525
G1 X9.672 Y5.631 E7.75148
G1 X9.342 Y5.918 E7.76239
G1 X8.816 Y6.312 E7.77878
G1 X8.437 Y6.553 E7.78999
G1 X7.845 Y6.874 E7.80679
G1 X7.486 Y7.038 E7.81663
G1 X6.869 Y7.269 E7.83307
G1 X6.486 Y7.383 E7.84303
G1 X5.808 Y7.533 E7.86036
G1 X5.399 Y7.592 E7.87066
G1 X4.714 Y7.642 E7.8878
G1 X4.507 Y7.65 E7.89296
G1 X-2.681 Y7.65 E8.07227
G1 X-3.156 Y7.61 E8.08416
G1 X-3.618 Y7.491 E8.09606
G1 X-4.054 Y7.297 E8.10796
G1 X-4.452 Y7.033 E8.11988
G1 X-4.96 Y6.551 E8.13735
G1 X-5.268 Y6.187 E8.14924
G1 X-5.511 Y5.776 E8.16115
G1 X-5.682 Y5.331 E8.17304
G1 X-5.779 Y4.813 E8.18619
G1 X-6.041 Y4.95 E8.19357
G1 X-6.775 Y5.148 E8.21253
G1 X-7.34 Y5.222 E8.22674
G1 X-7.816 Y5.244 E8.23863
G1 X-8.29 Y5.186 E8.25054
G1 X-8.747 Y5.051 E8.26243
G1 X-9.171 Y4.843 E8.27421
G1 X-9.96 Y4.372 E8.29713
G1 X-10.348 Y4.094 E8.30904
G1 X-10.684 Y3.755 E8.32094
G1 X-10.958 Y3.365 E8.33283
G1 X-11.164 Y2.935 E8.34473
G1 X-11.295 Y2.476 E8.35664
G1 X-11.339 Y2.165 E8.36447
G1 X-11.416 Y1.253 E8.3873
G1 X-11.416 Y0.776 E8.3992
G1 X-11.337 Y0.305 E8.41111
G1 X-11.135 Y-.226 E8.42529
G1 X-11.111 Y-.502 E8.4322
G1 X-10.956 Y-1.04 E8.44616
G1 X-10.986 Y-1.626 E8.4608
G1 X-10.916 Y-2.098 E8.4727
G1 X-10.768 Y-2.552 E8.48461
G1 X-10.401 Y-3.183 E8.50282
G1 X-9.96 Y-3.756 E8.52086
G1 X-9.638 Y-4.109 E8.53278
G1 X-9.262 Y-4.402 E8.54467
G1 X-8.842 Y-4.629 E8.55658
G1 X-8.391 Y-4.783 E8.56847
G1 X-7.701 Y-4.868 E8.58581
G1 X-6.89 Y-4.828 E8.60606
G0 X-6.973 Y-3.928
G1 X-6.596 Y-3.81 E8.61592
G1 X-6.085 Y-3.512 E8.63067
G1 X-5.778 Y-3.265 E8.6405
G1 X-5.526 Y-2.961 E8.65035
G1 X-5.341 Y-2.613 E8.66018
G1 X-5.229 Y-2.235 E8.67002
G1 X-5.196 Y-1.877 E8.67899
G1 X-5.195 Y0.539 E8.73925
G1 X-5.195 Y1.029 E8.75148
G1 X-5.195 Y2.322 E8.78373
G1 X-5.235 Y2.714 E8.79356
G1 X-5.353 Y3.091 E8.80342
G1 X-5.544 Y3.436 E8.81325
G1 X-5.801 Y3.735 E8.82309
G1 X-6.113 Y3.977 E8.83294
G1 X-6.467 Y4.15 E8.84277
G1 X-6.892 Y4.255 E8.85369
G1 X-7.457 Y4.329 E8.8679
G1 X-7.851 Y4.341 E8.87773
G1 X-8.24 Y4.273 E8.88758
G1 X-8.71 Y4.07 E8.90036
G1 X-9.499 Y3.599 E8.92328
G1 X-9.815 Y3.364 E8.9331
G1 X-10.078 Y3.07 E8.94294
G1 X-10.276 Y2.729 E8.95278
G1 X-10.401 Y2.355 E8.96261
G1 X-10.442 Y2.089 E8.96933
G1 X-10.519 Y1.177 E8.99216
G1 X-10.512 Y0.783 E9.00199
G1 X-10.426 Y0.398 E9.01183
G1 X-10.246 Y0.012 E9.02245
G1 X-10.233 Y-.296 E9.03014
G1 X-10.137 Y-.679 E9.03999
G1 X-10.01 Y-.918 E9.04674
G1 X-10.092 Y-1.447 E9.0601
G1 X-10.052 Y-1.84 E9.06995
G1 X-9.933 Y-2.216 E9.07979
G1 X-9.687 Y-2.634 E9.09189
G1 X-9.246 Y-3.207 E9.10992
G1 X-8.975 Y-3.494 E9.11977
G1 X-8.652 Y-3.72 E9.1296
G1 X-8.29 Y-3.877 E9.13945
G1 X-7.701 Y-3.968 E9.15431
G1 X-6.973 Y-3.928 E9.1725
G0 X-7.004 Y-3.628
G1 X-6.467 Y-3.402 E9.18704
G1 X-5.967 Y-3.031 E9.20257
G1 X-5.744 Y-2.745 E9.21161
G1 X-5.588 Y-2.418 E9.22065
G1 X-5.496 Y-1.877 E9.23434
G1 X-5.495 Y0.539 E9.29461
G1 X-5.495 Y1.029 E9.30683
G1 X-5.495 Y2.322 E9.33908
G1 X-5.535 Y2.683 E9.34814
G1 X-5.653 Y3.026 E9.35719
G1 X-5.842 Y3.335 E9.36623
G1 X-6.095 Y3.595 E9.37528
G1 X-6.399 Y3.794 E9.38434
G1 X-6.931 Y3.958 E9.39823
G1 X-7.496 Y4.032 E9.41244
G1 X-7.858 Y4.039 E9.42148
