;FLAVOR:Marlin
;TIME:2190
;Filament used: 1.12227m
;Layer height: 0.2
;MINX:-23.818
;MINY:-11.823
;MINZ:0.24
;MAXX:24.8
;MAXY:11.823
;MAXZ:8.99
;Generated with Cura_SteamEngine 4.13.1
M140 S80
M105
M190 S80
M104 S240
M105
M109 S240
M82 ;absolute extrusion mode
G28 ;Home
G1 Z15.0 F6000 ;Move the platform down 15mm
;Prime the extruder
G92 E0
G1 F200 E3
G92 E0
G92 E0
G92 E0
G1 F2100 E-5
;LAYER_COUNT:40
;LAYER:-5
M106 S102
G0 F6000 X0.085 Y-6.563 Z0.24
;TYPE:SUPPORT-INTERFACE
G1 F1500 E0.02661
G1 F562.5 X0.634 Y-6.534 E0.07049
G1 X21.872 Y-6.532 E1.7658
G1 X22.604 Y-6.45 E1.8246
G1 X23.05 Y-6.299 E1.86219
G1 X23.42 Y-6.099 E1.89576
G1 X23.754 Y-5.838 E1.9296
G1 X24.04 Y-5.528 E1.96326
G1 X24.274 Y-5.172 E1.99727
G1 X24.441 Y-4.797 E2.03004
G1 X24.56 Y-4.334 E2.0682
G1 X24.6 Y-3.866 E2.10569
G1 X24.6 Y-1.628 E2.28434
G1 X24.515 Y-.879 E2.34451
G1 X24.448 Y-.214 E2.39786
G1 X24.467 Y0.466 E2.45216
G1 X24.559 Y1.09 E2.50251
G1 X24.6 Y1.58 E2.54176
G1 X24.6 Y3.804 E2.71929
G1 X24.518 Y4.536 E2.77809
G1 X24.367 Y4.982 E2.81568
G1 X24.167 Y5.352 E2.84925
G1 X23.906 Y5.686 E2.88309
G1 X23.596 Y5.972 E2.91676
G1 X23.24 Y6.206 E2.95076
G1 X22.855 Y6.377 E2.98439
G1 X22.393 Y6.494 E3.02243
G1 X21.913 Y6.532 E3.06087
G1 X16.053 Y6.535 E3.52864
G1 X0.636 Y6.534 E4.75929
G1 X-0.032 Y6.576 E4.81272
G1 X-.703 Y6.705 E4.86726
G1 X-1.352 Y6.918 E4.92179
G1 X-1.967 Y7.209 E4.9761
G1 X-2.437 Y7.502 E5.02031
G1 X-5.317 Y9.516 E5.30084
G1 X-5.459 Y9.609 E5.31439
G1 X-6.095 Y10.01 E5.3744
G1 X-6.445 Y10.211 E5.40662
G1 X-7.191 Y10.584 E5.4732
G1 X-7.441 Y10.692 E5.49494
G1 X-8.24 Y11.001 E5.56332
G1 X-8.54 Y11.097 E5.58846
G1 X-9.238 Y11.29 E5.64627
G1 X-9.584 Y11.37 E5.67462
G1 X-10.335 Y11.504 E5.73551
G1 X-10.716 Y11.554 E5.76619
G1 X-11.468 Y11.612 E5.82639
G1 X-11.849 Y11.623 E5.85682
G1 X-12.603 Y11.608 E5.91702
G1 X-12.957 Y11.586 E5.94533
G1 X-13.707 Y11.498 E6.00561
G1 X-14.087 Y11.435 E6.03636
G1 X-14.803 Y11.28 E6.09484
G1 X-15.174 Y11.183 E6.12545
G1 X-15.877 Y10.957 E6.18439
G1 X-16.27 Y10.81 E6.21789
G1 X-17.039 Y10.476 E6.28481
G1 X-17.288 Y10.352 E6.30701
G1 X-17.919 Y10.004 E6.36454
G1 X-18.278 Y9.781 E6.39827
G1 X-18.855 Y9.385 E6.45413
G1 X-19.182 Y9.139 E6.4868
G1 X-19.759 Y8.655 E6.54692
G1 X-20.034 Y8.401 E6.5768
G1 X-20.557 Y7.867 E6.63646
G1 X-20.805 Y7.589 E6.6662
G1 X-21.283 Y6.996 E6.727
G1 X-21.516 Y6.674 E6.75873
G1 X-21.913 Y6.07 E6.81642
G1 X-22.117 Y5.723 E6.84855
G1 X-22.451 Y5.088 E6.90583
G1 X-22.63 Y4.701 E6.93986
G1 X-22.889 Y4.064 E6.99475
G1 X-23.031 Y3.663 E7.02871
G1 X-23.262 Y2.883 E7.09365
G1 X-23.327 Y2.613 E7.11582
G1 X-23.449 Y1.994 E7.16618
G1 X-23.532 Y1.451 E7.21003
G1 X-23.597 Y0.779 E7.26392
G1 X-23.618 Y0.393 E7.29478
G1 X-23.618 Y-.384 E7.3568
G1 X-23.597 Y-.778 E7.38829
G1 X-23.518 Y-1.582 E7.45278
G1 X-23.475 Y-1.857 E7.475
G1 X-23.312 Y-2.68 E7.54197
G1 X-23.236 Y-2.975 E7.56629
G1 X-23.03 Y-3.663 E7.62362
G1 X-22.89 Y-4.064 E7.65752
G1 X-22.63 Y-4.701 E7.71244
G1 X-22.451 Y-5.088 E7.74648
G1 X-22.108 Y-5.74 E7.80529
G1 X-21.913 Y-6.07 E7.83588
G1 X-21.505 Y-6.69 E7.89513
G1 X-21.283 Y-6.996 E7.92531
G1 X-20.805 Y-7.589 E7.98611
G1 X-20.557 Y-7.867 E8.01584
G1 X-20.034 Y-8.401 E8.07551
G1 X-19.759 Y-8.655 E8.10539
G1 X-19.182 Y-9.139 E8.16551
G1 X-18.855 Y-9.385 E8.19817
G1 X-18.278 Y-9.781 E8.25404
G1 X-17.919 Y-10.004 E8.28777
G1 X-17.286 Y-10.353 E8.34547
G1 X-16.954 Y-10.516 E8.37499
G1 X-16.27 Y-10.81 E8.43442
G1 X-15.877 Y-10.957 E8.46792
G1 X-15.19 Y-11.178 E8.52552
G1 X-14.83 Y-11.274 E8.55527
G1 X-14.272 Y-11.396 E8.60086
G1 X-13.707 Y-11.498 E8.64669
G1 X-12.957 Y-11.585 E8.70696
G1 X-12.603 Y-11.608 E8.73528
G1 X-11.849 Y-11.623 E8.79548
G1 X-11.468 Y-11.612 E8.8259
G1 X-10.716 Y-11.554 E8.88611
G1 X-10.335 Y-11.504 E8.91678
G1 X-9.584 Y-11.37 E8.97768
G1 X-9.242 Y-11.292 E9.00568
G1 X-8.54 Y-11.096 E9.06386
G1 X-8.183 Y-10.98 E9.09382
G1 X-7.373 Y-10.664 E9.16323
G1 X-7.134 Y-10.557 E9.18413
G1 X-6.445 Y-10.211 E9.24567
G1 X-6.095 Y-10.011 E9.27785
G1 X-5.41 Y-9.578 E9.34254
G1 X-5.32 Y-9.518 E9.35117
G1 X-2.435 Y-7.501 E9.63217
G1 X-1.862 Y-7.152 E9.68572
G1 X-1.239 Y-6.875 E9.74015
G1 X-.586 Y-6.676 E9.79464
G1 X0.085 Y-6.563 E9.84896
G1 X0.00 Y-6.577
G1 X0.00 Y6.574 E10.89873
G0 F6000 X1.6 Y6.534
G1 F562.5 X1.6 Y-6.533 E11.94179
G0 F6000 X3.2 Y-6.533
G1 F562.5 X3.2 Y6.534 E12.98485
G0 F6000 X4.8 Y6.534
G1 F562.5 X4.8 Y-6.533 E14.02792
G0 F6000 X6.4 Y-6.533
G1 F562.5 X6.4 Y6.534 E15.07098
G0 F6000 X8 Y6.534
G1 F562.5 X8 Y-6.533 E16.11405
G0 F6000 X9.6 Y-6.533
G1 F562.5 X9.6 Y6.534 E17.15711
G0 F6000 X11.2 Y6.534
G1 F562.5 X11.2 Y-6.533 E18.20018
G0 F6000 X12.8 Y-6.532
G1 F562.5 X12.8 Y6.534 E19.24316
G0 F6000 X14.4 Y6.534
G1 F562.5 X14.4 Y-6.532 E20.28615
G0 F6000 X16 Y-6.532
G1 F562.5 X16 Y6.534 E21.32913
G0 F6000 X17.6 Y6.535
G1 F562.5 X17.6 Y-6.532 E22.37219
G0 F6000 X19.2 Y-6.532
G1 F562.5 X19.2 Y6.534 E23.41518
G0 F6000 X20.8 Y6.533
G1 F562.5 X20.8 Y-6.532 E24.45808
G0 F6000 X22.4 Y-6.472
G1 F562.5 X22.4 Y6.493 E25.49301
G0 F6000 X24 Y5.566
G1 F562.5 X24 Y-5.571 E26.38201
G0 F6000 X-1.6 Y-7.035
G1 F562.5 X-1.6 Y7.036 E27.50522
G0 F6000 X-3.2 Y8.036
G1 F562.5 X-3.2 Y-8.035 E28.78807
G0 F6000 X-4.8 Y-9.154
G1 F562.5 X-4.8 Y9.155 E30.24958
G0 F6000 X-6.4 Y10.186
G1 F562.5 X-6.4 Y-10.185 E31.87568
G0 F6000 X-8 Y-10.908
G1 F562.5 X-8 Y10.909 E33.61721
G0 F6000 X-9.6 Y11.373
G1 F562.5 X-9.6 Y-11.372 E35.43281
G0 F6000 X-11.2 Y-11.591
G1 F562.5 X-11.2 Y11.592 E37.28338
G0 F6000 X-12.8 Y11.595
G1 F562.5 X-12.8 Y-11.596 E39.13458
G0 F6000 X-14.4 Y-11.369
G1 F562.5 X-14.4 Y11.367 E40.94947
G0 F6000 X-16 Y10.91
G1 F562.5 X-16 Y-10.911 E42.69132
G0 F6000 X-17.6 Y-10.18
G1 F562.5 X-17.6 Y10.179 E44.31646
G0 F6000 X-19.2 Y9.123
G1 F562.5 X-19.2 Y-9.124 E45.77301
G0 F6000 X-20.8 Y-7.595
G1 F562.5 X-20.8 Y7.594 E46.98547
G0 F6000 X-22.4 Y5.184
G1 F562.5 X-22.4 Y-5.185 E47.81316
G1 F2100 E42.81316
G0 F600 X-22.4 Y-5.185 Z0.54
G0 F6000 X-20.804 Y7.588
;TIME_ELAPSED:67.670527
;LAYER:-4
;TYPE:SUPPORT
G1 F1500 E47.83977
G1 F562.5 X-20.633 Y7.783 E47.86565
G1 X-20.556 Y7.866 E47.87695
G1 X-20.033 Y8.401 E47.9516
G1 X-19.949 Y8.481 E47.96318
G1 X-19.832 Y8.589 E47.97906
G1 X-19.757 Y8.654 E47.98897
G1 X-19.18 Y9.138 E48.06411
G1 X-19.021 Y9.262 E48.08423
G1 X-21.259 Y7.025 E48.39997
G1 X-21.282 Y6.996 E48.40366
G1 X-21.334 Y6.926 E48.41236
G1 X-21.428 Y6.799 E48.42813
G1 X-21.515 Y6.674 E48.44332
G1 X-21.911 Y6.069 E48.51547
G1 X-21.961 Y5.992 E48.52463
G1 X-22.057 Y5.829 E48.54351
G1 X-22.116 Y5.722 E48.5557
G1 X-22.45 Y5.088 E48.6272
G1 X-22.503 Y4.982 E48.63903
G1 X-22.57 Y4.837 E48.65497
G1 X-22.628 Y4.7 E48.66981
G1 X-22.888 Y4.063 E48.73846
G1 X-22.937 Y3.935 E48.75214
G1 X-22.939 Y3.93 E48.75267
G1 X-15.932 Y10.937 E49.74144
G1 X-15.875 Y10.957 E49.74746
G1 X-15.173 Y11.182 E49.82102
G1 X-14.945 Y11.245 E49.84462
G1 X-14.802 Y11.279 E49.85929
G1 X-14.086 Y11.434 E49.93239
G1 X-14.007 Y11.448 E49.94039
G1 X-23.444 Y2.011 E51.27206
G1 X-23.447 Y1.994 E51.27378
G1 X-23.473 Y1.862 E51.2872
G1 X-23.509 Y1.632 E51.31043
G1 X-23.531 Y1.45 E51.32872
G1 X-23.596 Y0.779 E51.39599
G1 X-23.609 Y0.613 E51.4126
G1 X-23.616 Y0.424 E51.43147
G1 X-12.43 Y11.611 E53.01001
G1 X-11.848 Y11.623 E53.0681
G1 X-11.737 Y11.622 E53.07917
G1 X-11.468 Y11.611 E53.10603
G1 X-11.048 Y11.578 E53.14807
G1 X-23.579 Y-.951 E54.91619
G1 X-23.517 Y-1.581 E54.97936
G1 X-23.485 Y-1.786 E55.00006
G1 X-23.474 Y-1.856 E55.00713
G1 X-23.408 Y-2.194 E55.04149
G1 X-9.805 Y11.407 E56.96088
G1 X-9.584 Y11.368 E56.98327
G1 X-9.509 Y11.354 E56.99089
G1 X-9.347 Y11.317 E57.00747
G1 X-9.238 Y11.288 E57.01872
G1 X-8.667 Y11.131 E57.07781
G1 X-23.128 Y-3.329 E59.11834
G1 X-23.029 Y-3.662 E59.15301
G1 X-22.98 Y-3.812 E59.16875
G1 X-22.937 Y-3.935 E59.18175
G1 X-22.889 Y-4.064 E59.19549
G1 X-22.761 Y-4.376 E59.22914
G1 X-7.623 Y10.761 E61.3652
G1 X-7.44 Y10.69 E61.38479
G1 X-7.19 Y10.583 E61.41192
G1 X-6.655 Y10.314 E61.47167
G1 X-22.315 Y-5.345 E63.6814
G1 X-22.106 Y-5.74 E63.72599
G1 X-22.046 Y-5.849 E63.7384
G1 X-21.968 Y-5.98 E63.75361
G1 X-21.911 Y-6.069 E63.76416
G1 X-21.798 Y-6.242 E63.78478
G1 X-5.759 Y9.796 E66.04798
G1 X-5.458 Y9.608 E66.08339
G1 X-5.316 Y9.515 E66.10033
G1 X-4.91 Y9.231 E66.14977
G1 X-21.218 Y-7.076 E68.45093
G1 X-20.804 Y-7.588 E68.51663
G1 X-20.631 Y-7.785 E68.54279
G1 X-20.575 Y-7.847 E68.55113
G1 X-4.078 Y8.649 E70.87896
G1 X-3.247 Y8.066 E70.98025
G1 X-19.868 Y-8.555 E73.32566
G1 X-19.832 Y-8.589 E73.3306
G1 X-19.757 Y-8.654 E73.3405
G1 X-19.18 Y-9.138 E73.41565
G1 X-19.1 Y-9.2 E73.42574
G1 X-2.413 Y7.486 E75.78039
G1 X-1.967 Y7.208 E75.83283
G1 X-1.499 Y6.986 E75.88451
G1 X-18.27 Y-9.784 E78.25101
G1 X-18.166 Y-9.852 E78.26341
G1 X-18.031 Y-9.936 E78.27928
G1 X-17.918 Y-10.004 E78.29244
G1 X-17.374 Y-10.303 E78.35437
G1 X-.42 Y6.65 E80.7467
G1 X-0.031 Y6.575 E80.78623
G1 X0.635 Y6.532 E80.85282
G1 X0.876 Y6.532 E80.87687
G1 X-16.406 Y-10.75 E83.31554
G1 X-16.269 Y-10.81 E83.33047
G1 X-16.036 Y-10.901 E83.35542
G1 X-15.875 Y-10.957 E83.37243
G1 X-15.364 Y-11.121 E83.42598
G1 X2.29 Y6.532 E85.91708
G1 X3.704 Y6.532 E86.05817
G1 X-14.232 Y-11.404 E88.58913
G1 X-14.065 Y-11.44 E88.60618
G1 X-13.835 Y-11.479 E88.62946
G1 X-13.705 Y-11.498 E88.64257
G1 X-12.993 Y-11.579 E88.71407
G1 X5.118 Y6.532 E91.26973
G1 X6.533 Y6.533 E91.41092
G1 X-11.617 Y-11.617 E93.97208
G1 X-11.572 Y-11.616 E93.97657
G1 X-11.468 Y-11.611 E93.98696
G1 X-10.716 Y-11.553 E94.06222
G1 X-10.441 Y-11.519 E94.08986
G1 X-10.335 Y-11.503 E94.10056
G1 X-10.035 Y-11.449 E94.13098
G1 X7.947 Y6.533 E96.66843
G1 X9.362 Y6.533 E96.80962
G1 X-8.128 Y-10.956 E99.27758
G1 X-7.44 Y-10.69 E99.35118
G1 X-7.19 Y-10.583 E99.37831
G1 X-6.445 Y-10.209 E99.46149
G1 X-6.354 Y-10.161 E99.47176
G1 X-6.214 Y-10.082 E99.4878
G1 X-6.094 Y-10.01 E99.50176
G1 X-5.41 Y-9.577 E99.58253
G1 X-5.32 Y-9.517 E99.59333
G1 X-5.169 Y-9.412 E99.61168
G1 X10.776 Y6.533 E101.86169
G1 X12.191 Y6.534 E102.00288
G1 X-1.207 Y-6.864 E103.89348
G1 X-.586 Y-6.675 E103.95825
G1 X0.084 Y-6.561 E104.02607
G1 X0.533 Y-6.537 E104.07093
G1 X13.605 Y6.534 E105.91546
G1 X15.019 Y6.534 E106.05655
G1 X1.953 Y-6.532 E107.9003
G1 X3.367 Y-6.532 E108.04139
G1 X16.433 Y6.534 E109.88515
G1 X17.847 Y6.533 E110.02624
G1 X4.781 Y-6.532 E111.86992
G1 X6.195 Y-6.532 E112.01101
G1 X19.26 Y6.532 E113.85455
G1 X20.674 Y6.532 E113.99564
G1 X7.609 Y-6.532 E115.83918
G1 X9.024 Y-6.532 E115.98037
G1 X22.081 Y6.525 E117.82286
G1 X22.123 Y6.524 E117.82705
G1 X22.392 Y6.494 E117.85406
G1 X22.491 Y6.475 E117.86411
G1 X22.854 Y6.377 E117.90163
G1 X22.903 Y6.359 E117.90684
G1 X23.195 Y6.225 E117.9389
G1 X10.438 Y-6.532 E119.73905
G1 X11.853 Y-6.531 E119.88024
G1 X23.98 Y5.596 E121.59149
G1 X24.166 Y5.352 E121.6221
G1 X24.186 Y5.32 E121.62587
G1 X24.366 Y4.981 E121.66416
G1 X24.388 Y4.932 E121.66952
G1 X24.475 Y4.676 E121.6965
G1 X13.267 Y-6.531 E123.278
G1 X14.681 Y-6.531 E123.41909
G1 X24.599 Y3.386 E124.81856
G1 X24.599 Y1.972 E124.95965
G1 X16.095 Y-6.531 E126.15958
G1 X17.51 Y-6.531 E126.30077
G1 X24.465 Y0.424 E127.2822
G1 X24.447 Y-.213 E127.34578
G1 X24.514 Y-.878 E127.41247
G1 X24.523 Y-.931 E127.41784
G1 X18.924 Y-6.531 E128.20799
G1 X20.338 Y-6.531 E128.34908
G1 X24.599 Y-2.27 E128.95035
G1 X24.599 Y-3.684 E129.09144
G1 X21.752 Y-6.531 E129.49318
G1 X21.871 Y-6.531 E129.50506
G1 X22.09 Y-6.523 E129.52692
G1 X22.234 Y-6.511 E129.54134
G1 X22.603 Y-6.45 E129.57866
G1 X22.654 Y-6.437 E129.58391
G1 X23 Y-6.32 E129.62036
G1 X23.048 Y-6.298 E129.62562
G1 X23.388 Y-6.119 E129.66396
G1 X23.419 Y-6.099 E129.66764
G1 X23.719 Y-5.87 E129.7053
G1 X23.753 Y-5.837 E129.71003
G1 X24.01 Y-5.564 E129.74744
G1 X24.038 Y-5.528 E129.75199
G1 X24.251 Y-5.212 E129.79002
G1 X24.273 Y-5.171 E129.79466
G1 X24.426 Y-4.836 E129.83141
G1 X24.44 Y-4.797 E129.83554
G1 X24.544 Y-4.415 E129.87505
G1 X24.559 Y-4.334 E129.88327
G1 X24.593 Y-4.038 E129.91299
G1 X24.599 Y-3.865 E129.93027
G1 F2100 E124.93027
G0 F600 X24.599 Y-3.865 Z0.74
G0 F6000 X-1.743 Y7.612
G0 X-5.351 Y9.778
;TIME_ELAPSED:156.199467
;LAYER:-3
;TYPE:SUPPORT-INTERFACE
G1 F1500 E129.95688
G1 F750 X-5.209 Y9.685 E129.96252
G1 X-5.088 Y9.6 E129.96744
G1 X-18.896 Y9.599 E130.4267
G1 X-18.976 Y9.544 E130.42992
G1 X-19.108 Y9.449 E130.43533
G1 X-19.216 Y9.367 E130.43984
G1 X-19.307 Y9.294 E130.44372
G1 X-19.421 Y9.199 E130.44866
G1 X-4.516 Y9.2 E130.9444
G1 X-3.943 Y8.8 E130.96764
G1 X-19.896 Y8.799 E131.49824
G1 X-19.965 Y8.74 E131.50126
G1 X-20.173 Y8.544 E131.51077
G1 X-20.316 Y8.399 E131.51754
G1 X-3.371 Y8.4 E132.08113
G1 X-2.799 Y8 E132.10435
G1 X-20.707 Y7.999 E132.69997
G1 X-20.787 Y7.912 E132.7039
G1 X-20.952 Y7.723 E132.71225
G1 X-21.053 Y7.599 E132.71757
G1 X-2.215 Y7.6 E133.34412
G1 X-1.87 Y7.385 E133.35764
G1 X-1.479 Y7.2 E133.37203
G1 X-21.375 Y7.199 E134.03377
G1 X-21.444 Y7.113 E134.03744
G1 X-21.494 Y7.048 E134.04017
G1 X-21.596 Y6.909 E134.0459
G1 X-21.673 Y6.799 E134.05037
G1 X-.137 Y6.8 E134.76666
G1 X-0.006 Y6.775 E134.77109
G1 X0.642 Y6.734 E134.79269
G1 X16.053 Y6.734 E135.30526
G1 X21.919 Y6.731 E135.50037
G1 X22.128 Y6.724 E135.50732
G1 X22.425 Y6.69 E135.51726
G1 X22.544 Y6.668 E135.52129
G1 X22.917 Y6.566 E135.53415
G1 X22.978 Y6.544 E135.53631
G1 X23.293 Y6.4 E135.54783
G1 X-21.936 Y6.399 E137.05215
G1 X-22.08 Y6.179 E137.06089
G1 X-22.138 Y6.087 E137.06451
G1 X-22.19 Y5.999 E137.06791
G1 X23.862 Y6 E138.59961
G1 X24.049 Y5.824 E138.60815
G1 X24.093 Y5.777 E138.61029
G1 X24.228 Y5.6 E138.61769
G1 X-22.408 Y5.599 E140.16881
G1 X-22.618 Y5.199 E140.18384
G1 X24.476 Y5.2 E141.75019
G1 X24.552 Y5.058 E141.75555
G1 X24.573 Y5.011 E141.75726
G1 X24.643 Y4.8 E141.76465
G1 X-22.805 Y4.799 E143.34278
G1 X-22.813 Y4.779 E143.3435
G1 X-22.969 Y4.399 E143.35716
G1 X24.744 Y4.4 E144.9441
G1 X24.779 Y4.191 E144.95115
G1 X24.791 Y4.039 E144.95622
G1 X24.792 Y4 E144.95752
G1 X-23.129 Y3.999 E146.55138
G1 X-23.171 Y3.879 E146.55561
G1 X-23.219 Y3.728 E146.56088
G1 X-23.258 Y3.599 E146.56536
G1 X24.8 Y3.6 E148.16377
G1 X24.8 Y3.2 E148.17708
G1 X-23.377 Y3.199 E149.77945
G1 X-23.455 Y2.934 E149.78864
G1 X-23.489 Y2.799 E149.79327
G1 X24.8 Y2.8 E151.39937
G1 X24.8 Y2.4 E151.41267
G1 X-23.573 Y2.399 E153.02156
G1 X-23.635 Y2.085 E153.03221
G1 X-23.652 Y1.999 E153.03513
G1 X24.8 Y2 E154.64665
G1 X24.8 Y1.6 E154.65995
G1 X-23.716 Y1.599 E156.2736
G1 X-23.73 Y1.475 E156.27775
G1 X-23.757 Y1.199 E156.28697
G1 X24.773 Y1.2 E157.90109
G1 X24.755 Y1.051 E157.90608
G1 X24.731 Y0.925 E157.91035
G1 X24.714 Y0.8 E157.91454
G1 X-23.796 Y0.799 E159.52799
G1 X-23.796 Y0.797
G1 X-23.808 Y0.632 E159.53349
G1 X-23.816 Y0.476 E159.53869
G1 X-23.818 Y0.399 E159.54125
G1 X24.665 Y0.4 E161.1538
G1 X24.655 Y0.00 E161.16711
G1 X-23.818 Y0.00 E162.77933
G1 X-23.818 Y-.388 E162.79223
G1 X-23.817 Y-.4 E162.79263
G1 X24.668 Y-.399 E164.40525
G1 X24.708 Y-.799 E164.41862
G1 X-23.795 Y-.8 E166.03184
G1 X-23.755 Y-1.2 E166.04521
G1 X24.771 Y-1.199 E167.65919
G1 X24.779 Y-1.246 E167.66077
G1 X24.791 Y-1.391 E167.66561
G1 X24.799 Y-1.599 E167.67254
G1 X-23.716 Y-1.6 E169.28615
G1 X-23.715 Y-1.611 E169.28652
G1 X-23.671 Y-1.894 E169.29605
G1 X-23.65 Y-2 E169.29964
G1 X24.8 Y-1.999 E170.91109
G1 X24.8 Y-2.399 E170.9244
G1 X-23.57 Y-2.4 E172.53319
G1 X-23.506 Y-2.727 E172.54427
G1 X-23.487 Y-2.8 E172.54678
G1 X24.8 Y-2.799 E174.15281
G1 X24.8 Y-3.199 E174.16612
G1 X-23.377 Y-3.2 E175.76849
G1 X-23.258 Y-3.6 E175.78237
G1 X24.8 Y-3.599 E177.38079
G1 X24.8 Y-3.865 E177.38963
G1 X24.796 Y-3.999 E177.39409
G1 X-23.127 Y-4 E178.98802
G1 X-23.125 Y-4.006 E178.98823
G1 X-23.078 Y-4.13 E178.99264
G1 X-22.967 Y-4.4 E179.00235
G1 X24.751 Y-4.399 E180.58946
G1 X24.738 Y-4.466 E180.59173
G1 X24.648 Y-4.799 E180.6032
G1 X-22.804 Y-4.8 E182.18146
G1 X-22.751 Y-4.925 E182.18597
G1 X-22.676 Y-5.084 E182.19182
G1 X-22.628 Y-5.18 E182.19539
G1 X-22.617 Y-5.2 E182.19615
G1 X24.481 Y-5.199 E183.76264
G1 X24.455 Y-5.255 E183.76469
G1 X24.417 Y-5.325 E183.76734
G1 X24.234 Y-5.599 E183.7783
G1 X-22.406 Y-5.6 E185.32955
G1 X-22.282 Y-5.836 E185.33842
G1 X-22.216 Y-5.954 E185.34292
G1 X-22.189 Y-6 E185.34469
G1 X23.873 Y-5.999 E186.87672
G1 X23.846 Y-6.024 E186.87794
G1 X23.536 Y-6.261 E186.89092
