;FLAVOR:Marlin
;TIME:1665
;Filament used: 0.4508m
;Layer height: 0.1
;MINX:-16.806
;MINY:-11.178
;MINZ:0.2
;MAXX:17.378
;MAXY:11.178
;MAXZ:7
;Generated with Cura_SteamEngine 4.13.1
M140 S60
M105
M190 S60
M104 S205
M105
M109 S205
M82 ;absolute extrusion mode
G28 ;Home
G1 Z15.0 F6000 ;Move the platform down 15mm
;Prime the extruder
G92 E0
G1 F200 E3
G92 E0
G92 E0
G92 E0
G1 F2400 E-5
;LAYER_COUNT:69
;LAYER:0
M107
G0 F900 X2.933 Y-7.183 Z0.2
;TYPE:SKIRT
G1 F2400 E0.01123
G1 F900 X13.328 Y-7.183 E0.27053
G1 X13.895 Y-7.143 E0.28471
G1 X14.452 Y-7.024 E0.29892
G1 X14.986 Y-6.828 E0.31311
G1 X15.487 Y-6.559 E0.32729
G1 X15.946 Y-6.223 E0.34148
G1 X16.353 Y-5.826 E0.35566
G1 X16.701 Y-5.375 E0.36987
G1 X16.981 Y-4.881 E0.38404
G1 X17.19 Y-4.352 E0.39823
G1 X17.323 Y-3.798 E0.41244
G1 X17.378 Y-3.133 E0.42908
G1 X17.378 Y-1.3 E0.47481
G1 X17.338 Y-.733 E0.48899
G1 X17.219 Y-.176 E0.5032
G1 X17.156 Y-0.005 E0.50774
G1 X17.19 Y0.081 E0.51005
G1 X17.323 Y0.635 E0.52426
G1 X17.378 Y1.3 E0.54091
G1 X17.378 Y3.132 E0.58661
G1 X17.338 Y3.699 E0.60078
G1 X17.219 Y4.256 E0.61499
G1 X17.023 Y4.79 E0.62918
G1 X16.754 Y5.291 E0.64337
G1 X16.418 Y5.75 E0.65756
G1 X16.021 Y6.157 E0.67174
G1 X15.57 Y6.505 E0.68595
G1 X15.076 Y6.785 E0.70011
G1 X14.547 Y6.994 E0.7143
G1 X13.993 Y7.127 E0.72851
G1 X13.328 Y7.182 E0.74516
G1 X2.935 Y7.183 E1.00441
G1 X2.539 Y7.636 E1.01942
G1 X2.092 Y8.088 E1.03528
G1 X1.825 Y8.335 E1.04435
G1 X1.337 Y8.747 E1.06029
G1 X1.041 Y8.974 E1.06959
G1 X0.522 Y9.336 E1.08538
G1 X0.235 Y9.519 E1.09387
G1 X-.314 Y9.837 E1.10969
G1 X-.641 Y10.006 E1.11887
G1 X-1.217 Y10.273 E1.13471
G1 X-1.561 Y10.414 E1.14399
G1 X-2.162 Y10.628 E1.1599
G1 X-2.491 Y10.73 E1.16849
G1 X-3.103 Y10.891 E1.18428
G1 X-3.466 Y10.969 E1.19354
G1 X-4.095 Y11.074 E1.20945
G1 X-4.449 Y11.117 E1.21834
G1 X-5.082 Y11.166 E1.23418
G1 X-5.44 Y11.178 E1.24312
G1 X-6.073 Y11.171 E1.25891
G1 X-6.436 Y11.15 E1.26798
G1 X-7.068 Y11.086 E1.28382
G1 X-7.422 Y11.035 E1.29274
G1 X-8.048 Y10.915 E1.30864
G1 X-8.405 Y10.829 E1.3178
G1 X-9.014 Y10.654 E1.33361
G1 X-9.36 Y10.538 E1.34271
G1 X-9.953 Y10.308 E1.35858
G1 X-10.263 Y10.172 E1.36702
G1 X-10.833 Y9.894 E1.38284
G1 X-11.167 Y9.712 E1.39233
G1 X-11.708 Y9.382 E1.40814
G1 X-11.994 Y9.19 E1.41673
G1 X-12.508 Y8.813 E1.43263
G1 X-12.806 Y8.572 E1.44219
G1 X-13.28 Y8.15 E1.45803
G1 X-13.532 Y7.905 E1.46679
G1 X-13.968 Y7.443 E1.48264
G1 X-14.199 Y7.176 E1.49145
G1 X-14.593 Y6.678 E1.50729
G1 X-14.806 Y6.382 E1.51638
G1 X-15.154 Y5.85 E1.53224
G1 X-15.339 Y5.538 E1.54129
G1 X-15.638 Y4.977 E1.55715
G1 X-15.79 Y4.658 E1.56596
G1 X-16.039 Y4.073 E1.58182
G1 X-16.17 Y3.723 E1.59114
G1 X-16.363 Y3.121 E1.60691
G1 X-16.455 Y2.782 E1.61568
G1 X-16.596 Y2.161 E1.63156
G1 X-16.661 Y1.799 E1.64074
G1 X-16.745 Y1.169 E1.65659
G1 X-16.777 Y0.819 E1.66536
G1 X-16.806 Y0.186 E1.68116
G1 X-16.806 Y-.184 E1.69039
G1 X-16.777 Y-.819 E1.70625
G1 X-16.745 Y-1.169 E1.71502
G1 X-16.661 Y-1.799 E1.73087
G1 X-16.596 Y-2.161 E1.74005
G1 X-16.455 Y-2.782 E1.75593
G1 X-16.363 Y-3.121 E1.76469
G1 X-16.17 Y-3.723 E1.78046
G1 X-16.039 Y-4.073 E1.78979
G1 X-15.79 Y-4.658 E1.80565
G1 X-15.638 Y-4.977 E1.81446
G1 X-15.339 Y-5.538 E1.83032
G1 X-15.154 Y-5.85 E1.83937
G1 X-14.806 Y-6.382 E1.85523
G1 X-14.593 Y-6.678 E1.86432
G1 X-14.199 Y-7.176 E1.88016
G1 X-13.968 Y-7.443 E1.88897
G1 X-13.532 Y-7.905 E1.90482
G1 X-13.28 Y-8.15 E1.91358
G1 X-12.806 Y-8.572 E1.92941
G1 X-12.508 Y-8.813 E1.93897
G1 X-11.994 Y-9.19 E1.95488
G1 X-11.708 Y-9.382 E1.96347
G1 X-11.167 Y-9.712 E1.97928
G1 X-10.833 Y-9.894 E1.98876
G1 X-10.263 Y-10.172 E2.00458
G1 X-9.953 Y-10.308 E2.01303
G1 X-9.36 Y-10.538 E2.02889
G1 X-9.014 Y-10.654 E2.038
G1 X-8.405 Y-10.829 E2.0538
G1 X-8.048 Y-10.915 E2.06296
G1 X-7.422 Y-11.035 E2.07886
G1 X-7.068 Y-11.086 E2.08779
G1 X-6.436 Y-11.15 E2.10363
G1 X-6.073 Y-11.171 E2.1127
G1 X-5.44 Y-11.178 E2.12849
G1 X-5.082 Y-11.166 E2.13743
G1 X-4.449 Y-11.117 E2.15327
G1 X-4.095 Y-11.074 E2.16216
G1 X-3.466 Y-10.969 E2.17807
G1 X-3.103 Y-10.891 E2.18733
G1 X-2.491 Y-10.73 E2.20312
G1 X-2.162 Y-10.628 E2.21171
G1 X-1.561 Y-10.414 E2.22762
G1 X-1.217 Y-10.274 E2.23689
G1 X-.643 Y-10.008 E2.25267
G1 X-.317 Y-9.838 E2.26184
G1 X0.234 Y-9.519 E2.27772
G1 X0.522 Y-9.336 E2.28623
G1 X1.041 Y-8.974 E2.30202
G1 X1.336 Y-8.747 E2.3113
G1 X1.823 Y-8.336 E2.3272
G1 X2.094 Y-8.086 E2.3364
G1 X2.541 Y-7.633 E2.35227
G1 X2.933 Y-7.183 E2.36716
G0 X2.792 Y-6.883
G1 X13.328 Y-6.883 E2.62998
G1 X13.874 Y-6.843 E2.64364
G1 X14.408 Y-6.724 E2.65729
G1 X14.919 Y-6.529 E2.67093
G1 X15.397 Y-6.261 E2.6846
G1 X15.83 Y-5.926 E2.69826
G1 X16.21 Y-5.532 E2.71191
G1 X16.529 Y-5.087 E2.72557
G1 X16.779 Y-4.6 E2.73922
G1 X16.956 Y-4.082 E2.75288
G1 X17.055 Y-3.544 E2.76652
G1 X17.078 Y-3.133 E2.77679
G1 X17.078 Y-1.3 E2.82252
G1 X17.038 Y-.754 E2.83617
G1 X16.919 Y-.22 E2.84982
G1 X16.836 Y-0.001 E2.85566
G1 X16.956 Y0.351 E2.86494
G1 X17.055 Y0.889 E2.87859
G1 X17.078 Y1.3 E2.88885
G1 X17.078 Y3.132 E2.93455
G1 X17.038 Y3.678 E2.94821
G1 X16.919 Y4.212 E2.96186
G1 X16.724 Y4.723 E2.9755
G1 X16.456 Y5.201 E2.98917
G1 X16.121 Y5.634 E3.00283
G1 X15.727 Y6.014 E3.01648
G1 X15.282 Y6.333 E3.03014
G1 X14.795 Y6.583 E3.0438
G1 X14.277 Y6.76 E3.05745
G1 X13.739 Y6.859 E3.0711
G1 X13.328 Y6.882 E3.08137
G1 X2.794 Y6.883 E3.34414
G1 X2.325 Y7.425 E3.36202
G1 X1.878 Y7.877 E3.37787
G1 X1.631 Y8.105 E3.38626
G1 X1.143 Y8.517 E3.40219
G1 X0.869 Y8.728 E3.41082
G1 X0.35 Y9.09 E3.4266
G1 X0.085 Y9.259 E3.43444
G1 X-.464 Y9.577 E3.45027
G1 X-.767 Y9.734 E3.45878
G1 X-1.343 Y10.001 E3.47462
G1 X-1.662 Y10.132 E3.48322
G1 X-2.263 Y10.346 E3.49914
G1 X-2.567 Y10.44 E3.50707
G1 X-3.179 Y10.601 E3.52286
G1 X-3.516 Y10.673 E3.53146
G1 X-4.145 Y10.778 E3.54736
G1 X-4.473 Y10.818 E3.55561
G1 X-5.106 Y10.867 E3.57144
G1 X-5.436 Y10.878 E3.57968
G1 X-6.069 Y10.871 E3.59547
G1 X-6.406 Y10.852 E3.60389
G1 X-7.038 Y10.788 E3.61974
G1 X-7.366 Y10.74 E3.62801
G1 X-7.992 Y10.62 E3.64391
G1 X-8.322 Y10.541 E3.65237
G1 X-8.931 Y10.366 E3.66818
G1 X-9.251 Y10.258 E3.6766
G1 X-9.844 Y10.028 E3.69247
G1 X-10.132 Y9.902 E3.70031
G1 X-10.702 Y9.624 E3.71613
G1 X-11.011 Y9.455 E3.72491
G1 X-11.552 Y9.125 E3.74072
G1 X-11.817 Y8.948 E3.74867
G1 X-12.331 Y8.571 E3.76457
G1 X-12.607 Y8.348 E3.77342
G1 X-13.081 Y7.926 E3.78925
G1 X-13.314 Y7.699 E3.79737
G1 X-13.75 Y7.237 E3.81322
G1 X-13.964 Y6.99 E3.82137
G1 X-14.358 Y6.492 E3.83721
G1 X-14.555 Y6.218 E3.84563
G1 X-14.903 Y5.686 E3.86148
G1 X-15.074 Y5.397 E3.86986
G1 X-15.373 Y4.836 E3.88572
G1 X-15.514 Y4.541 E3.89387
G1 X-15.763 Y3.956 E3.90973
G1 X-15.884 Y3.632 E3.91836
G1 X-16.077 Y3.03 E3.93413
G1 X-16.163 Y2.715 E3.94228
G1 X-16.304 Y2.094 E3.95816
G1 X-16.364 Y1.76 E3.96663
G1 X-16.448 Y1.13 E3.98248
G1 X-16.477 Y0.806 E3.9906
G1 X-16.506 Y0.173 E4.0064
G1 X-16.506 Y-.17 E4.01496
G1 X-16.477 Y-.805 E4.03082
G1 X-16.448 Y-1.13 E4.03896
G1 X-16.364 Y-1.76 E4.05481
G1 X-16.304 Y-2.094 E4.06327
G1 X-16.163 Y-2.715 E4.07916
G1 X-16.077 Y-3.03 E4.08731
G1 X-15.884 Y-3.632 E4.10307
G1 X-15.763 Y-3.956 E4.1117
G1 X-15.514 Y-4.541 E4.12756
G1 X-15.373 Y-4.836 E4.13572
G1 X-15.074 Y-5.397 E4.15158
G1 X-14.903 Y-5.686 E4.15995
G1 X-14.555 Y-6.218 E4.17581
G1 X-14.358 Y-6.492 E4.18423
G1 X-13.964 Y-6.99 E4.20007
G1 X-13.75 Y-7.237 E4.20822
G1 X-13.314 Y-7.699 E4.22407
G1 X-13.081 Y-7.926 E4.23218
G1 X-12.607 Y-8.348 E4.24801
G1 X-12.331 Y-8.571 E4.25686
G1 X-11.817 Y-8.948 E4.27277
G1 X-11.552 Y-9.125 E4.28071
G1 X-11.011 Y-9.455 E4.29652
G1 X-10.702 Y-9.624 E4.30531
G1 X-10.132 Y-9.902 E4.32113
G1 X-9.844 Y-10.028 E4.32897
G1 X-9.251 Y-10.258 E4.34484
G1 X-8.931 Y-10.366 E4.35326
G1 X-8.322 Y-10.541 E4.36907
G1 X-7.992 Y-10.62 E4.37753
G1 X-7.366 Y-10.74 E4.39343
G1 X-7.038 Y-10.788 E4.4017
G1 X-6.406 Y-10.852 E4.41755
G1 X-6.069 Y-10.871 E4.42597
G1 X-5.436 Y-10.878 E4.44176
G1 X-5.106 Y-10.867 E4.44999
G1 X-4.473 Y-10.818 E4.46583
G1 X-4.145 Y-10.778 E4.47407
G1 X-3.516 Y-10.673 E4.48998
G1 X-3.179 Y-10.601 E4.49858
G1 X-2.567 Y-10.44 E4.51436
G1 X-2.263 Y-10.346 E4.5223
G1 X-1.662 Y-10.132 E4.53822
G1 X-1.343 Y-10.001 E4.54682
G1 X-.769 Y-9.735 E4.5626
G1 X-.467 Y-9.578 E4.57109
G1 X0.084 Y-9.259 E4.58697
G1 X0.35 Y-9.09 E4.59483
G1 X0.869 Y-8.728 E4.61062
G1 X1.143 Y-8.518 E4.61923
G1 X1.63 Y-8.107 E4.63513
G1 X1.88 Y-7.875 E4.64363
G1 X2.327 Y-7.422 E4.65951
G1 X2.792 Y-6.883 E4.67727
G0 X2.314 Y-6.99
G1 X2.651 Y-6.583 E4.69045
G1 X13.328 Y-6.583 E4.95679
G1 X13.851 Y-6.543 E4.96987
G1 X14.363 Y-6.424 E4.98298
G1 X14.85 Y-6.229 E4.99607
G1 X15.302 Y-5.962 E5.00916
G1 X15.709 Y-5.63 E5.02227
G1 X16.06 Y-5.24 E5.03535
G1 X16.348 Y-4.801 E5.04845
G1 X16.566 Y-4.323 E5.06156
G1 X16.709 Y-3.818 E5.07465
G1 X16.778 Y-3.133 E5.09182
G1 X16.778 Y-1.3 E5.13755
G1 X16.738 Y-.777 E5.15063
G1 X16.619 Y-.265 E5.16374
G1 X16.514 Y-0.003 E5.17079
G1 X16.566 Y0.11 E5.17389
G1 X16.709 Y0.615 E5.18698
G1 X16.778 Y1.3 E5.20415
G1 X16.778 Y3.132 E5.24985
G1 X16.738 Y3.655 E5.26294
G1 X16.619 Y4.167 E5.27605
G1 X16.424 Y4.654 E5.28914
G1 X16.157 Y5.106 E5.30223
G1 X15.825 Y5.513 E5.31533
G1 X15.435 Y5.864 E5.32842
G1 X14.996 Y6.152 E5.34152
G1 X14.518 Y6.37 E5.35463
G1 X14.013 Y6.513 E5.36772
G1 X13.328 Y6.582 E5.38489
G1 X2.653 Y6.583 E5.65118
G1 X2.313 Y6.992 E5.66445
G1 X2.112 Y7.214 E5.67192
G1 X1.665 Y7.666 E5.68778
G1 X1.438 Y7.876 E5.69549
G1 X0.95 Y8.288 E5.71142
G1 X0.698 Y8.482 E5.71935
G1 X0.179 Y8.844 E5.73514
G1 X-0.066 Y8.999 E5.74237
G1 X-.615 Y9.317 E5.7582
G1 X-.893 Y9.462 E5.76602
G1 X-1.469 Y9.729 E5.78186
G1 X-1.763 Y9.849 E5.78978
G1 X-2.364 Y10.063 E5.80569
G1 X-2.643 Y10.149 E5.81297
G1 X-3.255 Y10.31 E5.82876
G1 X-3.565 Y10.377 E5.83667
G1 X-4.194 Y10.482 E5.85258
G1 X-4.496 Y10.519 E5.86017
G1 X-5.129 Y10.568 E5.87601
G1 X-5.433 Y10.578 E5.88359
G1 X-6.066 Y10.571 E5.89939
G1 X-6.376 Y10.553 E5.90713
G1 X-7.008 Y10.489 E5.92298
G1 X-7.31 Y10.445 E5.93059
G1 X-7.936 Y10.325 E5.94649
G1 X-8.239 Y10.253 E5.95426
G1 X-8.848 Y10.078 E5.97007
G1 X-9.143 Y9.979 E5.97783
G1 X-9.736 Y9.749 E5.99369
G1 X-10 Y9.633 E6.00089
G1 X-10.57 Y9.355 E6.01671
G1 X-10.855 Y9.199 E6.02481
G1 X-11.396 Y8.869 E6.04062
G1 X-11.639 Y8.706 E6.04792
G1 X-12.153 Y8.329 E6.06382
G1 X-12.407 Y8.124 E6.07196
G1 X-12.881 Y7.702 E6.08779
G1 X-13.096 Y7.493 E6.09527
G1 X-13.532 Y7.031 E6.11112
G1 X-13.729 Y6.804 E6.11862
G1 X-14.123 Y6.306 E6.13446
G1 X-14.304 Y6.054 E6.1422
G1 X-14.652 Y5.522 E6.15805
G1 X-14.81 Y5.256 E6.16577
G1 X-15.109 Y4.695 E6.18163
G1 X-15.238 Y4.423 E6.18914
G1 X-15.487 Y3.838 E6.205
G1 X-15.598 Y3.54 E6.21293
G1 X-15.791 Y2.938 E6.2287
G1 X-15.87 Y2.649 E6.23617
G1 X-16.011 Y2.028 E6.25206
G1 X-16.067 Y1.72 E6.25987
G1 X-16.151 Y1.09 E6.27572
G1 X-16.177 Y0.792 E6.28318
G1 X-16.206 Y0.159 E6.29899
G1 X-16.206 Y-.156 E6.30685
G1 X-16.177 Y-.791 E6.32271
G1 X-16.151 Y-1.09 E6.33019
G1 X-16.067 Y-1.72 E6.34605
G1 X-16.011 Y-2.028 E6.35386
G1 X-15.87 Y-2.649 E6.36974
G1 X-15.791 Y-2.938 E6.37722
G1 X-15.598 Y-3.54 E6.39298
G1 X-15.487 Y-3.838 E6.40092
G1 X-15.238 Y-4.423 E6.41678
G1 X-15.109 Y-4.695 E6.42429
G1 X-14.81 Y-5.256 E6.44014
G1 X-14.652 Y-5.522 E6.44786
G1 X-14.304 Y-6.054 E6.46372
G1 X-14.123 Y-6.306 E6.47146
G1 X-13.729 Y-6.804 E6.4873
G1 X-13.532 Y-7.031 E6.4948
G1 X-13.096 Y-7.493 E6.51064
G1 X-12.881 Y-7.702 E6.51812
G1 X-12.407 Y-8.124 E6.53395
G1 X-12.153 Y-8.329 E6.5421
G1 X-11.639 Y-8.706 E6.558
G1 X-11.396 Y-8.869 E6.5653
G1 X-10.855 Y-9.199 E6.5811
G1 X-10.57 Y-9.355 E6.58921
G1 X-10 Y-9.633 E6.60503
G1 X-9.736 Y-9.749 E6.61222
G1 X-9.143 Y-9.979 E6.62809
G1 X-8.848 Y-10.078 E6.63585
G1 X-8.239 Y-10.253 E6.65166
G1 X-7.936 Y-10.325 E6.65943
G1 X-7.31 Y-10.445 E6.67533
G1 X-7.008 Y-10.489 E6.68294
G1 X-6.376 Y-10.553 E6.69878
G1 X-6.066 Y-10.571 E6.70653
G1 X-5.433 Y-10.578 E6.72232
G1 X-5.129 Y-10.568 E6.72991
G1 X-4.496 Y-10.519 E6.74575
G1 X-4.194 Y-10.482 E6.75334
G1 X-3.565 Y-10.377 E6.76924
G1 X-3.255 Y-10.31 E6.77716
G1 X-2.643 Y-10.149 E6.79294
G1 X-2.364 Y-10.063 E6.80022
G1 X-1.763 Y-9.849 E6.81614
G1 X-1.469 Y-9.729 E6.82406
G1 X-.895 Y-9.463 E6.83984
G1 X-.617 Y-9.319 E6.84765
G1 X-0.066 Y-9 E6.86353
G1 X0.179 Y-8.844 E6.87078
G1 X0.698 Y-8.482 E6.88656
G1 X0.949 Y-8.289 E6.89446
G1 X1.436 Y-7.878 E6.91036
G1 X1.667 Y-7.664 E6.91821
G1 X2.114 Y-7.211 E6.93409
G1 X2.314 Y-6.99 E6.94152
G0 X2.083 Y-6.798
G1 X2.509 Y-6.283 E6.95819
G1 X13.328 Y-6.283 E7.22808
G1 X13.828 Y-6.243 E7.24059
G1 X14.315 Y-6.124 E7.25309
G1 X14.778 Y-5.93 E7.26562
G1 X15.203 Y-5.664 E7.27812
G1 X15.581 Y-5.334 E7.29064
G1 X15.902 Y-4.949 E7.30314
G1 X16.158 Y-4.517 E7.31567
G1 X16.341 Y-4.05 E7.32818
G1 X16.449 Y-3.561 E7.34067
G1 X16.478 Y-3.133 E7.35138
G1 X16.478 Y-1.3 E7.3971
G1 X16.438 Y-.8 E7.40961
G1 X16.319 Y-.313 E7.42212
G1 X16.189 Y-0.004 E7.43048
G1 X16.341 Y0.383 E7.44085
G1 X16.449 Y0.872 E7.45334
G1 X16.478 Y1.3 E7.46405
G1 X16.478 Y3.132 E7.50974
G1 X16.438 Y3.632 E7.52226
G1 X16.319 Y4.119 E7.53476
G1 X16.125 Y4.582 E7.54729
G1 X15.859 Y5.007 E7.55979
G1 X15.529 Y5.385 E7.57231
G1 X15.144 Y5.706 E7.58481
G1 X14.712 Y5.962 E7.59734
G1 X14.245 Y6.145 E7.60985
G1 X13.756 Y6.253 E7.62234
G1 X13.328 Y6.282 E7.63304
G1 X2.511 Y6.283 E7.90288
G1 X2.082 Y6.801 E7.91965
G1 X1.899 Y7.003 E7.92645
G1 X1.452 Y7.455 E7.94231
G1 X1.244 Y7.647 E7.94937
G1 X0.756 Y8.059 E7.9653
G1 X0.526 Y8.236 E7.97254
G1 X0.007 Y8.598 E7.98833
G1 X-.216 Y8.74 E7.99492
G1 X-.765 Y9.058 E8.01075
G1 X-1.019 Y9.19 E8.01789
G1 X-1.595 Y9.457 E8.03373
G1 X-1.863 Y9.566 E8.04094
G1 X-2.464 Y9.78 E8.05686
G1 X-2.72 Y9.859 E8.06354
G1 X-3.332 Y10.02 E8.07933
G1 X-3.614 Y10.081 E8.08652
G1 X-4.243 Y10.186 E8.10243
G1 X-4.519 Y10.22 E8.10937
G1 X-5.152 Y10.269 E8.1252
G1 X-5.43 Y10.278 E8.13214
G1 X-6.063 Y10.271 E8.14793
G1 X-6.345 Y10.255 E8.15498
G1 X-6.977 Y10.191 E8.17083
G1 X-7.253 Y10.151 E8.17778
G1 X-7.879 Y10.031 E8.19368
G1 X-8.156 Y9.964 E8.20079
G1 X-8.765 Y9.789 E8.2166
G1 X-9.034 Y9.699 E8.22367
G1 X-9.627 Y9.469 E8.23954
G1 X-9.869 Y9.363 E8.24613
G1 X-10.439 Y9.085 E8.26195
G1 X-10.698 Y8.943 E8.26932
G1 X-11.239 Y8.613 E8.28513
G1 X-11.462 Y8.464 E8.29182
G1 X-11.976 Y8.087 E8.30772
G1 X-12.208 Y7.9 E8.31515
G1 X-12.682 Y7.478 E8.33098
G1 X-12.878 Y7.287 E8.33781
G1 X-13.314 Y6.825 E8.35365
G1 X-13.493 Y6.617 E8.3605
G1 X-13.887 Y6.119 E8.37634
G1 X-14.053 Y5.889 E8.38342
G1 X-14.401 Y5.357 E8.39927
G1 X-14.545 Y5.115 E8.4063
G1 X-14.844 Y4.554 E8.42216
G1 X-14.962 Y4.306 E8.42901
G1 X-15.211 Y3.721 E8.44487
G1 X-15.313 Y3.449 E8.45211
G1 X-15.506 Y2.847 E8.46788
G1 X-15.578 Y2.582 E8.47473
G1 X-15.719 Y1.961 E8.49062
G1 X-15.769 Y1.68 E8.49774
G1 X-15.853 Y1.05 E8.51359
G1 X-15.878 Y0.778 E8.52041
G1 X-15.907 Y0.145 E8.53621
G1 X-15.907 Y-.143 E8.5434
G1 X-15.878 Y-.778 E8.55925
G1 X-15.853 Y-1.05 E8.56607
G1 X-15.769 Y-1.68 E8.58192
G1 X-15.719 Y-1.961 E8.58904
G1 X-15.578 Y-2.582 E8.60493
G1 X-15.506 Y-2.847 E8.61178
G1 X-15.313 Y-3.449 E8.62755
G1 X-15.211 Y-3.721 E8.63479
G1 X-14.962 Y-4.306 E8.65065
G1 X-14.844 Y-4.554 E8.6575
G1 X-14.545 Y-5.115 E8.67336
G1 X-14.401 Y-5.357 E8.68039
G1 X-14.053 Y-5.889 E8.69624
G1 X-13.887 Y-6.119 E8.70332
G1 X-13.493 Y-6.617 E8.71916
G1 X-13.314 Y-6.825 E8.72601
G1 X-12.878 Y-7.287 E8.74185
G1 X-12.682 Y-7.478 E8.74868
G1 X-12.208 Y-7.9 E8.76451
G1 X-11.976 Y-8.087 E8.77194
G1 X-11.462 Y-8.464 E8.78784
G1 X-11.239 Y-8.613 E8.79453
G1 X-10.698 Y-8.943 E8.81034
G1 X-10.439 Y-9.085 E8.81771
G1 X-9.869 Y-9.363 E8.83353
G1 X-9.627 Y-9.469 E8.84012
G1 X-9.034 Y-9.699 E8.85599
G1 X-8.765 Y-9.789 E8.86306
G1 X-8.156 Y-9.964 E8.87887
G1 X-7.879 Y-10.031 E8.88598
G1 X-7.253 Y-10.151 E8.90188
G1 X-6.977 Y-10.191 E8.90883
G1 X-6.345 Y-10.255 E8.92468
G1 X-6.063 Y-10.271 E8.93173
G1 X-5.43 Y-10.278 E8.94752
G1 X-5.152 Y-10.269 E8.95446
G1 X-4.519 Y-10.22 E8.97029
G1 X-4.243 Y-10.186 E8.97723
G1 X-3.614 Y-10.081 E8.99314
G1 X-3.332 Y-10.02 E9.00034
G1 X-2.72 Y-9.859 E9.01612
G1 X-2.464 Y-9.78 E9.0228
G1 X-1.863 Y-9.566 E9.03872
G1 X-1.596 Y-9.457 E9.04591
G1 X-1.022 Y-9.191 E9.06169
G1 X-.768 Y-9.059 E9.06883
G1 X-.217 Y-8.74 E9.08472
G1 X0.007 Y-8.598 E9.09133
G1 X0.526 Y-8.236 E9.10712
