;FLAVOR:Marlin
;TIME:1188
;Filament used: 0.338052m
;Layer height: 0.1
;MINX:-12.942
;MINY:-8.75
;MINZ:0.2
;MAXX:13.23
;MAXY:8.75
;MAXZ:11
;Generated with Cura_SteamEngine 4.13.1
M140 S55
M105
M190 S55
M104 S205
M105
M109 S205
M82 ;absolute extrusion mode
G28 ;Home
G1 Z15.0 F6000 ;Move the platform down 15mm
;Prime the extruder
G92 E0
G1 F200 E3
G92 E0
G92 E0
G92 E0
G1 F2700 E-5
;LAYER_COUNT:109
;LAYER:0
M107
G0 F900 X-6.965 Y5.318 Z0.2
;TYPE:SKIRT
G1 F2700 E0.01123
G1 F900 X-7.036 Y5.336 E0.01305
G1 X-7.601 Y5.398 E0.02723
G1 X-8.17 Y5.38 E0.04143
G1 X-8.73 Y5.282 E0.05561
G1 X-9.009 Y5.268 E0.06258
G1 X-9.57 Y5.171 E0.07678
G1 X-10.112 Y4.997 E0.09098
G1 X-10.623 Y4.748 E0.10516
G1 X-11.095 Y4.43 E0.11936
G1 X-11.518 Y4.05 E0.13354
G1 X-11.873 Y3.627 E0.14732
G1 X-12.163 Y3.23 E0.15958
G1 X-12.466 Y2.748 E0.17379
G1 X-12.698 Y2.229 E0.18797
G1 X-12.855 Y1.682 E0.20216
G1 X-12.933 Y1.119 E0.21634
G1 X-12.942 Y0.777 E0.22488
G1 X-12.93 Y0.02 E0.24376
G1 X-12.925 Y-.143 E0.24783
G1 X-12.887 Y-.821 E0.26477
G1 X-12.815 Y-1.385 E0.27895
G1 X-12.665 Y-1.934 E0.29315
G1 X-12.478 Y-2.38 E0.30521
G1 X-12.112 Y-3.125 E0.32592
G1 X-11.826 Y-3.616 E0.34009
G1 X-11.474 Y-4.063 E0.35429
G1 X-11.063 Y-4.456 E0.36847
G1 X-10.6 Y-4.788 E0.38268
G1 X-10.096 Y-5.051 E0.39686
G1 X-9.273 Y-5.341 E0.41863
G1 X-8.721 Y-5.481 E0.43284
G1 X-8.156 Y-5.542 E0.44701
G1 X-7.587 Y-5.523 E0.46121
G1 X-7.027 Y-5.425 E0.4754
G1 X-6.943 Y-5.398 E0.4776
G1 X-6.896 Y-5.618 E0.48321
G1 X-6.7 Y-6.152 E0.4974
G1 X-6.432 Y-6.654 E0.51159
G1 X-6.095 Y-7.113 E0.5258
G1 X-5.664 Y-7.564 E0.54136
G1 X-5.234 Y-7.937 E0.55556
G1 X-4.757 Y-8.246 E0.56974
G1 X-4.241 Y-8.485 E0.58392
G1 X-3.696 Y-8.65 E0.59813
G1 X-3.134 Y-8.736 E0.61231
G1 X-2.8 Y-8.75 E0.62065
G1 X4.495 Y-8.75 E0.80262
G1 X4.778 Y-8.74 E0.80969
G1 X5.421 Y-8.695 E0.82576
G1 X5.97 Y-8.619 E0.83959
G1 X6.589 Y-8.489 E0.85537
G1 X7.1 Y-8.346 E0.8686
G1 X7.692 Y-8.138 E0.88426
G1 X8.208 Y-7.915 E0.89828
G1 X8.781 Y-7.619 E0.91437
G1 X9.278 Y-7.318 E0.92886
G1 X9.784 Y-6.961 E0.94431
G1 X10.209 Y-6.616 E0.95796
G1 X10.674 Y-6.183 E0.97381
G1 X11.071 Y-5.759 E0.9883
G1 X11.471 Y-5.268 E1.0041
G1 X11.797 Y-4.805 E1.01823
G1 X12.133 Y-4.249 E1.03443
G1 X12.381 Y-3.769 E1.04791
G1 X12.631 Y-3.194 E1.06355
G1 X12.814 Y-2.681 E1.07714
G1 X12.985 Y-2.076 E1.09282
G1 X13.106 Y-1.495 E1.10762
G1 X13.193 Y-.856 E1.12371
G1 X13.23 Y-.31 E1.13736
G1 X13.23 Y0.308 E1.15278
G1 X13.193 Y0.853 E1.1664
G1 X13.092 Y1.589 E1.18494
G1 X12.985 Y2.079 E1.19745
G1 X12.814 Y2.682 E1.21308
G1 X12.631 Y3.195 E1.22667
G1 X12.37 Y3.794 E1.24297
G1 X12.113 Y4.288 E1.25686
G1 X11.786 Y4.823 E1.2725
G1 X11.471 Y5.268 E1.2861
G1 X11.072 Y5.758 E1.30186
G1 X10.675 Y6.182 E1.31635
G1 X10.21 Y6.615 E1.3322
G1 X9.786 Y6.96 E1.34584
G1 X9.276 Y7.32 E1.36141
G1 X8.811 Y7.603 E1.37499
G1 X8.241 Y7.9 E1.39102
G1 X7.692 Y8.138 E1.40595
G1 X7.1 Y8.346 E1.4216
G1 X6.589 Y8.489 E1.43484
G1 X5.97 Y8.619 E1.45061
G1 X5.42 Y8.695 E1.46446
G1 X4.776 Y8.74 E1.48057
G1 X4.494 Y8.75 E1.48761
G1 X-2.799 Y8.75 E1.66953
G1 X-3.366 Y8.71 E1.68371
G1 X-3.923 Y8.591 E1.69792
G1 X-4.457 Y8.395 E1.71211
G1 X-4.958 Y8.126 E1.72629
G1 X-5.417 Y7.79 E1.74048
G1 X-5.868 Y7.359 E1.75604
G1 X-6.241 Y6.929 E1.77024
G1 X-6.55 Y6.452 E1.78442
G1 X-6.789 Y5.936 E1.79861
G1 X-6.954 Y5.391 E1.81281
G1 X-6.965 Y5.318 E1.81465
G0 X-6.678 Y5.244
G1 X-6.708 Y4.944 E1.82217
G1 X-7.11 Y5.045 E1.83251
G1 X-7.654 Y5.1 E1.84615
G1 X-8.201 Y5.075 E1.85981
G1 X-8.703 Y4.977 E1.87257
G1 X-9.041 Y4.962 E1.88101
G1 X-9.579 Y4.859 E1.89467
G1 X-10.095 Y4.678 E1.90832
G1 X-10.58 Y4.424 E1.92197
G1 X-11.023 Y4.103 E1.93562
G1 X-11.414 Y3.72 E1.94927
G1 X-11.921 Y3.053 E1.97017
G1 X-12.211 Y2.589 E1.98382
G1 X-12.43 Y2.087 E1.99748
G1 X-12.574 Y1.559 E2.01114
G1 X-12.643 Y0.782 E2.03059
G1 X-12.631 Y0.025 E2.04948
G1 X-12.625 Y-.126 E2.05325
G1 X-12.587 Y-.804 E2.07019
G1 X-12.517 Y-1.347 E2.08385
G1 X-12.368 Y-1.873 E2.09748
G1 X-12.209 Y-2.248 E2.10764
G1 X-11.843 Y-2.993 E2.12835
G1 X-11.566 Y-3.465 E2.142
G1 X-11.224 Y-3.892 E2.15565
G1 X-10.823 Y-4.265 E2.16931
G1 X-10.372 Y-4.575 E2.18296
G1 X-9.652 Y-4.9 E2.20267
G1 X-9.179 Y-5.056 E2.21509
G1 X-8.648 Y-5.189 E2.22875
G1 X-8.103 Y-5.244 E2.24241
G1 X-7.556 Y-5.218 E2.25607
G1 X-7.019 Y-5.113 E2.26972
G1 X-6.717 Y-5.007 E2.2777
G1 X-6.715 Y-5.04 E2.27853
G1 X-6.596 Y-5.575 E2.2922
G1 X-6.401 Y-6.086 E2.30584
G1 X-6.133 Y-6.563 E2.31949
G1 X-5.657 Y-7.147 E2.33829
G1 X-5.452 Y-7.352 E2.34552
G1 X-5.037 Y-7.709 E2.35917
G1 X-4.575 Y-8.003 E2.37283
G1 X-4.076 Y-8.226 E2.38647
G1 X-3.549 Y-8.374 E2.40012
G1 X-2.8 Y-8.45 E2.4189
G1 X4.495 Y-8.45 E2.60088
G1 X4.757 Y-8.441 E2.60742
G1 X5.4 Y-8.396 E2.6235
G1 X5.909 Y-8.325 E2.63632
G1 X6.528 Y-8.195 E2.65209
G1 X7 Y-8.063 E2.66432
G1 X7.592 Y-7.855 E2.67997
G1 X8.07 Y-7.649 E2.69296
G1 X8.643 Y-7.353 E2.70904
G1 X9.105 Y-7.073 E2.72252
G1 X9.611 Y-6.716 E2.73797
G1 X10.005 Y-6.396 E2.75063
G1 X10.47 Y-5.963 E2.76648
G1 X10.838 Y-5.57 E2.77991
G1 X11.238 Y-5.079 E2.79571
G1 X11.54 Y-4.65 E2.80879
G1 X11.876 Y-4.094 E2.825
G1 X12.106 Y-3.649 E2.83749
G1 X12.356 Y-3.074 E2.85314
G1 X12.526 Y-2.599 E2.86572
G1 X12.697 Y-1.994 E2.8814
G1 X12.809 Y-1.455 E2.89514
G1 X12.896 Y-.816 E2.91122
G1 X12.93 Y-.31 E2.92387
G1 X12.93 Y0.308 E2.93929
G1 X12.896 Y0.812 E2.95189
G1 X12.796 Y1.541 E2.97025
G1 X12.697 Y1.997 E2.98189
G1 X12.526 Y2.6 E2.99752
G1 X12.356 Y3.075 E3.01011
G1 X12.095 Y3.674 E3.0264
G1 X11.857 Y4.132 E3.03928
G1 X11.53 Y4.667 E3.05492
G1 X11.238 Y5.079 E3.06752
G1 X10.839 Y5.569 E3.08328
G1 X10.471 Y5.962 E3.09671
G1 X10.006 Y6.395 E3.11256
G1 X9.613 Y6.715 E3.1252
G1 X9.103 Y7.075 E3.14078
G1 X8.673 Y7.337 E3.15334
G1 X8.103 Y7.634 E3.16937
G1 X7.592 Y7.855 E3.18326
G1 X7 Y8.063 E3.19891
G1 X6.528 Y8.195 E3.21114
G1 X5.909 Y8.325 E3.22691
G1 X5.399 Y8.396 E3.23976
G1 X4.755 Y8.441 E3.25586
G1 X4.494 Y8.45 E3.26238
G1 X-2.799 Y8.45 E3.4443
G1 X-3.345 Y8.41 E3.45796
G1 X-3.879 Y8.291 E3.4716
G1 X-4.39 Y8.096 E3.48525
G1 X-4.868 Y7.828 E3.49892
G1 X-5.451 Y7.352 E3.51769
G1 X-5.656 Y7.147 E3.52492
G1 X-6.013 Y6.732 E3.53858
G1 X-6.307 Y6.27 E3.55224
G1 X-6.53 Y5.771 E3.56587
G1 X-6.678 Y5.244 E3.57953
G0 X-6.401 Y5.1
G1 X-6.449 Y4.552 E3.59325
G1 X-6.673 Y4.626 E3.59914
G1 X-7.183 Y4.753 E3.61225
G1 X-7.705 Y4.801 E3.62532
G1 X-8.229 Y4.769 E3.63842
G1 X-8.621 Y4.683 E3.64843
G1 X-9.07 Y4.656 E3.65965
G1 X-9.583 Y4.546 E3.67274
G1 X-10.074 Y4.359 E3.68584
G1 X-10.53 Y4.1 E3.69893
G1 X-10.942 Y3.774 E3.71203
G1 X-11.389 Y3.273 E3.72878
G1 X-11.679 Y2.876 E3.74104
G1 X-11.955 Y2.43 E3.75413
G1 X-12.161 Y1.947 E3.76723
G1 X-12.291 Y1.438 E3.78033
G1 X-12.343 Y0.786 E3.79665
G1 X-12.331 Y0.029 E3.81553
G1 X-12.326 Y-.109 E3.81898
G1 X-12.288 Y-.787 E3.83592
G1 X-12.218 Y-1.307 E3.84901
G1 X-12.071 Y-1.811 E3.8621
G1 X-11.94 Y-2.115 E3.87036
G1 X-11.574 Y-2.86 E3.89106
G1 X-11.307 Y-3.312 E3.90416
G1 X-10.975 Y-3.719 E3.91726
G1 X-10.585 Y-4.07 E3.93035
G1 X-10.146 Y-4.359 E3.94346
G1 X-9.558 Y-4.615 E3.95946
G1 X-9.085 Y-4.771 E3.97188
G1 X-8.575 Y-4.897 E3.98499
G1 X-8.052 Y-4.945 E3.99809
G1 X-7.528 Y-4.912 E4.01119
G1 X-7.015 Y-4.8 E4.02428
G1 X-6.525 Y-4.612 E4.03738
G1 X-6.449 Y-4.569 E4.03955
G1 X-6.415 Y-5.018 E4.05079
G1 X-6.296 Y-5.529 E4.06387
G1 X-6.101 Y-6.017 E4.07698
G1 X-5.834 Y-6.469 E4.09008
G1 X-5.445 Y-6.935 E4.10522
G1 X-5.24 Y-7.14 E4.11245
G1 X-4.841 Y-7.481 E4.12555
G1 X-4.395 Y-7.759 E4.13866
G1 X-3.913 Y-7.966 E4.15174
G1 X-3.405 Y-8.097 E4.16483
G1 X-2.8 Y-8.15 E4.17998
G1 X4.495 Y-8.15 E4.36195
G1 X4.736 Y-8.142 E4.36797
G1 X5.379 Y-8.097 E4.38405
G1 X5.847 Y-8.031 E4.39584
G1 X6.466 Y-7.901 E4.41161
G1 X6.901 Y-7.78 E4.42288
G1 X7.493 Y-7.572 E4.43853
G1 X7.932 Y-7.382 E4.45046
G1 X8.505 Y-7.086 E4.46655
G1 X8.932 Y-6.828 E4.47899
G1 X9.438 Y-6.471 E4.49444
G1 X9.8 Y-6.177 E4.50608
G1 X10.265 Y-5.744 E4.52193
G1 X10.606 Y-5.38 E4.53437
G1 X11.006 Y-4.889 E4.55017
G1 X11.284 Y-4.494 E4.56221
G1 X11.62 Y-3.938 E4.57842
G1 X11.831 Y-3.53 E4.58988
G1 X12.081 Y-2.955 E4.60552
G1 X12.237 Y-2.517 E4.61712
G1 X12.408 Y-1.912 E4.6328
G1 X12.511 Y-1.414 E4.64549
G1 X12.598 Y-.775 E4.66157
G1 X12.63 Y-.31 E4.6732
G1 X12.63 Y0.308 E4.68862
G1 X12.599 Y0.772 E4.70022
G1 X12.496 Y1.519 E4.71903
G1 X12.408 Y1.915 E4.72914
G1 X12.237 Y2.518 E4.74478
G1 X12.081 Y2.955 E4.75635
G1 X11.82 Y3.554 E4.77265
G1 X11.601 Y3.975 E4.78449
G1 X11.274 Y4.51 E4.80013
G1 X11.005 Y4.889 E4.81173
G1 X10.606 Y5.379 E4.82749
G1 X10.266 Y5.743 E4.83991
G1 X9.801 Y6.176 E4.85576
G1 X9.44 Y6.47 E4.86738
G1 X8.93 Y6.83 E4.88295
G1 X8.534 Y7.071 E4.89451
G1 X7.964 Y7.368 E4.91055
G1 X7.493 Y7.572 E4.92335
G1 X6.901 Y7.78 E4.939
G1 X6.466 Y7.901 E4.95027
G1 X5.847 Y8.031 E4.96604
G1 X5.378 Y8.097 E4.97786
G1 X4.734 Y8.142 E4.99396
G1 X4.494 Y8.15 E4.99995
G1 X-2.799 Y8.15 E5.18188
G1 X-3.322 Y8.11 E5.19496
G1 X-3.834 Y7.991 E5.20807
G1 X-4.321 Y7.796 E5.22116
G1 X-4.773 Y7.529 E5.23425
G1 X-5.239 Y7.14 E5.2494
G1 X-5.444 Y6.935 E5.25663
G1 X-5.785 Y6.536 E5.26972
G1 X-6.063 Y6.09 E5.28283
G1 X-6.27 Y5.608 E5.29592
G1 X-6.401 Y5.1 E5.309
G0 X-5.472 Y5.135
G1 X-5.554 Y4.495 E5.3251
G1 X-5.554 Y3.107 E5.35972
G1 X-5.964 Y3.396 E5.37224
G1 X-6.403 Y3.589 E5.3842
G1 X-6.956 Y3.772 E5.39873
G1 X-7.395 Y3.875 E5.40998
G1 X-7.846 Y3.899 E5.42124
G1 X-8.293 Y3.844 E5.43248
G1 X-8.508 Y3.777 E5.4381
G1 X-9.135 Y3.732 E5.45378
G1 X-9.567 Y3.599 E5.46505
G1 X-9.968 Y3.392 E5.47631
G1 X-10.326 Y3.118 E5.48755
G1 X-10.662 Y2.742 E5.50013
G1 X-11.185 Y1.959 E5.52362
G1 X-11.346 Y1.537 E5.53489
G1 X-11.43 Y1.094 E5.54614
G1 X-11.443 Y0.801 E5.55345
G1 X-11.431 Y0.044 E5.57234
G1 X-11.427 Y-0.059 E5.57491
G1 X-11.389 Y-.737 E5.59185
G1 X-11.324 Y-1.183 E5.60309
G1 X-11.132 Y-1.718 E5.61727
G1 X-10.766 Y-2.463 E5.63798
G1 X-10.532 Y-2.849 E5.64924
G1 X-10.233 Y-3.188 E5.66051
G1 X-9.88 Y-3.468 E5.67175
G1 X-9.276 Y-3.761 E5.6885
G1 X-8.363 Y-4.02 E5.71217
G1 X-7.913 Y-4.043 E5.72341
G1 X-7.465 Y-3.987 E5.73467
G1 X-7.034 Y-3.853 E5.74593
G1 X-6.634 Y-3.646 E5.75717
G1 X-6.276 Y-3.37 E5.76844
G1 X-5.943 Y-2.997 E5.78092
G1 X-5.555 Y-2.435 E5.79795
G1 X-5.555 Y-4.495 E5.84934
G1 X-5.515 Y-4.944 E5.86058
G1 X-5.397 Y-5.38 E5.87185
G1 X-5.203 Y-5.787 E5.8831
G1 X-4.808 Y-6.298 E5.89921
G1 X-4.257 Y-6.793 E5.91769
G1 X-3.865 Y-7.017 E5.92895
G1 X-3.44 Y-7.168 E5.9402
G1 X-2.8 Y-7.25 E5.95629
G1 X4.495 Y-7.25 E6.13827
G1 X4.673 Y-7.244 E6.14271
G1 X5.316 Y-7.199 E6.15879
G1 X5.662 Y-7.151 E6.1675
G1 X6.281 Y-7.021 E6.18328
G1 X6.602 Y-6.931 E6.1916
G1 X7.194 Y-6.723 E6.20725
G1 X7.519 Y-6.583 E6.21608
G1 X8.092 Y-6.287 E6.23217
G1 X8.413 Y-6.093 E6.24152
G1 X8.919 Y-5.736 E6.25697
G1 X9.187 Y-5.518 E6.26559
G1 X9.652 Y-5.085 E6.28144
G1 X9.908 Y-4.812 E6.29077
G1 X10.308 Y-4.321 E6.30657
G1 X10.513 Y-4.029 E6.31547
G1 X10.849 Y-3.473 E6.33168
G1 X11.006 Y-3.171 E6.34017
G1 X11.256 Y-2.596 E6.35581
G1 X11.371 Y-2.273 E6.36436
G1 X11.542 Y-1.668 E6.38004
G1 X11.62 Y-1.293 E6.3896
G1 X11.707 Y-.654 E6.40568
G1 X11.73 Y-.31 E6.41429
G1 X11.73 Y0.308 E6.4297
G1 X11.707 Y0.651 E6.43828
G1 X11.607 Y1.377 E6.45656
G1 X11.542 Y1.67 E6.46404
G1 X11.371 Y2.273 E6.47968
G1 X11.256 Y2.596 E6.48823
G1 X10.995 Y3.195 E6.50453
G1 X10.833 Y3.506 E6.51328
G1 X10.506 Y4.041 E6.52892
G1 X10.307 Y4.321 E6.53749
G1 X9.908 Y4.811 E6.55325
G1 X9.653 Y5.084 E6.56257
G1 X9.188 Y5.517 E6.57842
G1 X8.921 Y5.734 E6.587
G1 X8.411 Y6.094 E6.60257
G1 X8.118 Y6.272 E6.61113
G1 X7.548 Y6.569 E6.62716
G1 X7.194 Y6.723 E6.63679
G1 X6.602 Y6.931 E6.65244
G1 X6.281 Y7.021 E6.66076
G1 X5.662 Y7.151 E6.67654
G1 X5.316 Y7.199 E6.68525
G1 X4.672 Y7.244 E6.70135
G1 X4.494 Y7.25 E6.7058
G1 X-2.799 Y7.25 E6.88772
G1 X-3.248 Y7.21 E6.89897
G1 X-3.684 Y7.092 E6.91023
G1 X-4.092 Y6.898 E6.9215
G1 X-4.602 Y6.503 E6.93759
G1 X-5.097 Y5.952 E6.95607
G1 X-5.321 Y5.56 E6.96733
G1 X-5.472 Y5.135 E6.97858
G0 X-5.2 Y4.985
G1 X-5.254 Y4.495 E6.99088
G1 X-5.254 Y2.275 E7.04626
G1 X-5.565 Y2.709 E7.05958
G1 X-5.883 Y2.989 E7.07015
G1 X-6.248 Y3.205 E7.08073
G1 X-6.497 Y3.304 E7.08741
G1 X-7.05 Y3.487 E7.10194
G1 X-7.463 Y3.582 E7.11251
G1 X-7.887 Y3.597 E7.1231
G1 X-8.472 Y3.474 E7.13801
G1 X-8.729 Y3.484 E7.14442
G1 X-9.148 Y3.421 E7.15499
G1 X-9.548 Y3.28 E7.16557
G1 X-9.914 Y3.067 E7.17614
G1 X-10.234 Y2.788 E7.18673
G1 X-10.71 Y2.168 E7.20623
G1 X-10.927 Y1.804 E7.2168
G1 X-11.071 Y1.406 E7.22735
G1 X-11.143 Y0.805 E7.24245
G1 X-11.131 Y0.048 E7.26134
G1 X-11.089 Y-.72 E7.28053
G1 X-11.026 Y-1.139 E7.2911
G1 X-10.862 Y-1.586 E7.30297
G1 X-10.496 Y-2.331 E7.32368
G1 X-10.275 Y-2.692 E7.33424
G1 X-9.989 Y-3.005 E7.34481
G1 X-9.65 Y-3.259 E7.35538
G1 X-9.182 Y-3.476 E7.36825
G1 X-8.296 Y-3.726 E7.39121
G1 X-7.872 Y-3.741 E7.4018
G1 X-7.453 Y-3.677 E7.41237
G1 X-7.054 Y-3.535 E7.42293
G1 X-6.688 Y-3.32 E7.43352
G1 X-6.369 Y-3.041 E7.44409
G1 X-5.896 Y-2.422 E7.46353
G1 X-5.679 Y-2.058 E7.4741
G1 X-5.535 Y-1.659 E7.48468
G1 X-5.459 Y-1.337 E7.49293
G1 X-5.255 Y-1.031 E7.50211
G1 X-5.255 Y-4.495 E7.58852
G1 X-5.215 Y-4.917 E7.59909
G1 X-5.097 Y-5.324 E7.60966
G1 X-4.904 Y-5.701 E7.62023
G1 X-4.391 Y-6.291 E7.63973
G1 X-4.064 Y-6.561 E7.65031
G1 X-3.693 Y-6.765 E7.66087
G1 X-3.29 Y-6.896 E7.67144
G1 X-2.8 Y-6.95 E7.68374
G1 X4.495 Y-6.95 E7.86571
G1 X4.652 Y-6.945 E7.86963
G1 X5.295 Y-6.9 E7.88571
G1 X5.6 Y-6.857 E7.89339
G1 X6.219 Y-6.727 E7.90917
G1 X6.503 Y-6.648 E7.91652
G1 X7.095 Y-6.44 E7.93218
G1 X7.382 Y-6.316 E7.93998
G1 X7.955 Y-6.02 E7.95606
G1 X8.24 Y-5.847 E7.96438
G1 X8.746 Y-5.49 E7.97983
G1 X8.982 Y-5.299 E7.9874
G1 X9.447 Y-4.866 E8.00325
G1 X9.675 Y-4.622 E8.01158
G1 X10.075 Y-4.131 E8.02738
G1 X10.257 Y-3.874 E8.03523
G1 X10.593 Y-3.318 E8.05144
G1 X10.73 Y-3.051 E8.05893
G1 X10.98 Y-2.476 E8.07457
G1 X11.082 Y-2.191 E8.08212
G1 X11.253 Y-1.586 E8.0978
G1 X11.322 Y-1.253 E8.10628
G1 X11.409 Y-.614 E8.12237
G1 X11.43 Y-.31 E8.12997
G1 X11.43 Y0.308 E8.14539
G1 X11.41 Y0.611 E8.15296
G1 X11.311 Y1.329 E8.17104
G1 X11.254 Y1.588 E8.17766
G1 X11.083 Y2.191 E8.19329
G1 X10.981 Y2.476 E8.20084
G1 X10.72 Y3.075 E8.21714
G1 X10.577 Y3.349 E8.22485
G1 X10.25 Y3.884 E8.24049
G1 X10.075 Y4.132 E8.24807
G1 X9.676 Y4.622 E8.26383
G1 X9.448 Y4.865 E8.27214
G1 X8.983 Y5.298 E8.28799
G1 X8.748 Y5.489 E8.29554
G1 X8.238 Y5.849 E8.31112
G1 X7.98 Y6.006 E8.31865
G1 X7.41 Y6.303 E8.33468
G1 X7.095 Y6.44 E8.34325
G1 X6.503 Y6.648 E8.3589
G1 X6.219 Y6.727 E8.36626
G1 X5.6 Y6.857 E8.38204
G1 X5.295 Y6.9 E8.38972
G1 X4.651 Y6.945 E8.40582
G1 X4.494 Y6.95 E8.40974
G1 X-2.799 Y6.95 E8.59167
G1 X-3.221 Y6.91 E8.60224
G1 X-3.628 Y6.792 E8.61281
G1 X-4.005 Y6.599 E8.62338
G1 X-4.595 Y6.086 E8.64288
G1 X-4.865 Y5.759 E8.65346
G1 X-5.069 Y5.388 E8.66402
G1 X-5.2 Y4.985 E8.67459
G0 X-4.923 Y4.839
G1 X-4.954 Y4.495 E8.68321
G1 X-4.955 Y-4.495 E8.90746
G1 X-4.915 Y-4.887 E8.91729
G1 X-4.797 Y-5.264 E8.92715
G1 X-4.606 Y-5.609 E8.93698
G1 X-4.179 Y-6.079 E8.95282
G1 X-3.873 Y-6.328 E8.96266
G1 X-3.524 Y-6.511 E8.97249
G1 X-3.144 Y-6.619 E8.98235
G1 X-2.8 Y-6.65 E8.99096
G1 X4.495 Y-6.65 E9.17294
G1 X4.631 Y-6.645 E9.17633
G1 X5.274 Y-6.6 E9.19241
G1 X5.539 Y-6.563 E9.19909
G1 X6.158 Y-6.433 E9.21486
G1 X6.403 Y-6.365 E9.22121
G1 X6.995 Y-6.157 E9.23686
G1 X7.244 Y-6.049 E9.24363
G1 X7.817 Y-5.753 E9.25972
G1 X8.067 Y-5.602 E9.267
G1 X8.573 Y-5.245 E9.28245
G1 X8.778 Y-5.079 E9.28903
G1 X9.243 Y-4.646 E9.30488
G1 X9.443 Y-4.433 E9.31217
G1 X9.843 Y-3.942 E9.32797
G1 X10 Y-3.719 E9.33477
G1 X10.336 Y-3.163 E9.35098
G1 X10.455 Y-2.932 E9.35746
G1 X10.705 Y-2.357 E9.3731
G1 X10.793 Y-2.109 E9.37966
G1 X10.964 Y-1.504 E9.39535
G1 X11.025 Y-1.212 E9.40279
G1 X11.112 Y-.573 E9.41887
G1 X11.13 Y-.31 E9.42545
G1 X11.13 Y0.308 E9.44087
G1 X11.112 Y0.57 E9.44742
G1 X11.015 Y1.282 E9.46534
G1 X10.965 Y1.506 E9.47107
G1 X10.794 Y2.109 E9.4867
G1 X10.706 Y2.356 E9.49324
G1 X10.445 Y2.955 E9.50954
G1 X10.321 Y3.193 E9.51624
G1 X9.994 Y3.728 E9.53188
G1 X9.842 Y3.942 E9.53843
G1 X9.443 Y4.432 E9.55419
G1 X9.244 Y4.645 E9.56146
G1 X8.779 Y5.078 E9.57731
G1 X8.575 Y5.244 E9.58387
G1 X8.065 Y5.604 E9.59944
G1 X7.841 Y5.74 E9.60598
G1 X7.271 Y6.037 E9.62201
G1 X6.995 Y6.157 E9.62952
