;FLAVOR:Marlin
;TIME:1431
;Filament used: 0.345892m
;Layer height: 0.1
;MINX:-8.191
;MINY:-8.75
;MINZ:0.2
;MAXX:12.24
;MAXY:8.75
;MAXZ:11
;Generated with Cura_SteamEngine 4.13.1
M140 S60
M105
M190 S60
M104 S205
M105
M109 S205
M82 ;absolute extrusion mode
G28 ;Home
G1 Z15.0 F6000 ;Move the platform down 15mm
;Prime the extruder
G92 E0
G1 F200 E3
G92 E0
G92 E0
G92 E0
G1 F2400 E-5
;LAYER_COUNT:109
;LAYER:0
M107
G0 F900 X-8.045 Y4.495 Z0.2
;TYPE:SKIRT
G1 F2400 E0.01123
G1 F900 X-8.046 Y-4.495 E0.23548
G1 X-8.006 Y-5.062 E0.24966
G1 X-7.887 Y-5.618 E0.26384
G1 X-7.691 Y-6.152 E0.27803
G1 X-7.423 Y-6.654 E0.29223
G1 X-7.086 Y-7.113 E0.30643
G1 X-6.655 Y-7.564 E0.322
G1 X-6.225 Y-7.937 E0.33619
G1 X-5.748 Y-8.246 E0.35037
G1 X-5.232 Y-8.485 E0.36456
G1 X-4.687 Y-8.65 E0.37876
G1 X-4.125 Y-8.736 E0.39294
G1 X-3.791 Y-8.75 E0.40128
G1 X3.504 Y-8.75 E0.58326
G1 X3.777 Y-8.741 E0.59007
G1 X4.398 Y-8.699 E0.6056
G1 X4.915 Y-8.63 E0.61861
G1 X5.513 Y-8.511 E0.63382
G1 X6.034 Y-8.371 E0.64728
G1 X6.61 Y-8.174 E0.66246
G1 X7.089 Y-7.975 E0.6754
G1 X7.633 Y-7.707 E0.69053
G1 X8.091 Y-7.443 E0.70371
G1 X8.614 Y-7.094 E0.7194
G1 X9.026 Y-6.779 E0.73234
G1 X9.476 Y-6.387 E0.74722
G1 X9.886 Y-5.977 E0.76169
G1 X10.278 Y-5.527 E0.77657
G1 X10.591 Y-5.118 E0.78942
G1 X10.94 Y-4.596 E0.80508
G1 X11.209 Y-4.129 E0.81853
G1 X11.476 Y-3.585 E0.83365
G1 X11.669 Y-3.119 E0.84623
G1 X11.868 Y-2.541 E0.86148
G1 X12.011 Y-2.016 E0.87505
G1 X12.13 Y-1.42 E0.89021
G1 X12.199 Y-.897 E0.90337
G1 X12.24 Y-.283 E0.91872
G1 X12.24 Y0.282 E0.93281
G1 X12.199 Y0.895 E0.94814
G1 X12.13 Y1.415 E0.96122
G1 X12.011 Y2.013 E0.97643
G1 X11.871 Y2.534 E0.98989
G1 X11.674 Y3.11 E1.00508
G1 X11.475 Y3.589 E1.01802
G1 X11.207 Y4.133 E1.03314
G1 X10.943 Y4.591 E1.04633
G1 X10.594 Y5.114 E1.06201
G1 X10.279 Y5.526 E1.07495
G1 X9.887 Y5.976 E1.08984
G1 X9.477 Y6.386 E1.1043
G1 X9.027 Y6.778 E1.11919
G1 X8.618 Y7.091 E1.13204
G1 X8.096 Y7.44 E1.1477
G1 X7.629 Y7.709 E1.16114
G1 X7.085 Y7.976 E1.17626
G1 X6.619 Y8.169 E1.18884
G1 X6.041 Y8.368 E1.20409
G1 X5.513 Y8.511 E1.21774
G1 X4.915 Y8.63 E1.23295
G1 X4.398 Y8.699 E1.24596
G1 X3.776 Y8.741 E1.26151
G1 X3.503 Y8.75 E1.26832
G1 X-3.79 Y8.75 E1.45025
G1 X-4.357 Y8.71 E1.46443
G1 X-4.914 Y8.591 E1.47863
G1 X-5.448 Y8.395 E1.49282
G1 X-5.949 Y8.126 E1.50701
G1 X-6.408 Y7.79 E1.5212
G1 X-6.859 Y7.359 E1.53676
G1 X-7.232 Y6.929 E1.55096
G1 X-7.541 Y6.452 E1.56514
G1 X-7.78 Y5.936 E1.57932
G1 X-7.945 Y5.391 E1.59353
G1 X-8.031 Y4.829 E1.60771
G1 X-8.045 Y4.495 E1.61605
G0 X-7.745 Y4.495
G1 X-7.746 Y-4.495 E1.8403
G1 X-7.706 Y-5.04 E1.85394
G1 X-7.587 Y-5.575 E1.86761
G1 X-7.392 Y-6.086 E1.88125
G1 X-7.124 Y-6.563 E1.8949
G1 X-6.648 Y-7.147 E1.91369
G1 X-6.443 Y-7.352 E1.92093
G1 X-6.028 Y-7.709 E1.93458
G1 X-5.566 Y-8.003 E1.94824
G1 X-5.067 Y-8.226 E1.96188
G1 X-4.54 Y-8.374 E1.97553
G1 X-3.791 Y-8.45 E1.99431
G1 X3.504 Y-8.45 E2.17628
G1 X3.757 Y-8.441 E2.1826
G1 X4.378 Y-8.399 E2.19813
G1 X4.857 Y-8.336 E2.21018
G1 X5.455 Y-8.217 E2.22539
G1 X5.937 Y-8.087 E2.23784
G1 X6.513 Y-7.89 E2.25303
G1 X6.956 Y-7.706 E2.26499
G1 X7.5 Y-7.438 E2.28012
G1 X7.925 Y-7.193 E2.29236
G1 X8.448 Y-6.844 E2.30804
G1 X8.829 Y-6.553 E2.32
G1 X9.279 Y-6.161 E2.33489
G1 X9.66 Y-5.78 E2.34833
G1 X10.052 Y-5.33 E2.36322
G1 X10.341 Y-4.951 E2.3751
G1 X10.69 Y-4.429 E2.39077
G1 X10.939 Y-3.997 E2.40321
G1 X11.206 Y-3.453 E2.41832
G1 X11.386 Y-3.022 E2.42997
G1 X11.585 Y-2.444 E2.44522
G1 X11.716 Y-1.957 E2.4578
G1 X11.835 Y-1.361 E2.47296
G1 X11.9 Y-.877 E2.48515
G1 X11.941 Y-.263 E2.5005
G1 X11.941 Y0.262 E2.51359
G1 X11.9 Y0.875 E2.52892
G1 X11.836 Y1.357 E2.54105
G1 X11.717 Y1.955 E2.55626
G1 X11.587 Y2.437 E2.56871
G1 X11.39 Y3.013 E2.5839
G1 X11.206 Y3.456 E2.59586
G1 X10.938 Y4 E2.61099
G1 X10.693 Y4.425 E2.62323
G1 X10.344 Y4.948 E2.63891
G1 X10.053 Y5.329 E2.65087
G1 X9.661 Y5.779 E2.66576
G1 X9.28 Y6.16 E2.6792
G1 X8.83 Y6.552 E2.69408
G1 X8.451 Y6.841 E2.70597
G1 X7.929 Y7.19 E2.72164
G1 X7.497 Y7.439 E2.73408
G1 X6.953 Y7.706 E2.74919
G1 X6.522 Y7.886 E2.76084
G1 X5.944 Y8.085 E2.77609
G1 X5.455 Y8.217 E2.78873
G1 X4.857 Y8.336 E2.80394
G1 X4.378 Y8.399 E2.81599
G1 X3.756 Y8.441 E2.83154
G1 X3.503 Y8.45 E2.83785
G1 X-3.79 Y8.45 E3.01978
G1 X-4.336 Y8.41 E3.03344
G1 X-4.87 Y8.291 E3.04708
G1 X-5.381 Y8.096 E3.06073
G1 X-5.859 Y7.828 E3.0744
G1 X-6.442 Y7.352 E3.09317
G1 X-6.647 Y7.147 E3.1004
G1 X-7.004 Y6.732 E3.11406
G1 X-7.298 Y6.27 E3.12772
G1 X-7.521 Y5.771 E3.14135
G1 X-7.669 Y5.244 E3.15501
G1 X-7.745 Y4.495 E3.17379
G0 X-7.445 Y4.495
G1 X-7.446 Y-4.495 E3.39804
G1 X-7.406 Y-5.018 E3.41113
G1 X-7.287 Y-5.529 E3.42422
G1 X-7.092 Y-6.017 E3.43733
G1 X-6.825 Y-6.469 E3.45042
G1 X-6.436 Y-6.935 E3.46556
G1 X-6.231 Y-7.14 E3.47279
G1 X-5.832 Y-7.481 E3.48589
G1 X-5.386 Y-7.759 E3.499
G1 X-4.904 Y-7.966 E3.51208
G1 X-4.396 Y-8.097 E3.52517
G1 X-3.791 Y-8.15 E3.54032
G1 X3.504 Y-8.15 E3.72229
G1 X3.737 Y-8.142 E3.72811
G1 X4.358 Y-8.1 E3.74364
G1 X4.798 Y-8.042 E3.75471
G1 X5.396 Y-7.923 E3.76992
G1 X5.839 Y-7.803 E3.78136
G1 X6.415 Y-7.606 E3.79655
G1 X6.824 Y-7.437 E3.80759
G1 X7.368 Y-7.169 E3.82272
G1 X7.758 Y-6.944 E3.83395
G1 X8.281 Y-6.595 E3.84963
G1 X8.632 Y-6.326 E3.86066
G1 X9.082 Y-5.934 E3.87555
G1 X9.433 Y-5.583 E3.88793
G1 X9.825 Y-5.133 E3.90282
G1 X10.092 Y-4.785 E3.91376
G1 X10.441 Y-4.263 E3.92943
G1 X10.67 Y-3.865 E3.94088
G1 X10.937 Y-3.321 E3.956
G1 X11.102 Y-2.924 E3.96672
G1 X11.301 Y-2.346 E3.98197
G1 X11.422 Y-1.899 E3.99352
G1 X11.541 Y-1.303 E4.00868
G1 X11.6 Y-.857 E4.01991
G1 X11.641 Y-.243 E4.03526
G1 X11.641 Y0.242 E4.04735
G1 X11.6 Y0.855 E4.06268
G1 X11.542 Y1.298 E4.07382
G1 X11.423 Y1.896 E4.08903
G1 X11.303 Y2.339 E4.10048
G1 X11.106 Y2.915 E4.11567
G1 X10.937 Y3.324 E4.12671
G1 X10.669 Y3.868 E4.14184
G1 X10.444 Y4.258 E4.15307
G1 X10.095 Y4.781 E4.16875
G1 X9.826 Y5.132 E4.17978
G1 X9.434 Y5.582 E4.19467
G1 X9.083 Y5.933 E4.20705
G1 X8.633 Y6.325 E4.22194
G1 X8.285 Y6.592 E4.23288
G1 X7.763 Y6.941 E4.24854
G1 X7.365 Y7.17 E4.26
G1 X6.821 Y7.437 E4.27511
G1 X6.424 Y7.602 E4.28584
G1 X5.846 Y7.801 E4.30109
G1 X5.396 Y7.923 E4.31272
G1 X4.798 Y8.042 E4.32793
G1 X4.357 Y8.1 E4.33902
G1 X3.735 Y8.142 E4.35458
G1 X3.503 Y8.15 E4.36037
G1 X-3.79 Y8.15 E4.54229
G1 X-4.313 Y8.11 E4.55537
G1 X-4.825 Y7.991 E4.56849
G1 X-5.312 Y7.796 E4.58157
G1 X-5.764 Y7.529 E4.59467
G1 X-6.23 Y7.14 E4.60981
G1 X-6.435 Y6.935 E4.61704
G1 X-6.776 Y6.536 E4.63014
G1 X-7.054 Y6.09 E4.64325
G1 X-7.261 Y5.608 E4.65633
G1 X-7.392 Y5.1 E4.66942
G1 X-7.445 Y4.495 E4.68457
G0 X-7.145 Y4.495
G1 X-7.146 Y-4.495 E4.90882
G1 X-7.106 Y-4.995 E4.92134
G1 X-6.987 Y-5.482 E4.93384
G1 X-6.793 Y-5.944 E4.94634
G1 X-6.527 Y-6.37 E4.95887
G1 X-6.018 Y-6.927 E4.97769
G1 X-5.637 Y-7.253 E4.9902
G1 X-5.208 Y-7.513 E5.00271
G1 X-4.743 Y-7.703 E5.01524
G1 X-4.255 Y-7.816 E5.02774
G1 X-3.791 Y-7.85 E5.03934
G1 X3.504 Y-7.85 E5.22132
G1 X3.717 Y-7.843 E5.22663
G1 X4.338 Y-7.801 E5.24216
G1 X4.74 Y-7.747 E5.25228
G1 X5.338 Y-7.628 E5.26749
G1 X5.742 Y-7.519 E5.27793
G1 X6.318 Y-7.322 E5.29311
G1 X6.691 Y-7.168 E5.30318
G1 X7.235 Y-6.9 E5.31831
G1 X7.591 Y-6.694 E5.32857
G1 X8.114 Y-6.345 E5.34425
G1 X8.435 Y-6.1 E5.35432
G1 X8.885 Y-5.708 E5.36921
G1 X9.207 Y-5.386 E5.38057
G1 X9.599 Y-4.936 E5.39546
G1 X9.843 Y-4.618 E5.40546
G1 X10.192 Y-4.096 E5.42112
G1 X10.401 Y-3.733 E5.43157
G1 X10.668 Y-3.189 E5.44668
G1 X10.818 Y-2.826 E5.45648
G1 X11.017 Y-2.248 E5.47173
G1 X11.128 Y-1.84 E5.48228
G1 X11.247 Y-1.244 E5.49744
G1 X11.301 Y-.837 E5.50768
G1 X11.342 Y-.223 E5.52303
G1 X11.342 Y0.222 E5.53413
G1 X11.301 Y0.835 E5.54946
G1 X11.247 Y1.24 E5.55965
G1 X11.128 Y1.838 E5.57486
G1 X11.019 Y2.242 E5.5853
G1 X10.822 Y2.818 E5.60048
G1 X10.668 Y3.191 E5.61055
G1 X10.4 Y3.735 E5.62568
G1 X10.194 Y4.091 E5.63594
G1 X9.845 Y4.614 E5.65162
G1 X9.6 Y4.935 E5.66169
G1 X9.208 Y5.385 E5.67658
G1 X8.886 Y5.707 E5.68794
G1 X8.436 Y6.099 E5.70283
G1 X8.118 Y6.343 E5.71283
G1 X7.596 Y6.692 E5.72849
G1 X7.233 Y6.901 E5.73894
G1 X6.689 Y7.168 E5.75406
G1 X6.326 Y7.318 E5.76385
G1 X5.748 Y7.517 E5.7791
G1 X5.338 Y7.628 E5.7897
G1 X4.74 Y7.747 E5.80491
G1 X4.337 Y7.801 E5.81505
G1 X3.715 Y7.843 E5.8306
G1 X3.503 Y7.85 E5.83589
G1 X-3.79 Y7.85 E6.01782
G1 X-4.29 Y7.81 E6.03033
G1 X-4.777 Y7.691 E6.04284
G1 X-5.24 Y7.497 E6.05536
G1 X-5.665 Y7.231 E6.06787
G1 X-6.222 Y6.722 E6.08669
G1 X-6.548 Y6.341 E6.0992
G1 X-6.808 Y5.912 E6.11171
G1 X-6.998 Y5.447 E6.12424
G1 X-7.111 Y4.959 E6.13673
G1 X-7.145 Y4.495 E6.14834
G0 X-6.845 Y4.495
G1 X-6.846 Y-4.495 E6.3726
G1 X-6.806 Y-4.97 E6.38449
G1 X-6.688 Y-5.432 E6.39638
G1 X-6.493 Y-5.868 E6.4083
G1 X-6.229 Y-6.265 E6.42019
G1 X-5.806 Y-6.715 E6.4356
G1 X-5.442 Y-7.023 E6.44749
G1 X-5.031 Y-7.266 E6.4594
G1 X-4.586 Y-7.437 E6.47129
G1 X-4.118 Y-7.531 E6.4832
G1 X-3.791 Y-7.55 E6.49137
G1 X3.504 Y-7.55 E6.67334
G1 X3.696 Y-7.544 E6.67814
G1 X4.317 Y-7.502 E6.69366
G1 X4.681 Y-7.453 E6.70282
G1 X5.279 Y-7.334 E6.71803
G1 X5.645 Y-7.236 E6.72749
G1 X6.221 Y-7.039 E6.74267
G1 X6.558 Y-6.899 E6.75177
G1 X7.102 Y-6.631 E6.7669
G1 X7.425 Y-6.445 E6.7762
G1 X7.948 Y-6.096 E6.79188
G1 X8.238 Y-5.874 E6.80099
G1 X8.688 Y-5.482 E6.81588
G1 X8.981 Y-5.189 E6.82622
G1 X9.373 Y-4.739 E6.84111
G1 X9.593 Y-4.451 E6.85015
G1 X9.942 Y-3.929 E6.86581
G1 X10.131 Y-3.601 E6.87525
G1 X10.398 Y-3.057 E6.89037
G1 X10.535 Y-2.729 E6.89924
G1 X10.734 Y-2.151 E6.91448
G1 X10.834 Y-1.781 E6.92405
G1 X10.953 Y-1.185 E6.93921
G1 X11.002 Y-.817 E6.94847
G1 X11.043 Y-.203 E6.96382
G1 X11.043 Y0.202 E6.97392
G1 X11.002 Y0.815 E6.98925
G1 X10.953 Y1.181 E6.99846
G1 X10.834 Y1.779 E7.01367
G1 X10.736 Y2.145 E7.02312
G1 X10.539 Y2.721 E7.0383
G1 X10.399 Y3.058 E7.04741
G1 X10.131 Y3.602 E7.06253
G1 X9.945 Y3.925 E7.07183
G1 X9.596 Y4.448 E7.08752
G1 X9.374 Y4.738 E7.09663
G1 X8.982 Y5.188 E7.11151
G1 X8.689 Y5.481 E7.12185
G1 X8.239 Y5.873 E7.13674
G1 X7.951 Y6.093 E7.14578
G1 X7.429 Y6.442 E7.16144
G1 X7.101 Y6.631 E7.17088
G1 X6.557 Y6.898 E7.186
G1 X6.229 Y7.035 E7.19487
G1 X5.651 Y7.234 E7.21012
G1 X5.279 Y7.334 E7.21973
G1 X4.681 Y7.453 E7.23494
G1 X4.317 Y7.502 E7.2441
G1 X3.695 Y7.544 E7.25965
G1 X3.503 Y7.55 E7.26444
G1 X-3.79 Y7.55 E7.44637
G1 X-4.265 Y7.51 E7.45826
G1 X-4.727 Y7.391 E7.47016
G1 X-5.163 Y7.197 E7.48206
G1 X-5.561 Y6.933 E7.49397
G1 X-6.01 Y6.51 E7.50936
G1 X-6.318 Y6.146 E7.52126
G1 X-6.561 Y5.735 E7.53317
G1 X-6.732 Y5.29 E7.54506
G1 X-6.826 Y4.822 E7.55697
G1 X-6.845 Y4.495 E7.56514
G0 X-6.545 Y4.495
G1 X-6.546 Y-4.495 E7.78939
G1 X-6.506 Y-4.944 E7.80064
G1 X-6.388 Y-5.38 E7.81191
G1 X-6.194 Y-5.787 E7.82315
G1 X-5.799 Y-6.298 E7.83926
G1 X-5.248 Y-6.793 E7.85774
G1 X-4.856 Y-7.017 E7.869
G1 X-4.431 Y-7.168 E7.88025
G1 X-3.791 Y-7.25 E7.89635
G1 X3.504 Y-7.25 E8.07832
G1 X3.676 Y-7.244 E8.08262
G1 X4.297 Y-7.202 E8.09814
G1 X4.623 Y-7.159 E8.10635
G1 X5.221 Y-7.04 E8.12156
G1 X5.548 Y-6.952 E8.13
G1 X6.124 Y-6.755 E8.14519
G1 X6.426 Y-6.629 E8.15335
G1 X6.97 Y-6.361 E8.16848
G1 X7.258 Y-6.195 E8.17677
G1 X7.781 Y-5.846 E8.19246
G1 X8.041 Y-5.648 E8.20061
G1 X8.491 Y-5.256 E8.21549
G1 X8.755 Y-4.992 E8.22481
G1 X9.147 Y-4.542 E8.2397
G1 X9.344 Y-4.284 E8.24779
G1 X9.693 Y-3.762 E8.26346
G1 X9.862 Y-3.469 E8.27189
G1 X10.129 Y-2.925 E8.28701
G1 X10.251 Y-2.631 E8.29495
G1 X10.45 Y-2.053 E8.3102
G1 X10.54 Y-1.722 E8.31876
G1 X10.659 Y-1.126 E8.33392
G1 X10.702 Y-.797 E8.34219
G1 X10.743 Y-.183 E8.35754
G1 X10.743 Y0.182 E8.36665
G1 X10.702 Y0.795 E8.38197
G1 X10.659 Y1.123 E8.39023
G1 X10.54 Y1.721 E8.40544
G1 X10.452 Y2.048 E8.41388
G1 X10.255 Y2.624 E8.42907
G1 X10.129 Y2.926 E8.43723
G1 X9.861 Y3.47 E8.45236
G1 X9.695 Y3.758 E8.46065
G1 X9.346 Y4.281 E8.47634
G1 X9.148 Y4.541 E8.48449
G1 X8.756 Y4.991 E8.49937
G1 X8.492 Y5.255 E8.50869
G1 X8.042 Y5.647 E8.52358
G1 X7.784 Y5.844 E8.53167
G1 X7.262 Y6.193 E8.54734
G1 X6.969 Y6.362 E8.55577
G1 X6.425 Y6.629 E8.57089
G1 X6.131 Y6.751 E8.57883
G1 X5.553 Y6.95 E8.59408
G1 X5.221 Y7.04 E8.60266
G1 X4.623 Y7.159 E8.61787
G1 X4.297 Y7.202 E8.62607
G1 X3.675 Y7.244 E8.64162
G1 X3.503 Y7.25 E8.64592
G1 X-3.79 Y7.25 E8.82784
G1 X-4.239 Y7.21 E8.83909
G1 X-4.675 Y7.092 E8.85035
G1 X-5.083 Y6.898 E8.86162
G1 X-5.593 Y6.503 E8.87771
G1 X-6.088 Y5.952 E8.89619
G1 X-6.312 Y5.56 E8.90745
G1 X-6.463 Y5.135 E8.9187
G1 X-6.545 Y4.495 E8.9348
G0 X-6.245 Y4.495
G1 X-6.246 Y-4.495 E9.15906
G1 X-6.206 Y-4.917 E9.16963
G1 X-6.088 Y-5.324 E9.1802
G1 X-5.895 Y-5.701 E9.19077
G1 X-5.382 Y-6.291 E9.21027
G1 X-5.055 Y-6.561 E9.22085
G1 X-4.684 Y-6.765 E9.23141
G1 X-4.281 Y-6.896 E9.24198
G1 X-3.791 Y-6.95 E9.25428
G1 X3.504 Y-6.95 E9.43625
G1 X3.656 Y-6.945 E9.44004
G1 X4.277 Y-6.903 E9.45557
G1 X4.564 Y-6.865 E9.46279
G1 X5.162 Y-6.746 E9.478
G1 X5.451 Y-6.668 E9.48547
G1 X6.027 Y-6.471 E9.50066
G1 X6.293 Y-6.36 E9.50784
G1 X6.837 Y-6.092 E9.52297
G1 X7.092 Y-5.946 E9.5303
G1 X7.615 Y-5.597 E9.54599
G1 X7.844 Y-5.422 E9.55318
G1 X8.294 Y-5.03 E9.56806
G1 X8.529 Y-4.795 E9.57635
G1 X8.921 Y-4.345 E9.59124
G1 X9.094 Y-4.118 E9.59836
G1 X9.443 Y-3.596 E9.61402
G1 X9.593 Y-3.336 E9.62151
G1 X9.86 Y-2.792 E9.63663
G1 X9.967 Y-2.533 E9.64362
G1 X10.166 Y-1.955 E9.65887
G1 X10.245 Y-1.664 E9.66639
G1 X10.364 Y-1.068 E9.68155
G1 X10.403 Y-.777 E9.68887
G1 X10.444 Y-.163 E9.70422
G1 X10.444 Y0.162 E9.71233
G1 X10.403 Y0.775 E9.72766
G1 X10.365 Y1.064 E9.73493
G1 X10.246 Y1.662 E9.75014
G1 X10.168 Y1.951 E9.7576
G1 X9.971 Y2.527 E9.77279
G1 X9.86 Y2.793 E9.77998
G1 X9.592 Y3.337 E9.79511
G1 X9.446 Y3.592 E9.80244
G1 X9.097 Y4.115 E9.81812
G1 X8.922 Y4.344 E9.82531
G1 X8.53 Y4.794 E9.8402
G1 X8.295 Y5.029 E9.84849
G1 X7.845 Y5.421 E9.86338
G1 X7.618 Y5.594 E9.8705
G1 X7.096 Y5.943 E9.88616
G1 X6.836 Y6.093 E9.89365
G1 X6.292 Y6.36 E9.90876
G1 X6.033 Y6.467 E9.91575
G1 X5.455 Y6.666 E9.931
G1 X5.162 Y6.746 E9.93858
G1 X4.564 Y6.865 E9.95379
G1 X4.277 Y6.903 E9.96101
G1 X3.655 Y6.945 E9.97656
G1 X3.503 Y6.95 E9.98035
G1 X-3.79 Y6.95 E10.16228
G1 X-4.212 Y6.91 E10.17285
G1 X-4.619 Y6.792 E10.18342
G1 X-4.996 Y6.599 E10.19399
G1 X-5.586 Y6.086 E10.21349
G1 X-5.856 Y5.759 E10.22407
G1 X-6.06 Y5.388 E10.23463
G1 X-6.191 Y4.985 E10.2452
G1 X-6.245 Y4.495 E10.2575
G0 X-5.945 Y4.495
G1 X-5.946 Y-4.495 E10.48176
G1 X-5.906 Y-4.887 E10.49159
G1 X-5.788 Y-5.264 E10.50144
G1 X-5.597 Y-5.609 E10.51128
G1 X-5.17 Y-6.079 E10.52712
G1 X-4.864 Y-6.328 E10.53696
G1 X-4.515 Y-6.511 E10.54679
G1 X-4.135 Y-6.619 E10.55664
G1 X-3.791 Y-6.65 E10.56526
G1 X3.504 Y-6.65 E10.74723
G1 X3.636 Y-6.646 E10.75053
G1 X4.257 Y-6.604 E10.76605
G1 X4.506 Y-6.571 E10.77232
G1 X5.104 Y-6.452 E10.78753
G1 X5.354 Y-6.384 E10.79399
G1 X5.93 Y-6.187 E10.80918
G1 X6.161 Y-6.091 E10.81542
G1 X6.705 Y-5.823 E10.83054
G1 X6.925 Y-5.696 E10.83688
G1 X7.448 Y-5.347 E10.85257
G1 X7.647 Y-5.195 E10.85881
G1 X8.097 Y-4.803 E10.8737
G1 X8.302 Y-4.598 E10.88093
G1 X8.694 Y-4.148 E10.89582
G1 X8.845 Y-3.951 E10.90201
G1 X9.194 Y-3.429 E10.91767
G1 X9.324 Y-3.204 E10.92416
G1 X9.591 Y-2.66 E10.93927
G1 X9.684 Y-2.436 E10.94532
G1 X9.883 Y-1.858 E10.96057
G1 X9.951 Y-1.605 E10.96711
G1 X10.07 Y-1.009 E10.98227
G1 X10.104 Y-.757 E10.98861
G1 X10.145 Y-.143 E11.00396
G1 X10.145 Y0.142 E11.01107
G1 X10.104 Y0.755 E11.0264
G1 X10.071 Y1.006 E11.03271
G1 X9.952 Y1.604 E11.04792
G1 X9.884 Y1.854 E11.05438
G1 X9.687 Y2.43 E11.06957
G1 X9.591 Y2.661 E11.07581
G1 X9.323 Y3.205 E11.09094
G1 X9.196 Y3.425 E11.09727
G1 X8.847 Y3.948 E11.11296
G1 X8.695 Y4.147 E11.1192
G1 X8.303 Y4.597 E11.13409
G1 X8.098 Y4.802 E11.14132
G1 X7.648 Y5.194 E11.15621
G1 X7.451 Y5.345 E11.1624
G1 X6.929 Y5.694 E11.17807
G1 X6.704 Y5.824 E11.18455
G1 X6.16 Y6.091 E11.19966
G1 X5.936 Y6.184 E11.20571
G1 X5.358 Y6.383 E11.22096
G1 X5.104 Y6.452 E11.22753
G1 X4.506 Y6.571 E11.24274
G1 X4.256 Y6.604 E11.24903
G1 X3.634 Y6.646 E11.26458
G1 X3.503 Y6.65 E11.26785
G1 X-3.79 Y6.65 E11.44977
G1 X-4.182 Y6.61 E11.4596
G1 X-4.559 Y6.492 E11.46946
G1 X-4.904 Y6.301 E11.47929
G1 X-5.374 Y5.874 E11.49513
G1 X-5.623 Y5.568 E11.50498
G1 X-5.806 Y5.219 E11.51481
G1 X-5.914 Y4.839 E11.52466
G1 X-5.945 Y4.495 E11.53328
G0 X-5.645 Y4.495
G1 X-5.646 Y-4.495 E11.75753
G1 X-5.606 Y-4.855 E11.76657
