;FLAVOR:Marlin
;TIME:1331
;Filament used: 0.314336m
;Layer height: 0.1
;MINX:-8.191
;MINY:-8.75
;MINZ:0.2
;MAXX:12.24
;MAXY:8.75
;MAXZ:11
;Generated with Cura_SteamEngine 4.13.1
M140 S60
M105
M190 S60
M104 S205
M105
M109 S205
M82 ;absolute extrusion mode
G28 ;Home
G1 Z15.0 F6000 ;Move the platform down 15mm
;Prime the extruder
G92 E0
G1 F200 E3
G92 E0
G92 E0
G92 E0
G1 F2400 E-5
;LAYER_COUNT:109
;LAYER:0
M107
G0 F900 X-8.045 Y4.495 Z0.2
;TYPE:SKIRT
G1 F2400 E0.01123
G1 F900 X-8.046 Y-4.495 E0.23548
G1 X-8.006 Y-5.062 E0.24966
G1 X-7.887 Y-5.618 E0.26384
G1 X-7.691 Y-6.152 E0.27803
G1 X-7.423 Y-6.654 E0.29223
G1 X-7.086 Y-7.113 E0.30643
G1 X-6.655 Y-7.564 E0.322
G1 X-6.225 Y-7.937 E0.33619
G1 X-5.748 Y-8.246 E0.35037
G1 X-5.232 Y-8.485 E0.36456
G1 X-4.687 Y-8.65 E0.37876
G1 X-4.125 Y-8.736 E0.39294
G1 X-3.791 Y-8.75 E0.40128
G1 X3.504 Y-8.75 E0.58326
G1 X3.777 Y-8.741 E0.59007
G1 X4.398 Y-8.699 E0.6056
G1 X4.915 Y-8.63 E0.61861
G1 X5.513 Y-8.511 E0.63382
G1 X6.034 Y-8.371 E0.64728
G1 X6.61 Y-8.174 E0.66246
G1 X7.089 Y-7.975 E0.6754
G1 X7.633 Y-7.707 E0.69053
G1 X8.091 Y-7.443 E0.70371
G1 X8.614 Y-7.094 E0.7194
G1 X9.028 Y-6.777 E0.73241
G1 X9.482 Y-6.381 E0.74743
G1 X9.873 Y-5.99 E0.76123
G1 X10.273 Y-5.531 E0.77641
G1 X10.604 Y-5.099 E0.78999
G1 X10.942 Y-4.592 E0.80519
G1 X11.205 Y-4.135 E0.81834
G1 X11.473 Y-3.591 E0.83347
G1 X11.669 Y-3.119 E0.84622
G1 X11.868 Y-2.541 E0.86147
G1 X12.011 Y-2.016 E0.87504
G1 X12.13 Y-1.42 E0.8902
G1 X12.199 Y-.897 E0.90336
G1 X12.24 Y-.283 E0.91871
G1 X12.24 Y0.282 E0.93281
G1 X12.199 Y0.895 E0.94813
G1 X12.13 Y1.415 E0.96122
G1 X12.011 Y2.013 E0.97643
G1 X11.871 Y2.534 E0.98988
G1 X11.674 Y3.11 E1.00507
G1 X11.475 Y3.589 E1.01801
G1 X11.207 Y4.133 E1.03314
G1 X10.943 Y4.591 E1.04632
G1 X10.594 Y5.114 E1.06201
G1 X10.279 Y5.526 E1.07494
G1 X9.887 Y5.976 E1.08983
G1 X9.477 Y6.386 E1.1043
G1 X9.027 Y6.778 E1.11918
G1 X8.618 Y7.091 E1.13203
G1 X8.096 Y7.44 E1.14769
G1 X7.629 Y7.709 E1.16114
G1 X7.085 Y7.976 E1.17625
G1 X6.619 Y8.169 E1.18884
G1 X6.041 Y8.368 E1.20408
G1 X5.513 Y8.511 E1.21773
G1 X4.915 Y8.63 E1.23294
G1 X4.398 Y8.699 E1.24595
G1 X3.776 Y8.741 E1.2615
G1 X3.503 Y8.75 E1.26832
G1 X-3.79 Y8.75 E1.45024
G1 X-4.357 Y8.71 E1.46442
G1 X-4.914 Y8.591 E1.47863
G1 X-5.448 Y8.395 E1.49282
G1 X-5.949 Y8.126 E1.507
G1 X-6.408 Y7.79 E1.52119
G1 X-6.859 Y7.359 E1.53675
G1 X-7.232 Y6.929 E1.55095
G1 X-7.541 Y6.452 E1.56513
G1 X-7.78 Y5.936 E1.57932
G1 X-7.945 Y5.391 E1.59352
G1 X-8.031 Y4.829 E1.6077
G1 X-8.045 Y4.495 E1.61604
G0 X-7.745 Y4.495
G1 X-7.746 Y-4.495 E1.8403
G1 X-7.706 Y-5.04 E1.85393
G1 X-7.587 Y-5.575 E1.8676
G1 X-7.392 Y-6.086 E1.88124
G1 X-7.124 Y-6.563 E1.89489
G1 X-6.648 Y-7.147 E1.91369
G1 X-6.443 Y-7.352 E1.92092
G1 X-6.028 Y-7.709 E1.93457
G1 X-5.566 Y-8.003 E1.94823
G1 X-5.067 Y-8.226 E1.96187
G1 X-4.54 Y-8.374 E1.97552
G1 X-3.791 Y-8.45 E1.9943
G1 X3.504 Y-8.45 E2.17628
G1 X3.757 Y-8.441 E2.18259
G1 X4.378 Y-8.399 E2.19812
G1 X4.857 Y-8.336 E2.21017
G1 X5.455 Y-8.217 E2.22538
G1 X5.937 Y-8.087 E2.23783
G1 X6.513 Y-7.89 E2.25302
G1 X6.956 Y-7.706 E2.26499
G1 X7.5 Y-7.438 E2.28011
G1 X7.925 Y-7.193 E2.29235
G1 X8.448 Y-6.844 E2.30803
G1 X8.831 Y-6.551 E2.32006
G1 X9.285 Y-6.155 E2.33509
G1 X9.647 Y-5.793 E2.34786
G1 X10.047 Y-5.334 E2.36305
G1 X10.354 Y-4.932 E2.37567
G1 X10.692 Y-4.425 E2.39087
G1 X10.936 Y-4.002 E2.40305
G1 X11.204 Y-3.458 E2.41818
G1 X11.386 Y-3.022 E2.42996
G1 X11.585 Y-2.444 E2.44521
G1 X11.716 Y-1.957 E2.45779
G1 X11.835 Y-1.361 E2.47295
G1 X11.9 Y-.877 E2.48513
G1 X11.941 Y-.263 E2.50048
G1 X11.941 Y0.262 E2.51358
G1 X11.9 Y0.875 E2.5289
G1 X11.836 Y1.357 E2.54103
G1 X11.717 Y1.955 E2.55624
G1 X11.587 Y2.437 E2.5687
G1 X11.39 Y3.013 E2.58388
G1 X11.206 Y3.456 E2.59585
G1 X10.938 Y4 E2.61098
G1 X10.693 Y4.425 E2.62321
G1 X10.344 Y4.948 E2.6389
G1 X10.053 Y5.329 E2.65086
G1 X9.661 Y5.779 E2.66574
G1 X9.28 Y6.16 E2.67918
G1 X8.83 Y6.552 E2.69407
G1 X8.451 Y6.841 E2.70596
G1 X7.929 Y7.19 E2.72162
G1 X7.497 Y7.439 E2.73406
G1 X6.953 Y7.706 E2.74918
G1 X6.522 Y7.886 E2.76083
G1 X5.944 Y8.085 E2.77608
G1 X5.455 Y8.217 E2.78871
G1 X4.857 Y8.336 E2.80392
G1 X4.378 Y8.399 E2.81597
G1 X3.756 Y8.441 E2.83153
G1 X3.503 Y8.45 E2.83784
G1 X-3.79 Y8.45 E3.01977
G1 X-4.336 Y8.41 E3.03342
G1 X-4.87 Y8.291 E3.04707
G1 X-5.381 Y8.096 E3.06071
G1 X-5.859 Y7.828 E3.07438
G1 X-6.442 Y7.352 E3.09316
G1 X-6.647 Y7.147 E3.10039
G1 X-7.004 Y6.732 E3.11405
G1 X-7.298 Y6.27 E3.12771
G1 X-7.521 Y5.771 E3.14134
G1 X-7.669 Y5.244 E3.15499
G1 X-7.745 Y4.495 E3.17377
G0 X-7.445 Y4.495
G1 X-7.446 Y-4.495 E3.39803
G1 X-7.406 Y-5.018 E3.41112
G1 X-7.287 Y-5.529 E3.4242
G1 X-7.092 Y-6.017 E3.43731
G1 X-6.825 Y-6.469 E3.45041
G1 X-6.436 Y-6.935 E3.46555
G1 X-6.231 Y-7.14 E3.47278
G1 X-5.832 Y-7.481 E3.48587
G1 X-5.386 Y-7.759 E3.49898
G1 X-4.904 Y-7.966 E3.51207
G1 X-4.396 Y-8.097 E3.52516
G1 X-3.791 Y-8.15 E3.54031
G1 X3.504 Y-8.15 E3.72228
G1 X3.737 Y-8.142 E3.7281
G1 X4.358 Y-8.1 E3.74362
G1 X4.798 Y-8.042 E3.75469
G1 X5.396 Y-7.923 E3.7699
G1 X5.839 Y-7.803 E3.78135
G1 X6.415 Y-7.606 E3.79654
G1 X6.824 Y-7.437 E3.80758
G1 X7.368 Y-7.169 E3.8227
G1 X7.758 Y-6.944 E3.83394
G1 X8.281 Y-6.595 E3.84962
G1 X8.634 Y-6.325 E3.86071
G1 X9.088 Y-5.929 E3.87573
G1 X9.421 Y-5.596 E3.88748
G1 X9.821 Y-5.137 E3.90267
G1 X10.105 Y-4.766 E3.91432
G1 X10.443 Y-4.259 E3.92952
G1 X10.667 Y-3.87 E3.94072
G1 X10.935 Y-3.326 E3.95585
G1 X11.102 Y-2.924 E3.96671
G1 X11.301 Y-2.346 E3.98196
G1 X11.422 Y-1.899 E3.99351
G1 X11.541 Y-1.303 E4.00867
G1 X11.6 Y-.857 E4.01989
G1 X11.641 Y-.243 E4.03524
G1 X11.641 Y0.242 E4.04734
G1 X11.6 Y0.855 E4.06267
G1 X11.542 Y1.298 E4.07381
G1 X11.423 Y1.896 E4.08902
G1 X11.303 Y2.339 E4.10047
G1 X11.106 Y2.915 E4.11565
G1 X10.937 Y3.324 E4.12669
G1 X10.669 Y3.868 E4.14182
G1 X10.444 Y4.258 E4.15305
G1 X10.095 Y4.781 E4.16874
G1 X9.826 Y5.132 E4.17977
G1 X9.434 Y5.582 E4.19466
G1 X9.083 Y5.933 E4.20704
G1 X8.633 Y6.325 E4.22193
G1 X8.285 Y6.592 E4.23287
G1 X7.763 Y6.941 E4.24853
G1 X7.365 Y7.17 E4.25998
G1 X6.821 Y7.437 E4.2751
G1 X6.424 Y7.602 E4.28583
G1 X5.846 Y7.801 E4.30107
G1 X5.396 Y7.923 E4.31271
G1 X4.798 Y8.042 E4.32791
G1 X4.357 Y8.1 E4.33901
G1 X3.735 Y8.142 E4.35456
G1 X3.503 Y8.15 E4.36035
G1 X-3.79 Y8.15 E4.54228
G1 X-4.313 Y8.11 E4.55536
G1 X-4.825 Y7.991 E4.56847
G1 X-5.312 Y7.796 E4.58156
G1 X-5.764 Y7.529 E4.59465
G1 X-6.23 Y7.14 E4.6098
G1 X-6.435 Y6.935 E4.61703
G1 X-6.776 Y6.536 E4.63012
G1 X-7.054 Y6.09 E4.64323
G1 X-7.261 Y5.608 E4.65632
G1 X-7.392 Y5.1 E4.6694
G1 X-7.445 Y4.495 E4.68455
G0 X-7.145 Y4.495
G1 X-7.146 Y-4.495 E4.90881
G1 X-7.106 Y-4.995 E4.92132
G1 X-6.987 Y-5.482 E4.93383
G1 X-6.793 Y-5.944 E4.94633
G1 X-6.527 Y-6.37 E4.95886
G1 X-6.018 Y-6.927 E4.97768
G1 X-5.637 Y-7.253 E4.99019
G1 X-5.208 Y-7.513 E5.0027
G1 X-4.743 Y-7.703 E5.01523
G1 X-4.255 Y-7.816 E5.02773
G1 X-3.791 Y-7.85 E5.03933
G1 X3.504 Y-7.85 E5.22131
G1 X3.717 Y-7.843 E5.22662
G1 X4.338 Y-7.801 E5.24215
G1 X4.74 Y-7.747 E5.25227
G1 X5.338 Y-7.628 E5.26748
G1 X5.742 Y-7.519 E5.27791
G1 X6.318 Y-7.322 E5.2931
G1 X6.691 Y-7.168 E5.30317
G1 X7.235 Y-6.9 E5.31829
G1 X7.591 Y-6.694 E5.32855
G1 X8.114 Y-6.345 E5.34424
G1 X8.437 Y-6.099 E5.35437
G1 X8.891 Y-5.703 E5.36939
G1 X9.195 Y-5.399 E5.38012
G1 X9.595 Y-4.94 E5.3953
G1 X9.855 Y-4.599 E5.406
G1 X10.193 Y-4.092 E5.4212
G1 X10.398 Y-3.737 E5.43143
G1 X10.666 Y-3.193 E5.44656
G1 X10.818 Y-2.826 E5.45646
G1 X11.017 Y-2.248 E5.47171
G1 X11.128 Y-1.84 E5.48226
G1 X11.247 Y-1.244 E5.49742
G1 X11.301 Y-.837 E5.50766
G1 X11.342 Y-.223 E5.52301
G1 X11.342 Y0.222 E5.53411
G1 X11.301 Y0.835 E5.54944
G1 X11.247 Y1.24 E5.55963
G1 X11.128 Y1.838 E5.57484
G1 X11.019 Y2.242 E5.58528
G1 X10.822 Y2.818 E5.60046
G1 X10.668 Y3.191 E5.61053
G1 X10.4 Y3.735 E5.62566
G1 X10.194 Y4.091 E5.63592
G1 X9.845 Y4.614 E5.6516
G1 X9.6 Y4.935 E5.66168
G1 X9.208 Y5.385 E5.67656
G1 X8.886 Y5.707 E5.68792
G1 X8.436 Y6.099 E5.70281
G1 X8.118 Y6.343 E5.71281
G1 X7.596 Y6.692 E5.72847
G1 X7.233 Y6.901 E5.73892
G1 X6.689 Y7.168 E5.75404
G1 X6.326 Y7.318 E5.76384
G1 X5.748 Y7.517 E5.77908
G1 X5.338 Y7.628 E5.78968
G1 X4.74 Y7.747 E5.80489
G1 X4.337 Y7.801 E5.81503
G1 X3.715 Y7.843 E5.83058
G1 X3.503 Y7.85 E5.83587
G1 X-3.79 Y7.85 E6.0178
G1 X-4.29 Y7.81 E6.03031
G1 X-4.777 Y7.691 E6.04282
G1 X-5.24 Y7.497 E6.05534
G1 X-5.665 Y7.231 E6.06785
G1 X-6.222 Y6.722 E6.08667
G1 X-6.548 Y6.341 E6.09918
G1 X-6.808 Y5.912 E6.11169
G1 X-6.998 Y5.447 E6.12422
G1 X-7.111 Y4.959 E6.13672
G1 X-7.145 Y4.495 E6.14832
G0 X-6.845 Y4.495
G1 X-6.846 Y-4.495 E6.37258
G1 X-6.806 Y-4.97 E6.38447
G1 X-6.688 Y-5.432 E6.39636
G1 X-6.493 Y-5.868 E6.40828
G1 X-6.229 Y-6.265 E6.42017
G1 X-5.806 Y-6.715 E6.43558
G1 X-5.442 Y-7.023 E6.44747
G1 X-5.031 Y-7.266 E6.45938
G1 X-4.586 Y-7.437 E6.47127
G1 X-4.118 Y-7.531 E6.48318
G1 X-3.791 Y-7.55 E6.49135
G1 X3.504 Y-7.55 E6.67333
G1 X3.696 Y-7.544 E6.67812
G1 X4.317 Y-7.502 E6.69364
G1 X4.681 Y-7.453 E6.70281
G1 X5.279 Y-7.334 E6.71802
G1 X5.645 Y-7.236 E6.72747
G1 X6.221 Y-7.039 E6.74265
G1 X6.558 Y-6.899 E6.75176
G1 X7.102 Y-6.631 E6.76688
G1 X7.425 Y-6.445 E6.77618
G1 X7.948 Y-6.096 E6.79187
G1 X8.239 Y-5.873 E6.80101
G1 X8.693 Y-5.477 E6.81604
G1 X8.969 Y-5.201 E6.82578
G1 X9.369 Y-4.742 E6.84096
G1 X9.605 Y-4.433 E6.85066
G1 X9.943 Y-3.926 E6.86586
G1 X10.129 Y-3.604 E6.87514
G1 X10.397 Y-3.06 E6.89027
G1 X10.535 Y-2.729 E6.89921
G1 X10.734 Y-2.151 E6.91446
G1 X10.834 Y-1.781 E6.92402
G1 X10.953 Y-1.185 E6.93918
G1 X11.002 Y-.817 E6.94844
G1 X11.043 Y-.203 E6.96379
G1 X11.043 Y0.202 E6.9739
G1 X11.002 Y0.815 E6.98922
G1 X10.953 Y1.181 E6.99843
G1 X10.834 Y1.779 E7.01364
G1 X10.736 Y2.145 E7.02309
G1 X10.539 Y2.721 E7.03828
G1 X10.399 Y3.058 E7.04738
G1 X10.131 Y3.602 E7.06251
G1 X9.945 Y3.925 E7.07181
G1 X9.596 Y4.448 E7.08749
G1 X9.374 Y4.738 E7.0966
G1 X8.982 Y5.188 E7.11149
G1 X8.689 Y5.481 E7.12183
G1 X8.239 Y5.873 E7.13671
G1 X7.951 Y6.093 E7.14575
G1 X7.429 Y6.442 E7.16142
G1 X7.101 Y6.631 E7.17086
G1 X6.557 Y6.898 E7.18598
G1 X6.229 Y7.035 E7.19484
G1 X5.651 Y7.234 E7.21009
G1 X5.279 Y7.334 E7.2197
G1 X4.681 Y7.453 E7.23491
G1 X4.317 Y7.502 E7.24407
G1 X3.695 Y7.544 E7.25962
G1 X3.503 Y7.55 E7.26442
G1 X-3.79 Y7.55 E7.44634
G1 X-4.265 Y7.51 E7.45823
G1 X-4.727 Y7.391 E7.47013
G1 X-5.163 Y7.197 E7.48204
G1 X-5.561 Y6.933 E7.49395
G1 X-6.01 Y6.51 E7.50934
G1 X-6.318 Y6.146 E7.52123
G1 X-6.561 Y5.735 E7.53314
G1 X-6.732 Y5.29 E7.54503
G1 X-6.826 Y4.822 E7.55694
G1 X-6.845 Y4.495 E7.56511
G0 X-6.545 Y4.495
G1 X-6.546 Y-4.495 E7.78937
G1 X-6.506 Y-4.944 E7.80061
G1 X-6.388 Y-5.38 E7.81188
G1 X-6.194 Y-5.787 E7.82313
G1 X-5.799 Y-6.298 E7.83924
G1 X-5.248 Y-6.793 E7.85772
G1 X-4.856 Y-7.017 E7.86898
G1 X-4.431 Y-7.168 E7.88023
G1 X-3.791 Y-7.25 E7.89633
G1 X3.504 Y-7.25 E8.0783
G1 X3.676 Y-7.244 E8.08259
G1 X4.297 Y-7.202 E8.09812
G1 X4.623 Y-7.159 E8.10632
G1 X5.221 Y-7.04 E8.12153
G1 X5.548 Y-6.952 E8.12998
G1 X6.124 Y-6.755 E8.14516
G1 X6.426 Y-6.629 E8.15333
G1 X6.97 Y-6.361 E8.16845
G1 X7.258 Y-6.195 E8.17675
G1 X7.781 Y-5.846 E8.19243
G1 X8.042 Y-5.647 E8.20062
G1 X8.496 Y-5.251 E8.21565
G1 X8.742 Y-5.004 E8.22434
G1 X9.142 Y-4.545 E8.23953
G1 X9.356 Y-4.266 E8.2483
G1 X9.694 Y-3.759 E8.2635
G1 X9.859 Y-3.472 E8.27176
G1 X10.127 Y-2.928 E8.28689
G1 X10.251 Y-2.631 E8.29491
G1 X10.45 Y-2.053 E8.31016
G1 X10.54 Y-1.722 E8.31872
G1 X10.659 Y-1.126 E8.33388
G1 X10.702 Y-.797 E8.34216
G1 X10.743 Y-.183 E8.35751
G1 X10.743 Y0.182 E8.36661
G1 X10.702 Y0.795 E8.38194
G1 X10.659 Y1.123 E8.39019
G1 X10.54 Y1.721 E8.4054
G1 X10.452 Y2.048 E8.41385
G1 X10.255 Y2.624 E8.42903
G1 X10.129 Y2.926 E8.4372
G1 X9.861 Y3.47 E8.45232
G1 X9.695 Y3.758 E8.46062
G1 X9.346 Y4.281 E8.4763
G1 X9.148 Y4.541 E8.48445
G1 X8.756 Y4.991 E8.49934
G1 X8.492 Y5.255 E8.50865
G1 X8.042 Y5.647 E8.52354
G1 X7.784 Y5.844 E8.53164
G1 X7.262 Y6.193 E8.5473
G1 X6.969 Y6.362 E8.55574
G1 X6.425 Y6.629 E8.57085
G1 X6.131 Y6.751 E8.57879
G1 X5.553 Y6.95 E8.59404
G1 X5.221 Y7.04 E8.60262
G1 X4.623 Y7.159 E8.61783
G1 X4.297 Y7.202 E8.62604
G1 X3.675 Y7.244 E8.64159
G1 X3.503 Y7.25 E8.64588
G1 X-3.79 Y7.25 E8.82781
G1 X-4.239 Y7.21 E8.83905
G1 X-4.675 Y7.092 E8.85032
G1 X-5.083 Y6.898 E8.86159
G1 X-5.593 Y6.503 E8.87768
G1 X-6.088 Y5.952 E8.89616
G1 X-6.312 Y5.56 E8.90742
G1 X-6.463 Y5.135 E8.91867
G1 X-6.545 Y4.495 E8.93476
G0 X-6.245 Y4.495
G1 X-6.246 Y-4.495 E9.15902
G1 X-6.206 Y-4.917 E9.16959
G1 X-6.088 Y-5.324 E9.18017
G1 X-5.895 Y-5.701 E9.19073
G1 X-5.382 Y-6.291 E9.21023
G1 X-5.055 Y-6.561 E9.22081
G1 X-4.684 Y-6.765 E9.23137
G1 X-4.281 Y-6.896 E9.24194
G1 X-3.791 Y-6.95 E9.25424
G1 X3.504 Y-6.95 E9.43622
G1 X3.656 Y-6.945 E9.44001
G1 X4.277 Y-6.903 E9.45554
G1 X4.564 Y-6.865 E9.46276
G1 X5.162 Y-6.746 E9.47797
G1 X5.451 Y-6.668 E9.48543
G1 X6.027 Y-6.471 E9.50062
G1 X6.293 Y-6.36 E9.50781
G1 X6.837 Y-6.092 E9.52294
G1 X7.092 Y-5.946 E9.53027
G1 X7.615 Y-5.597 E9.54595
G1 X7.845 Y-5.421 E9.55318
G1 X8.299 Y-5.025 E9.5682
G1 X8.516 Y-4.807 E9.57588
G1 X8.916 Y-4.348 E9.59106
G1 X9.106 Y-4.1 E9.59886
G1 X9.444 Y-3.593 E9.61406
G1 X9.59 Y-3.339 E9.62137
G1 X9.858 Y-2.795 E9.63649
G1 X9.967 Y-2.533 E9.64357
G1 X10.166 Y-1.955 E9.65882
G1 X10.245 Y-1.664 E9.66634
G1 X10.364 Y-1.068 E9.6815
G1 X10.403 Y-.777 E9.68883
G1 X10.444 Y-.163 E9.70418
G1 X10.444 Y0.162 E9.71228
G1 X10.403 Y0.775 E9.72761
G1 X10.365 Y1.064 E9.73488
G1 X10.246 Y1.662 E9.75009
G1 X10.168 Y1.951 E9.75756
G1 X9.971 Y2.527 E9.77274
G1 X9.86 Y2.793 E9.77993
G1 X9.592 Y3.337 E9.79506
G1 X9.446 Y3.592 E9.80239
G1 X9.097 Y4.115 E9.81807
G1 X8.922 Y4.344 E9.82526
G1 X8.53 Y4.794 E9.84015
G1 X8.295 Y5.029 E9.84844
G1 X7.845 Y5.421 E9.86333
G1 X7.618 Y5.594 E9.87045
G1 X7.096 Y5.943 E9.88611
G1 X6.836 Y6.093 E9.8936
G1 X6.292 Y6.36 E9.90872
G1 X6.033 Y6.467 E9.91571
G1 X5.455 Y6.666 E9.93096
G1 X5.162 Y6.746 E9.93853
G1 X4.564 Y6.865 E9.95374
G1 X4.277 Y6.903 E9.96096
G1 X3.655 Y6.945 E9.97651
G1 X3.503 Y6.95 E9.98031
G1 X-3.79 Y6.95 E10.16223
G1 X-4.212 Y6.91 E10.17281
G1 X-4.619 Y6.792 E10.18338
G1 X-4.996 Y6.599 E10.19394
G1 X-5.586 Y6.086 E10.21345
G1 X-5.856 Y5.759 E10.22402
G1 X-6.06 Y5.388 E10.23459
G1 X-6.191 Y4.985 E10.24516
G1 X-6.245 Y4.495 E10.25745
G0 X-5.945 Y4.495
G1 X-5.946 Y-4.495 E10.48171
G1 X-5.906 Y-4.887 E10.49154
G1 X-5.788 Y-5.264 E10.50139
G1 X-5.597 Y-5.609 E10.51123
G1 X-5.17 Y-6.079 E10.52707
G1 X-4.864 Y-6.328 E10.53691
G1 X-4.515 Y-6.511 E10.54674
G1 X-4.135 Y-6.619 E10.5566
G1 X-3.791 Y-6.65 E10.56521
G1 X3.504 Y-6.65 E10.74719
G1 X3.636 Y-6.646 E10.75048
G1 X4.257 Y-6.604 E10.76601
G1 X4.506 Y-6.571 E10.77227
G1 X5.104 Y-6.452 E10.78748
G1 X5.354 Y-6.384 E10.79394
G1 X5.93 Y-6.187 E10.80913
G1 X6.161 Y-6.091 E10.81537
G1 X6.705 Y-5.823 E10.8305
G1 X6.925 Y-5.696 E10.83683
G1 X7.448 Y-5.347 E10.85252
G1 X7.648 Y-5.195 E10.85879
G1 X8.102 Y-4.799 E10.87381
G1 X8.29 Y-4.61 E10.88046
G1 X8.69 Y-4.151 E10.89565
G1 X8.856 Y-3.934 E10.90247
G1 X9.194 Y-3.427 E10.91767
G1 X9.321 Y-3.207 E10.924
G1 X9.589 Y-2.663 E10.93913
G1 X9.684 Y-2.436 E10.94527
G1 X9.883 Y-1.858 E10.96052
G1 X9.951 Y-1.605 E10.96705
G1 X10.07 Y-1.009 E10.98221
G1 X10.104 Y-.757 E10.98856
G1 X10.145 Y-.143 E11.00391
G1 X10.145 Y0.142 E11.01102
G1 X10.104 Y0.755 E11.02634
G1 X10.071 Y1.006 E11.03266
G1 X9.952 Y1.604 E11.04787
G1 X9.884 Y1.854 E11.05433
G1 X9.687 Y2.43 E11.06951
G1 X9.591 Y2.661 E11.07575
G1 X9.323 Y3.205 E11.09088
G1 X9.196 Y3.425 E11.09722
G1 X8.847 Y3.948 E11.1129
G1 X8.695 Y4.147 E11.11915
G1 X8.303 Y4.597 E11.13404
G1 X8.098 Y4.802 E11.14127
G1 X7.648 Y5.194 E11.15616
G1 X7.451 Y5.345 E11.16235
G1 X6.929 Y5.694 E11.17801
G1 X6.704 Y5.824 E11.18449
G1 X6.16 Y6.091 E11.19961
G1 X5.936 Y6.184 E11.20566
G1 X5.358 Y6.383 E11.22091
G1 X5.104 Y6.452 E11.22747
G1 X4.506 Y6.571 E11.24268
G1 X4.256 Y6.604 E11.24897
G1 X3.634 Y6.646 E11.26453
G1 X3.503 Y6.65 E11.26779
G1 X-3.79 Y6.65 E11.44972
G1 X-4.182 Y6.61 E11.45955
G1 X-4.559 Y6.492 E11.4694
G1 X-4.904 Y6.301 E11.47924
G1 X-5.374 Y5.874 E11.49508
G1 X-5.623 Y5.568 E11.50492
G1 X-5.806 Y5.219 E11.51475
G1 X-5.914 Y4.839 E11.52461
G1 X-5.945 Y4.495 E11.53322
G0 X-5.645 Y4.495
G1 X-5.646 Y-4.495 E11.75748
