;FLAVOR:Marlin
;TIME:672
;Filament used: 0.528251m
;Layer height: 0.2
;MINX:-15.446
;MINY:-9.816
;MINZ:0.36
;MAXX:15.928
;MAXY:9.816
;MAXZ:8.21
;Generated with Cura_SteamEngine 4.13.1
M140 S100
M105
M190 S100
M104 S235
M105
M109 S235
M82 ;absolute extrusion mode
G28 ;Home
G1 Z15.0 F6000 ;Move the platform down 15mm
;Prime the extruder
G92 E0
G1 F200 E3
G92 E0
G92 E0
G92 E0
G1 F3000 E-1
;LAYER_COUNT:35
;LAYER:-6
M107
G0 F3600 X2.572 Y6.006 Z0.36
;TYPE:SUPPORT-INTERFACE
G1 F3000 E0.02661
G1 F1125 X1.956 Y6.298 E0.10823
G1 X1.381 Y6.666 E0.18997
G1 X0.929 Y7.038 E0.26007
G1 X0.814 Y7.143 E0.27871
G1 X0.365 Y7.522 E0.34907
G1 X-.297 Y8.004 E0.44712
G1 X-1.039 Y8.452 E0.5509
G1 X-1.362 Y8.618 E0.59438
G1 X-1.888 Y8.861 E0.66376
G1 X-2.137 Y8.961 E0.69589
G1 X-2.636 Y9.141 E0.75941
G1 X-3.416 Y9.358 E0.85635
G1 X-3.765 Y9.435 E0.89914
G1 X-4.287 Y9.522 E0.96251
G1 X-4.61 Y9.563 E1.00149
G1 X-5.129 Y9.604 E1.06383
G1 X-5.983 Y9.611 E1.16609
G1 X-6.835 Y9.541 E1.26845
G1 X-7.188 Y9.49 E1.31115
G1 X-7.686 Y9.394 E1.37188
G1 X-8.024 Y9.313 E1.41349
G1 X-8.595 Y9.148 E1.48466
G1 X-8.84 Y9.065 E1.51563
G1 X-9.325 Y8.878 E1.57787
G1 X-10.087 Y8.52 E1.67868
G1 X-10.833 Y8.086 E1.78202
G1 X-11.528 Y7.594 E1.88398
G1 X-12.181 Y7.038 E1.98667
G1 X-12.782 Y6.427 E2.08929
G1 X-13.328 Y5.761 E2.19241
G1 X-13.544 Y5.461 E2.23667
G1 X-13.819 Y5.041 E2.29678
G1 X-14.215 Y4.328 E2.39444
G1 X-14.568 Y3.541 E2.49771
G1 X-14.842 Y2.748 E2.59817
G1 X-14.946 Y2.38 E2.64396
G1 X-15.064 Y1.859 E2.70792
G1 X-15.121 Y1.542 E2.74649
G1 X-15.187 Y1.04 E2.80711
G1 X-15.219 Y0.691 E2.84908
G1 X-15.244 Y0.173 E2.91117
G1 X-15.243 Y-.18 E2.95344
G1 X-15.213 Y-.792 E3.02681
G1 X-15.188 Y-1.039 E3.05653
G1 X-15.12 Y-1.544 E3.11755
G1 X-15.064 Y-1.859 E3.15585
G1 X-14.946 Y-2.38 E3.21982
G1 X-14.696 Y-3.201 E3.32258
G1 X-14.381 Y-3.983 E3.42352
G1 X-13.999 Y-4.732 E3.52419
G1 X-13.819 Y-5.041 E3.56701
G1 X-13.544 Y-5.461 E3.62712
G1 X-13.025 Y-6.145 E3.72993
G1 X-12.453 Y-6.775 E3.83182
G1 X-11.833 Y-7.347 E3.93282
G1 X-11.143 Y-7.877 E4.037
G1 X-10.429 Y-8.332 E4.13838
G1 X-9.675 Y-8.722 E4.24002
G1 X-9.325 Y-8.878 E4.2859
G1 X-8.84 Y-9.065 E4.34814
G1 X-8.549 Y-9.163 E4.38491
G1 X-8.024 Y-9.313 E4.45028
G1 X-7.683 Y-9.395 E4.49228
G1 X-7.188 Y-9.49 E4.55263
G1 X-6.348 Y-9.59 E4.65392
G1 X-5.5 Y-9.616 E4.7555
G1 X-5.129 Y-9.604 E4.79995
G1 X-4.539 Y-9.556 E4.87082
G1 X-4.287 Y-9.522 E4.90127
G1 X-3.765 Y-9.435 E4.96464
G1 X-2.95 Y-9.237 E5.06506
G1 X-2.636 Y-9.14 E5.10441
G1 X-2.049 Y-8.928 E5.17914
G1 X-1.838 Y-8.839 E5.20656
G1 X-1.362 Y-8.618 E5.2694
G1 X-.624 Y-8.212 E5.37025
G1 X0.102 Y-7.725 E5.47493
G1 X0.365 Y-7.522 E5.51471
G1 X0.829 Y-7.129 E5.58751
G1 X0.93 Y-7.037 E5.60387
G1 X1.45 Y-6.616 E5.68398
G1 X2.031 Y-6.257 E5.76576
G1 X2.653 Y-5.974 E5.84758
G1 X3.305 Y-5.772 E5.92931
G1 X3.976 Y-5.655 E6.01087
G1 X4.563 Y-5.622 E6.08126
G1 X13 Y-5.622 E7.09148
G1 X13.219 Y-5.613 E7.11772
G1 X13.732 Y-5.54 E7.17977
G1 X14.178 Y-5.389 E7.23615
G1 X14.548 Y-5.189 E7.28651
G1 X14.879 Y-4.931 E7.33676
G1 X15.168 Y-4.618 E7.38777
G1 X15.402 Y-4.262 E7.43878
G1 X15.573 Y-3.877 E7.48922
G1 X15.688 Y-3.419 E7.54576
G1 X15.728 Y-2.942 E7.60308
G1 X15.728 Y-1.628 E7.76041
G1 X15.643 Y-.879 E7.85067
G1 X15.576 Y-.214 E7.9307
G1 X15.595 Y0.466 E8.01215
G1 X15.686 Y1.084 E8.08694
G1 X15.728 Y1.58 E8.14655
G1 X15.728 Y2.893 E8.30376
G1 X15.646 Y3.625 E8.39195
G1 X15.495 Y4.071 E8.44833
G1 X15.295 Y4.441 E8.4987
G1 X15.034 Y4.775 E8.54945
G1 X14.724 Y5.061 E8.59995
G1 X14.368 Y5.295 E8.65096
G1 X13.983 Y5.466 E8.7014
G1 X13.527 Y5.581 E8.75771
G1 X13.038 Y5.621 E8.81646
G1 X4.56 Y5.622 E9.83158
G1 X3.892 Y5.664 E9.91173
G1 X3.222 Y5.793 E9.99342
G1 X2.572 Y6.006 E10.07532
G0 F3600 X3.2 Y5.801
G1 F1125 X3.2 Y-5.804 E11.46487
G0 F3600 X4.8 Y-5.622
G1 F1125 X4.8 Y5.622 E12.81118
G0 F3600 X6.4 Y5.622
G1 F1125 X6.4 Y-5.622 E14.1575
G0 F3600 X8 Y-5.622
G1 F1125 X8 Y5.622 E15.50382
G0 F3600 X9.6 Y5.622
G1 F1125 X9.6 Y-5.622 E16.85013
G0 F3600 X11.2 Y-5.622
G1 F1125 X11.2 Y5.622 E18.19645
G0 F3600 X12.8 Y5.622
G1 F1125 X12.8 Y-5.622 E19.54277
G0 F3600 X14.4 Y-5.269
G1 F1125 X14.4 Y5.274 E20.80515
G0 F3600 X3.948 Y6.123
G0 X1.6 Y6.526
G1 F1125 X1.6 Y-6.523 E22.36759
G0 F3600 X0.00 Y-7.793
G1 F1125 X0.00 Y7.788 E24.23321
G0 F3600 X-1.6 Y8.728
G1 F1125 X-1.6 Y-8.728 E26.32333
G0 F3600 X-3.2 Y-9.297
G1 F1125 X-3.2 Y9.298 E28.54983
G0 F3600 X-4.8 Y9.579
G1 F1125 X-4.8 Y-9.577 E30.8435
G0 F3600 X-6.4 Y-9.584
G1 F1125 X-6.4 Y9.576 E33.13765
G0 F3600 X-8 Y9.318
G1 F1125 X-8 Y-9.319 E35.36918
G0 F3600 X-9.6 Y-8.756
G1 F1125 X-9.6 Y8.748 E37.46505
G0 F3600 X-11.2 Y7.826
G1 F1125 X-11.2 Y-7.834 E39.34012
G0 F3600 X-12.8 Y-6.393
G1 F1125 X-12.8 Y6.405 E40.87251
G0 F3600 X-14.4 Y3.915
G1 F1125 X-14.4 Y-3.936 E41.81256
G0 F600 X-14.4 Y-3.936 Z0.66
G0 F3600 X-14.361 Y4.023
;TIME_ELAPSED:21.612882
;LAYER:-5
;TYPE:SUPPORT
G1 F1125 X-9.652 Y8.732 E42.47705
G1 X-9.673 Y8.722 E42.47937
G1 X-10.086 Y8.519 E42.52529
G1 X-10.195 Y8.464 E42.53747
G1 X-10.428 Y8.332 E42.56419
G1 X-10.832 Y8.085 E42.61144
G1 X-10.933 Y8.021 E42.62337
G1 X-11.142 Y7.877 E42.64869
G1 X-11.527 Y7.594 E42.69637
G1 X-11.716 Y7.445 E42.72039
G1 X-11.832 Y7.346 E42.7356
G1 X-12.179 Y7.037 E42.78196
G1 X-12.268 Y6.956 E42.79397
G1 X-12.452 Y6.775 E42.81973
G1 X-12.78 Y6.426 E42.86751
G1 X-12.859 Y6.339 E42.87924
G1 X-12.951 Y6.233 E42.89325
G1 X-13.041 Y6.124 E42.90735
G1 X-13.326 Y5.76 E42.95348
G1 X-13.465 Y5.575 E42.97657
G1 X-13.543 Y5.46 E42.99043
G1 X-13.818 Y5.041 E43.04044
G1 X-13.934 Y4.847 E43.06299
G1 X-14.011 Y4.71 E43.07868
G1 X-14.213 Y4.328 E43.12179
G1 X-14.301 Y4.154 E43.14125
G0 F3600 X-9.652 Y8.732
G1 F1125 X-9.528 Y8.791 E43.15495
G1 X-9.324 Y8.877 E43.17704
G1 X-8.774 Y9.088 E43.23582
G1 X-8.594 Y9.147 E43.25472
G1 X-8.024 Y9.312 E43.31393
G1 X-7.793 Y9.37 E43.3377
G1 X-7.686 Y9.393 E43.34862
G1 X-7.551 Y9.418 E43.36231
G1 X-15.05 Y1.92 E44.42043
G1 X-15.063 Y1.858 E44.42676
G1 X-15.108 Y1.61 E44.4519
G1 X-15.12 Y1.542 E44.45879
G1 X-15.186 Y1.04 E44.50932
G1 X-15.213 Y0.785 E44.5349
G1 X-15.236 Y0.32 E44.58136
G1 X-5.946 Y9.61 E45.89228
G1 X-5.499 Y9.615 E45.93688
G1 X-5.361 Y9.613 E45.95065
G1 X-5.128 Y9.603 E45.97392
G1 X-4.583 Y9.558 E46.02849
G1 X-15.187 Y-1.045 E47.52476
G1 X-15.119 Y-1.544 E47.57501
G1 X-15.077 Y-1.784 E47.59932
G1 X-15.063 Y-1.858 E47.60683
G1 X-14.975 Y-2.247 E47.64663
G1 X-3.38 Y9.347 E49.28274
G1 X-2.95 Y9.236 E49.32705
G1 X-2.636 Y9.14 E49.35981
G1 X-2.296 Y9.017 E49.39589
G1 X-14.647 Y-3.333 E51.13868
G1 X-14.622 Y-3.398 E51.14563
G1 X-14.567 Y-3.54 E51.16082
G1 X-14.38 Y-3.983 E51.2088
G1 X-14.292 Y-4.171 E51.22951
G1 X-14.219 Y-4.319 E51.24598
G1 X-1.308 Y8.59 E53.06772
G1 X-1.262 Y8.568 E53.07281
G1 X-1.039 Y8.451 E53.09793
G1 X-.623 Y8.21 E53.14591
G1 X-.485 Y8.126 E53.16203
G1 X-.409 Y8.075 E53.17116
G1 X-13.703 Y-5.217 E55.04694
G1 X-13.543 Y-5.46 E55.07597
G1 X-13.465 Y-5.575 E55.08984
G1 X-13.314 Y-5.777 E55.115
G1 X-13.109 Y-6.037 E55.14804
G1 X0.41 Y7.481 E57.05565
G1 X0.813 Y7.142 E57.10819
G1 X0.929 Y7.037 E57.12381
G1 X1.176 Y6.833 E57.15577
G1 X-12.441 Y-6.784 E59.07728
G1 X-12.268 Y-6.956 E59.10162
G1 X-12.172 Y-7.045 E59.11468
G1 X-11.832 Y-7.346 E59.15999
G1 X-11.716 Y-7.445 E59.17521
G1 X-11.699 Y-7.457 E59.17728
G1 X2.022 Y6.264 E61.11346
G1 X2.571 Y6.005 E61.17403
G1 X3.027 Y5.855 E61.22193
G1 X-10.882 Y-8.053 E63.18457
G1 X-10.83 Y-8.087 E63.19077
G1 X-10.428 Y-8.332 E63.23775
G1 X-10.205 Y-8.457 E63.26325
G1 X-10.073 Y-8.526 E63.27812
G1 X-9.983 Y-8.569 E63.28807
G1 X4.227 Y5.641 E65.29325
G1 X4.56 Y5.62 E65.32655
G1 X5.62 Y5.62 E65.43231
G1 X-9.001 Y-9.001 E67.49549
G1 X-8.839 Y-9.064 E67.51284
G1 X-8.773 Y-9.089 E67.51988
G1 X-8.548 Y-9.162 E67.54348
G1 X-8.024 Y-9.312 E67.59787
G1 X-7.923 Y-9.337 E67.60825
G1 X7.035 Y5.62 E69.71891
G1 X8.449 Y5.62 E69.86
G1 X-6.722 Y-9.55 E72.00072
G1 X-6.347 Y-9.589 E72.03834
G1 X-6.11 Y-9.606 E72.06205
G1 X-5.982 Y-9.61 E72.07483
G1 X-5.499 Y-9.615 E72.12303
G1 X-5.369 Y-9.611 E72.13601
G1 X9.863 Y5.62 E74.28533
G1 X11.277 Y5.62 E74.42642
G1 X-3.779 Y-9.436 E76.55099
G1 X-3.764 Y-9.434 E76.5525
G1 X-3.558 Y-9.391 E76.5735
G1 X-3.423 Y-9.359 E76.58734
G1 X-2.95 Y-9.236 E76.63611
G1 X-2.636 Y-9.14 E76.66887
G1 X-2.048 Y-8.927 E76.73127
G1 X-1.837 Y-8.838 E76.75412
G1 X-1.705 Y-8.776 E76.76867
G1 X12.691 Y5.62 E78.8001
G1 X13.036 Y5.62 E78.83453
G1 X13.222 Y5.615 E78.85309
G1 X13.526 Y5.581 E78.88361
G1 X13.625 Y5.562 E78.89367
G1 X13.957 Y5.472 E78.928
G1 X2.394 Y-6.091 E80.55966
G1 X2.653 Y-5.973 E80.58806
G1 X3.305 Y-5.771 E80.65617
G1 X3.976 Y-5.654 E80.72413
G1 X4.261 Y-5.637 E80.75262
G1 X14.847 Y4.948 E82.24635
G1 X15.033 Y4.775 E82.27169
G1 X15.064 Y4.741 E82.27628
G1 X15.294 Y4.441 E82.314
G1 X15.313 Y4.41 E82.31763
G1 X15.456 Y4.142 E82.34794
G1 X5.692 Y-5.62 E83.7256
G1 X7.107 Y-5.62 E83.86679
G1 X15.723 Y2.996 E85.0826
G1 X15.727 Y2.893 E85.09289
G1 X15.727 Y1.585 E85.2234
G1 X8.521 Y-5.62 E86.24018
G1 X9.935 Y-5.62 E86.38127
G1 X15.582 Y0.026 E87.17805
G1 X15.575 Y-.214 E87.20201
G1 X15.641 Y-.878 E87.26859
G1 X15.706 Y-1.264 E87.30764
G1 X11.349 Y-5.62 E87.92239
G1 X12.763 Y-5.62 E88.06348
G1 X15.727 Y-2.657 E88.48166
G1 X15.727 Y-2.941 E88.51
G1 X15.722 Y-3.117 E88.52757
G1 X15.687 Y-3.418 E88.55781
G1 X15.668 Y-3.521 E88.56826
G1 X15.572 Y-3.877 E88.60505
G1 X15.554 Y-3.926 E88.61026
G1 X15.401 Y-4.261 E88.647
G1 X15.379 Y-4.302 E88.65165
G1 X15.166 Y-4.618 E88.68967
G1 X15.138 Y-4.654 E88.69422
G1 X15.044 Y-4.754 E88.70792
G1 X14.811 Y-4.987 E88.7408
G1 X14.847 Y-4.96 E88.74529
G1 X14.878 Y-4.93 E88.74959
G0 F600 X14.878 Y-4.93 Z0.86
G0 F3600 X3.415 Y-6.222
G0 X-3.731 Y-9.633
;TIME_ELAPSED:47.250802
;LAYER:-4
;TYPE:SUPPORT-INTERFACE
G1 F1500 X-4.248 Y-9.719 E88.76702
G1 X-4.381 Y-9.738 E88.77149
G1 X-4.593 Y-9.763 E88.77859
G1 X-5.118 Y-9.805 E88.79611
G1 X-5.239 Y-9.81 E88.80014
G1 X-5.499 Y-9.816 E88.80879
G1 X-5.99 Y-9.811 E88.82512
G1 X-6.24 Y-9.799 E88.83344
G1 X-6.358 Y-9.79 E88.83738
G1 X-6.864 Y-9.739 E88.85429
G1 X-7.122 Y-9.704 E88.86295
G1 X-7.228 Y-9.686 E88.86653
G1 X-7.676 Y-9.6 E88.8817
G1 X-3.572 Y-9.6 E89.0182
G1 X-3.519 Y-9.589 E89.02
G1 X-3.372 Y-9.553 E89.02503
G1 X-2.892 Y-9.428 E89.04153
G1 X-2.642 Y-9.353 E89.05021
G1 X-2.568 Y-9.329 E89.0528
G1 X-2.208 Y-9.2 E89.06552
G1 X-9.042 Y-9.2 E89.29282
G1 X-9.397 Y-9.064 E89.30546
G1 X-9.621 Y-8.969 E89.31356
G1 X-9.761 Y-8.903 E89.3187
G1 X-9.97 Y-8.8 E89.32645
G1 X-1.279 Y-8.8 E89.61552
G1 X-1.035 Y-8.677 E89.62461
G1 X-.943 Y-8.628 E89.62807
G1 X-.549 Y-8.4 E89.64321
G1 X-10.702 Y-8.4 E89.9809
G1 X-10.935 Y-8.258 E89.98998
G1 X-11.042 Y-8.189 E89.99421
G1 X-11.257 Y-8.04 E90.00291
G1 X-11.311 Y-8 E90.00515
G1 X0.057 Y-8 E90.38325
G1 X0.211 Y-7.892 E90.38951
G1 X0.306 Y-7.822 E90.39343
G1 X0.493 Y-7.675 E90.40134
G1 X0.582 Y-7.6 E90.40521
G1 X-11.842 Y-7.6 E90.81844
G1 X-11.85 Y-7.594 E90.81877
G1 X-11.958 Y-7.502 E90.82349
G1 X-12.298 Y-7.2 E90.83861
G1 X1.047 Y-7.2 E91.28247
G1 X1.059 Y-7.188 E91.28303
G1 X1.54 Y-6.8 E91.30359
G1 X-12.703 Y-6.8 E91.77731
G1 X-13.004 Y-6.479 E91.79195
G1 X-13.072 Y-6.4 E91.79542
G1 X2.2 Y-6.4 E92.30336
G1 X2.724 Y-6.162 E92.32251
G1 X3.245 Y-6 E92.34065
G1 X-13.393 Y-6 E92.89404
G1 X-13.469 Y-5.904 E92.89811
G1 X-13.566 Y-5.777 E92.90342
G1 X-13.689 Y-5.6 E92.91059
G1 X14.194 Y-5.599 E93.83798
G1 X14.208 Y-5.594 E93.83848
G1 X14.258 Y-5.572 E93.8403
G1 X14.622 Y-5.378 E93.85401
G1 X14.664 Y-5.351 E93.85568
G1 X14.862 Y-5.199 E93.86398
G1 X-13.953 Y-5.2 E94.82237
G1 X-13.987 Y-5.149 E94.82441
G1 X-14.107 Y-4.949 E94.83216
G1 X-14.174 Y-4.828 E94.83676
G1 X-14.188 Y-4.8 E94.83781
G1 X15.277 Y-4.799 E95.81782
G1 X15.294 Y-4.78 E95.81866
G1 X15.333 Y-4.731 E95.82075
G1 X15.547 Y-4.412 E95.83352
G1 X15.555 Y-4.399 E95.83403
G1 X-14.401 Y-4.4 E96.83037
G1 X-14.472 Y-4.262 E96.83553
G1 X-14.563 Y-4.064 E96.84278
G1 X-14.59 Y-4 E96.84509
G1 X15.741 Y-3.999 E97.8539
G1 X15.763 Y-3.938 E97.85606
G1 X15.856 Y-3.599 E97.86775
G1 X-14.758 Y-3.6 E98.88598
G1 X-14.81 Y-3.471 E98.8906
G1 X-14.888 Y-3.257 E98.89818
G1 X-14.906 Y-3.2 E98.90017
G1 X15.915 Y-3.199 E99.92528
G1 X15.921 Y-3.141 E99.92722
G1 X15.928 Y-2.941 E99.93387
G1 X15.928 Y-2.799 E99.9386
G1 X-15.035 Y-2.8 E100.96843
G1 X-15.084 Y-2.635 E100.97416
G1 X-15.139 Y-2.43 E100.98122
G1 X-15.145 Y-2.4 E100.98223
G1 X15.928 Y-2.399 E102.01573
G1 X15.928 Y-1.999 E102.02903
G1 X-15.236 Y-2 E103.06555
G1 X-15.259 Y-1.902 E103.0689
G1 X-15.275 Y-1.822 E103.07161
G1 X-15.313 Y-1.6 E103.0791
G1 X15.927 Y-1.599 E104.11815
G1 X15.919 Y-1.391 E104.12507
G1 X15.907 Y-1.246 E104.12991
G1 X15.899 Y-1.199 E104.1315
G1 X-15.368 Y-1.2 E105.17144
G1 X-15.386 Y-1.068 E105.17587
G1 X-15.412 Y-.812 E105.18443
G1 X-15.412 Y-.8 E105.18483
G1 X15.836 Y-.799 E106.22414
G1 X15.796 Y-.399 E106.23751
G1 X-15.432 Y-.4 E107.27616
G1 X-15.443 Y-.189 E107.28319
G1 X-15.446 Y-0.071 E107.28711
G1 X-15.446 Y0.00 E107.28947
G1 X15.783 Y0.00 E108.32815
G1 X15.793 Y0.4 E108.34146
G1 X-15.433 Y0.399 E109.38004
G1 X-15.413 Y0.799 E109.39336
G1 X15.842 Y0.8 E110.43291
G1 X15.859 Y0.925 E110.43711
G1 X15.882 Y1.046 E110.4412
G1 X15.901 Y1.2 E110.44636
G1 X-15.368 Y1.199 E111.48637
G1 X-15.318 Y1.575 E111.49899
G1 X-15.314 Y1.599 E111.4998
G1 X15.928 Y1.6 E112.53891
G1 X15.928 Y2 E112.55222
G1 X-15.237 Y1.999 E113.58877
G1 X-15.147 Y2.399 E113.60241
G1 X15.928 Y2.4 E114.63596
G1 X15.928 Y2.8 E114.64927
G1 X-15.036 Y2.799 E115.67914
G1 X-15.031 Y2.813 E115.67963
G1 X-14.908 Y3.199 E115.6931
G1 X15.913 Y3.2 E116.71821
G1 X15.907 Y3.28 E116.72088
G1 X15.853 Y3.6 E116.73168
G1 X-14.76 Y3.599 E117.74987
G1 X-14.755 Y3.61 E117.75027
G1 X-14.591 Y3.999 E117.76431
G1 X15.734 Y4 E118.77293
G1 X15.701 Y4.1 E118.77643
G1 X15.68 Y4.147 E118.77814
G1 X15.545 Y4.4 E118.78768
G1 X-14.403 Y4.399 E119.78375
G1 X-14.395 Y4.414 E119.78432
G1 X-14.191 Y4.799 E119.79881
G1 X15.271 Y4.8 E120.77872
G1 X15.221 Y4.866 E120.78147
G1 X15.177 Y4.913 E120.78362
G1 X14.887 Y5.186 E120.79686
G1 X14.869 Y5.2 E120.79762
G1 X-13.955 Y5.199 E121.75631
G1 X-13.714 Y5.565 E121.77089
G1 X-13.691 Y5.599 E121.77225
G1 X14.178 Y5.6 E122.69918
G1 X14.106 Y5.633 E122.70181
G1 X14.045 Y5.655 E122.70397
G1 X13.672 Y5.757 E122.71683
G1 X13.568 Y5.776 E122.72035
G1 X13.242 Y5.813 E122.73126
G1 X13.043 Y5.82 E122.73788
G1 X4.567 Y5.822 E123.0198
G1 X3.917 Y5.863 E123.04146
G1 X3.271 Y5.987 E123.06334
G1 X3.231 Y6 E123.06473
G1 X-13.395 Y5.999 E123.61772
G1 X-13.196 Y6.25 E123.62837
G1 X-13.1 Y6.367 E123.63341
G1 X-13.073 Y6.399 E123.6348
G1 X2.207 Y6.4 E124.14301
G1 X2.052 Y6.474 E124.14873
G1 X1.541 Y6.8 E124.16889
G1 X-12.704 Y6.799 E124.64268
G1 X-12.59 Y6.92 E124.64821
G1 X-12.413 Y7.095 E124.65648
G1 X-12.314 Y7.186 E124.66096
G1 X-12.3 Y7.199 E124.66159
G1 X1.046 Y7.2 E125.10548
G1 X0.942 Y7.296 E125.11019
G1 X0.582 Y7.6 E125.12586
G1 X-11.844 Y7.599 E125.53915
G1 X-11.651 Y7.751 E125.54732
G1 X-11.315 Y7.999 E125.56121
G1 X0.056 Y8 E125.93941
G1 X-.191 Y8.174 E125.94946
G1 X-.383 Y8.299 E125.95708
G1 X-.518 Y8.382 E125.96235
G1 X-.55 Y8.4 E125.96357
G1 X-10.702 Y8.4 E126.30123
G1 X-10.533 Y8.503 E126.30781
G1 X-10.297 Y8.637 E126.31684
G1 X-10.171 Y8.701 E126.32154
G1 X-9.971 Y8.8 E126.32896
G1 X-1.277 Y8.8 E126.61813
G1 X-1.281 Y8.802
G1 X-1.81 Y9.046 E126.6375
G1 X-2.069 Y9.15 E126.64679
G1 X-2.209 Y9.2 E126.65173
G1 X-9.048 Y9.2 E126.8792
G1 X-8.903 Y9.256 E126.88437
G1 X-8.604 Y9.356 E126.89485
G1 X-8.083 Y9.504 E126.91287
G1 X-7.968 Y9.535 E126.91683
G1 X-7.729 Y9.59 E126.92498
G1 X-7.677 Y9.6 E126.92675
G1 X-3.572 Y9.6 E127.06328
G1 X-3.731 Y9.633 E127.06868
G1 X-4.248 Y9.719 E127.08611
G1 X-4.517 Y9.755 E127.09514
G1 X-4.593 Y9.763 E127.09768
G1 X-5.118 Y9.804 E127.11519
G1 X-5.355 Y9.814 E127.12308
G1 X-5.499 Y9.816 E127.12787
G1 X-5.99 Y9.811 E127.14421
G1 X-6.24 Y9.8 E127.15253
G1 X-6.358 Y9.79 E127.15647
G1 X-6.864 Y9.739 E127.17338
G1 X-7.122 Y9.704 E127.18204
G1 X-7.228 Y9.686 E127.18562
G0 F600 X-7.228 Y9.686 Z1.06
G0 F3600 X15.6 Y-4.308
;TIME_ELAPSED:94.115514
;LAYER:-3
;TYPE:SUPPORT-INTERFACE
G1 F1500 X15.58 Y-4.352 E127.18723
G1 X15.547 Y-4.412 E127.1895
G1 X15.333 Y-4.731 E127.20228
