;FLAVOR:Marlin
;TIME:769
;Filament used: 0.59223m
;Layer height: 0.2
;MINX:-16.445
;MINY:-10.816
;MINZ:0.36
;MAXX:16.928
;MAXY:10.816
;MAXZ:8.21
;Generated with Cura_SteamEngine 4.13.1
M140 S100
M105
M190 S100
M104 S230
M105
M109 S230
M82 ;absolute extrusion mode
G28 ;Home
G1 Z15.0 F6000 ;Move the platform down 15mm
;Prime the extruder
G92 E0
G1 F200 E3
G92 E0
G92 E0
G92 E0
G1 F1500 E-4
;LAYER_COUNT:35
;LAYER:-6
M107
G0 F3600 X2.955 Y7.006 Z0.36
;TYPE:SUPPORT-INTERFACE
G1 F1500 E0
G1 F900 X2.333 Y7.301 E0.08243
G1 X1.514 Y7.862 E0.20129
G1 X1.03 Y8.27 E0.27709
G1 X0.685 Y8.537 E0.32932
G1 X0.258 Y8.835 E0.39167
G1 X-.518 Y9.305 E0.5003
G1 X-.935 Y9.524 E0.5567
G1 X-1.491 Y9.779 E0.62994
G1 X-1.816 Y9.909 E0.67185
G1 X-2.367 Y10.105 E0.74187
G1 X-3.177 Y10.33 E0.84253
G1 X-3.594 Y10.42 E0.89361
G1 X-4.228 Y10.524 E0.97054
G1 X-4.522 Y10.559 E1.00599
G1 X-5.058 Y10.601 E1.07037
G1 X-5.994 Y10.611 E1.18245
G1 X-6.936 Y10.536 E1.2956
G1 X-7.376 Y10.472 E1.34883
G1 X-7.97 Y10.356 E1.4213
G1 X-8.297 Y10.276 E1.46161
G1 X-8.792 Y10.133 E1.5233
G1 X-9.202 Y9.998 E1.57499
G1 X-9.677 Y9.814 E1.63598
G1 X-10.509 Y9.426 E1.7459
G1 X-11.33 Y8.954 E1.85929
G1 X-11.724 Y8.69 E1.91608
G1 X-12.204 Y8.336 E1.98749
G1 X-12.857 Y7.776 E2.0905
G1 X-13.171 Y7.469 E2.14308
G1 X-13.517 Y7.103 E2.20338
G1 X-13.813 Y6.76 E2.25763
G1 X-14.165 Y6.313 E2.32576
G1 X-14.367 Y6.029 E2.36749
G1 X-14.675 Y5.557 E2.43497
G1 X-14.874 Y5.217 E2.48214
G1 X-15.111 Y4.771 E2.54261
G1 X-15.492 Y3.923 E2.65393
G1 X-15.799 Y3.04 E2.76586
G1 X-15.92 Y2.606 E2.81981
G1 X-16.053 Y2.009 E2.89305
G1 X-16.113 Y1.67 E2.93427
G1 X-16.182 Y1.155 E2.99648
G1 X-16.219 Y0.734 E3.04709
G1 X-16.243 Y0.219 E3.10882
G1 X-16.243 Y-.219 E3.16126
G1 X-16.219 Y-.734 E3.22299
G1 X-16.183 Y-1.154 E3.27347
G1 X-16.113 Y-1.67 E3.33582
G1 X-16.038 Y-2.082 E3.38596
G1 X-15.919 Y-2.606 E3.4503
G1 X-15.799 Y-3.04 E3.50421
G1 X-15.623 Y-3.582 E3.57245
G1 X-15.305 Y-4.365 E3.67364
G1 X-15.111 Y-4.771 E3.72752
G1 X-14.875 Y-5.215 E3.78772
G1 X-14.66 Y-5.581 E3.83855
G1 X-14.37 Y-6.024 E3.90195
G1 X-14.13 Y-6.358 E3.95119
G1 X-13.805 Y-6.77 E4.01402
G1 X-13.171 Y-7.469 E4.12702
G1 X-12.497 Y-8.095 E4.23716
G1 X-12.129 Y-8.393 E4.29386
G1 X-11.724 Y-8.69 E4.35399
G1 X-10.944 Y-9.189 E4.46486
G1 X-10.119 Y-9.618 E4.5762
G1 X-9.677 Y-9.814 E4.6341
G1 X-9.198 Y-9.999 E4.69558
G1 X-8.792 Y-10.134 E4.74681
G1 X-8.297 Y-10.276 E4.80847
G1 X-7.883 Y-10.374 E4.85941
G1 X-7.376 Y-10.473 E4.92126
G1 X-6.448 Y-10.585 E5.03319
G1 X-5.511 Y-10.616 E5.14544
G1 X-5.058 Y-10.601 E5.19971
G1 X-4.479 Y-10.555 E5.26926
G1 X-4.127 Y-10.509 E5.31176
G1 X-3.552 Y-10.413 E5.38156
G1 X-2.711 Y-10.208 E5.48521
G1 X-2.288 Y-10.078 E5.5382
G1 X-1.816 Y-9.909 E5.59823
G1 X-1.403 Y-9.74 E5.65166
G1 X-.935 Y-9.524 E5.71337
G1 X-.106 Y-9.067 E5.82672
G1 X0.252 Y-8.839 E5.87754
G1 X0.737 Y-8.499 E5.94846
G1 X1.03 Y-8.271 E5.99291
G1 X1.766 Y-7.647 E6.10845
G1 X1.856 Y-7.599 E6.12066
G1 X2.439 Y-7.243 E6.20246
G1 X3.063 Y-6.964 E6.2843
G1 X3.716 Y-6.766 E6.366
G1 X4.387 Y-6.652 E6.4475
G1 X4.945 Y-6.622 E6.51441
G1 X13.012 Y-6.622 E7.48032
G1 X13.222 Y-6.614 E7.50548
G1 X13.787 Y-6.552 E7.57354
G1 X14.288 Y-6.421 E7.63555
G1 X14.919 Y-6.134 E7.71855
G1 X15.337 Y-5.854 E7.77879
G1 X15.705 Y-5.523 E7.83805
G1 X16.051 Y-5.109 E7.90266
G1 X16.3 Y-4.703 E7.95968
G1 X16.507 Y-4.236 E8.02085
G1 X16.644 Y-3.754 E8.08085
G1 X16.722 Y-3.09 E8.1609
G1 X16.728 Y-2.922 E8.18103
G1 X16.728 Y-1.617 E8.33728
G1 X16.642 Y-.733 E8.44363
G1 X16.591 Y-0.062 E8.5242
G1 X16.651 Y0.816 E8.62958
G1 X16.722 Y1.432 E8.70382
G1 X16.728 Y1.6 E8.72395
G1 X16.728 Y2.905 E8.88021
G1 X16.658 Y3.68 E8.97338
G1 X16.527 Y4.181 E9.03539
G1 X16.24 Y4.812 E9.11839
G1 X15.964 Y5.225 E9.17787
G1 X15.628 Y5.599 E9.23807
G1 X15.217 Y5.942 E9.30216
G1 X14.809 Y6.193 E9.35952
G1 X14.342 Y6.4 E9.42068
G1 X13.86 Y6.537 E9.48068
G1 X13.188 Y6.615 E9.56169
G1 X13.027 Y6.621 E9.58098
G1 X4.943 Y6.622 E10.54893
G1 X4.275 Y6.664 E10.62907
G1 X3.605 Y6.793 E10.71077
G1 X2.955 Y7.006 E10.79267
G1 X3.2 Y6.926
G1 X3.2 Y-6.922 E12.45078
G0 F3600 X4.8 Y-6.629
G1 F900 X4.8 Y6.631 E14.03848
G0 F3600 X6.4 Y6.622
G1 F900 X6.4 Y-6.622 E15.62427
G0 F3600 X8 Y-6.622
G1 F900 X8 Y6.622 E17.21006
G0 F3600 X9.6 Y6.622
G1 F900 X9.6 Y-6.622 E18.79585
G0 F3600 X11.2 Y-6.622
G1 F900 X11.2 Y6.622 E20.38164
G0 F3600 X12.8 Y6.622
G1 F900 X12.8 Y-6.622 E21.96743
G0 F3600 X14.4 Y-6.37
G1 F900 X14.4 Y6.375 E23.49347
G0 F3600 X16 Y5.172
G1 F900 X16 Y-5.17 E24.73179
G0 F3600 X3.821 Y-7.216
G0 X1.6 Y-7.787
G1 F900 X1.6 Y7.804 E26.5986
G0 F3600 X0.00 Y8.992
G1 F900 X0.00 Y-8.999 E28.75278
G0 F3600 X-1.6 Y-9.82
G1 F900 X-1.6 Y9.823 E31.10476
G0 F3600 X-3.2 Y10.335
G1 F900 X-3.2 Y-10.327 E33.57876
G0 F3600 X-4.8 Y-10.58
G1 F900 X-4.8 Y10.581 E36.1125
G0 F3600 X-6.4 Y10.578
G1 F900 X-6.4 Y-10.587 E38.64673
G0 F3600 X-8 Y-10.347
G1 F900 X-8 Y10.348 E41.12467
G0 F3600 X-9.6 Y9.843
G1 F900 X-9.6 Y-9.844 E43.48192
G0 F3600 X-11.2 Y-9.026
G1 F900 X-11.2 Y9.028 E45.64365
G0 F3600 X-12.8 Y7.824
G1 F900 X-12.8 Y-7.814 E47.51609
G0 F3600 X-14.4 Y-5.979
G1 F900 X-14.4 Y5.978 E48.94778
G0 F3600 X-16 Y2.246
G1 F900 X-16 Y-2.25 E49.48611
G0 F600 X-16 Y-2.25 Z0.66
G0 F3600 X-15.11 Y4.77
;TIME_ELAPSED:30.978942
;LAYER:-5
;TYPE:SUPPORT
G1 F900 X-14.873 Y5.217 E49.53659
G1 X-14.827 Y5.298 E49.54589
G1 X-14.674 Y5.557 E49.5759
G1 X-14.366 Y6.029 E49.63214
G1 X-14.164 Y6.313 E49.66691
G1 X-13.812 Y6.759 E49.72361
G1 X-13.722 Y6.868 E49.73771
G1 X-13.516 Y7.102 E49.76882
G1 X-13.171 Y7.47 E49.81915
G1 X-12.911 Y7.725 E49.85549
G1 X-12.497 Y8.094 E49.91082
G1 X-12.203 Y8.335 E49.94876
G1 X-11.723 Y8.689 E50.00827
G1 X-11.474 Y8.86 E50.03841
G1 X-11.329 Y8.953 E50.0556
G1 X-10.943 Y9.189 E50.10074
G1 X-10.825 Y9.256 E50.11428
G1 X-10.649 Y9.352 E50.13428
G1 X-10.508 Y9.426 E50.15017
G1 X-10.241 Y9.557 E50.17985
G1 X-15.188 Y4.61 E50.87792
G1 X-15.26 Y4.461 E50.89443
G1 X-15.491 Y3.923 E50.95286
G1 X-15.546 Y3.785 E50.96768
G1 X-15.62 Y3.582 E50.98924
G1 X-15.652 Y3.493 E50.99867
G1 X-15.798 Y3.039 E51.04626
G1 X-15.839 Y2.901 E51.06062
G1 X-15.902 Y2.672 E51.08432
G1 X-15.919 Y2.605 E51.09122
G1 X-15.959 Y2.425 E51.10962
G1 X-8.048 Y10.335 E52.22588
G1 X-7.969 Y10.355 E52.23401
G1 X-7.375 Y10.471 E52.2944
G1 X-7.282 Y10.487 E52.30381
G1 X-6.936 Y10.535 E52.33867
G1 X-6.448 Y10.584 E52.3876
G1 X-6.38 Y10.589 E52.39441
G1 X-16.217 Y0.753 E53.78244
G1 X-16.218 Y0.733 E53.78444
G1 X-16.242 Y0.219 E53.83579
G1 X-16.243 Y0.123 E53.84536
G1 X-16.242 Y-.219 E53.87949
G1 X-16.221 Y-.665 E53.92404
G1 X-4.963 Y10.592 E55.5126
G1 X-4.521 Y10.557 E55.55684
G1 X-4.228 Y10.523 E55.58627
G1 X-3.703 Y10.438 E55.63934
G1 X-16.067 Y-1.925 E57.38396
G1 X-16.052 Y-2.008 E57.39238
G1 X-15.919 Y-2.605 E57.4534
G1 X-15.836 Y-2.916 E57.48552
G1 X-15.798 Y-3.04 E57.49846
G1 X-15.791 Y-3.063 E57.50086
G1 X-2.563 Y10.164 E59.36741
G1 X-2.367 Y10.104 E59.38786
G1 X-1.815 Y9.907 E59.44634
G1 X-1.702 Y9.865 E59.45837
G1 X-1.522 Y9.791 E59.47779
G1 X-15.416 Y-4.102 E61.43831
G1 X-15.303 Y-4.364 E61.46678
G1 X-15.256 Y-4.471 E61.47844
G1 X-15.11 Y-4.77 E61.51164
G1 X-14.958 Y-5.058 E61.54414
G1 X-.568 Y9.33 E63.57458
G1 X-.517 Y9.304 E63.58029
G1 X-0.098 Y9.062 E63.62857
G1 X0.168 Y8.894 E63.65996
G1 X0.258 Y8.833 E63.67081
G1 X0.311 Y8.796 E63.67726
G1 X-14.424 Y-5.939 E65.75653
G1 X-14.369 Y-6.023 E65.76655
G1 X-14.17 Y-6.304 E65.8009
G1 X-13.82 Y-6.749 E65.8574
G1 X1.12 Y8.191 E67.96559
G1 X1.513 Y7.86 E68.01686
G1 X1.923 Y7.58 E68.0664
G1 X-13.148 Y-7.491 E70.19308
G1 X-12.911 Y-7.725 E70.22631
G1 X-12.855 Y-7.776 E70.23387
G1 X-12.495 Y-8.094 E70.2818
G1 X-12.409 Y-8.167 E70.29305
G1 X2.824 Y7.066 E72.4426
G1 X2.954 Y7.005 E72.45692
G1 X3.604 Y6.792 E72.52517
G1 X3.906 Y6.734 E72.55586
G1 X-11.6 Y-8.772 E74.74392
G1 X-11.464 Y-8.866 E74.76042
G1 X-11.329 Y-8.953 E74.77644
G1 X-10.943 Y-9.189 E74.82159
G1 X-10.825 Y-9.256 E74.83513
G1 X-10.725 Y-9.311 E74.84652
G1 X5.207 Y6.621 E77.09469
G1 X6.621 Y6.621 E77.23578
G1 X-9.774 Y-9.774 E79.54929
G1 X-9.677 Y-9.813 E79.55973
G1 X-9.198 Y-9.998 E79.61096
G1 X-8.913 Y-10.095 E79.641
G1 X-8.791 Y-10.132 E79.65372
G1 X-8.734 Y-10.148 E79.65963
G1 X8.035 Y6.621 E82.02592
G1 X9.449 Y6.621 E82.167
G1 X-7.599 Y-10.427 E84.57266
G1 X-7.376 Y-10.472 E84.59536
G1 X-7.07 Y-10.518 E84.62624
G1 X-6.936 Y-10.535 E84.63971
G1 X-6.448 Y-10.584 E84.68865
G1 X-6.349 Y-10.592 E84.69856
G1 X10.863 Y6.621 E87.12743
G1 X12.278 Y6.621 E87.26862
G1 X-4.933 Y-10.59 E89.69728
G1 X-4.478 Y-10.554 E89.74282
G1 X-4.228 Y-10.523 E89.76796
G1 X-4.127 Y-10.508 E89.77815
G1 X-3.551 Y-10.412 E89.83641
G1 X-3.289 Y-10.356 E89.86315
G1 X-3.283 Y-10.354 E89.86378
G1 X13.641 Y6.57 E92.25194
G1 X13.859 Y6.536 E92.27395
G1 X14.007 Y6.501 E92.28913
G1 X14.34 Y6.4 E92.32385
G1 X14.497 Y6.339 E92.34065
G1 X14.719 Y6.234 E92.36516
G1 X-1.125 Y-9.61 E94.60092
G1 X-.934 Y-9.523 E94.62186
G1 X-.65 Y-9.376 E94.65377
G1 X-.517 Y-9.304 E94.66886
G1 X-.106 Y-9.066 E94.71625
G1 X0.16 Y-8.9 E94.74753
G1 X0.252 Y-8.838 E94.7586
G1 X0.736 Y-8.498 E94.81762
G1 X0.941 Y-8.341 E94.84339
G1 X1.029 Y-8.27 E94.85467
G1 X1.765 Y-7.645 E94.95101
G1 X1.778 Y-7.661 E94.95307
G1 X1.856 Y-7.597 E94.96314
G1 X2.439 Y-7.242 E95.03125
G1 X2.833 Y-7.066 E95.0743
G1 X15.558 Y5.658 E96.86987
G1 X15.627 Y5.598 E96.87899
G1 X15.759 Y5.465 E96.89769
G1 X15.962 Y5.224 E96.92913
G1 X16.065 Y5.086 E96.94631
G1 X16.195 Y4.881 E96.97053
G1 X4.678 Y-6.635 E98.59564
G1 X4.945 Y-6.621 E98.62231
G1 X6.106 Y-6.621 E98.73816
G1 X16.612 Y3.884 E100.2206
G1 X16.617 Y3.865 E100.22256
G1 X16.657 Y3.68 E100.24145
G1 X16.701 Y3.37 E100.27269
G1 X16.719 Y3.114 E100.29829
G1 X16.727 Y2.904 E100.31926
G1 X16.727 Y2.585 E100.35109
G1 X7.52 Y-6.621 E101.65023
G1 X8.935 Y-6.621 E101.79142
G1 X16.699 Y1.142 E102.88693
G1 X16.694 Y1.096 E102.89155
G1 X16.65 Y0.816 E102.91983
G1 X16.59 Y-0.062 E103.00764
G1 X16.612 Y-.357 E103.03716
G1 X10.349 Y-6.621 E103.92101
G1 X11.763 Y-6.621 E104.0621
G1 X16.727 Y-1.657 E104.76257
G1 X16.727 Y-2.921 E104.88869
G1 X16.722 Y-3.076 E104.90417
G1 X13.183 Y-6.615 E105.40356
G1 X13.221 Y-6.614 E105.40735
G1 X13.476 Y-6.595 E105.43287
G1 X13.785 Y-6.552 E105.464
G1 X13.971 Y-6.511 E105.483
G1 X14.287 Y-6.421 E105.51578
G1 X14.456 Y-6.358 E105.53378
G1 X14.747 Y-6.226 E105.56566
G1 X14.917 Y-6.134 E105.58495
G1 X15.193 Y-5.96 E105.61751
G1 X15.336 Y-5.854 E105.63527
G1 X15.487 Y-5.725 E105.65508
G1 X15.803 Y-5.409 E105.69968
G1 X15.704 Y-5.523
G1 X15.571 Y-5.654 E105.7183
G1 X15.487 Y-5.725 E105.72928
G0 F600 X15.487 Y-5.725 Z0.86
G0 F3600 X13.229 Y-6.813
;TIME_ELAPSED:68.699983
;LAYER:-4
;TYPE:SUPPORT-INTERFACE
G1 F1200 X13.019 Y-6.821 E105.73627
G1 X4.951 Y-6.822 E106.00461
G1 X4.409 Y-6.851 E106.02266
G1 X3.761 Y-6.961 E106.04452
G1 X3.132 Y-7.151 E106.06638
G1 X3.024 Y-7.2 E106.07032
G1 X-13.697 Y-7.2 E106.62647
G1 X-13.647 Y-7.258 E106.62901
G1 X-13.32 Y-7.6 E106.64475
G1 X2.238 Y-7.6 E107.16221
G1 X1.97 Y-7.763 E107.17264
G1 X1.749 Y-7.94 E107.18206
G1 X1.741 Y-7.93 E107.18249
G1 X1.659 Y-8 E107.18607
G1 X-12.905 Y-8 E107.67047
G1 X-12.622 Y-8.251 E107.68306
G1 X-12.509 Y-8.346 E107.68797
G1 X-12.442 Y-8.4 E107.69083
G1 X1.186 Y-8.4 E108.1441
G1 X1.152 Y-8.428 E108.14556
G1 X1.07 Y-8.494 E108.14906
G1 X0.795 Y-8.704 E108.16057
G1 X0.657 Y-8.8 E108.16616
G1 X-11.913 Y-8.8 E108.58424
G1 X-11.847 Y-8.849 E108.58698
G1 X-11.577 Y-9.033 E108.59784
G1 X-11.434 Y-9.125 E108.6035
G1 X-11.31 Y-9.2 E108.60832
G1 X0.06 Y-9.2 E108.98649
G1 X-0.002 Y-9.238 E108.98891
G1 X-.425 Y-9.483 E109.00516
G1 X-.557 Y-9.555 E109.01016
G1 X-.643 Y-9.6 E109.01339
G1 X-10.609 Y-9.6 E109.34486
G1 X-10.594 Y-9.608 E109.34543
G1 X-10.205 Y-9.799 E109.35984
G1 X-10.061 Y-9.867 E109.36514
G1 X-9.858 Y-9.956 E109.37251
G1 X-9.757 Y-9.997 E109.37614
G1 X-9.749 Y-10 E109.37642
G1 X-1.502 Y-10 E109.65072
G1 X-1.622 Y-10.049 E109.65503
G1 X-1.752 Y-10.099 E109.65966
G1 X-2.215 Y-10.266 E109.67603
G1 X-2.311 Y-10.297 E109.67939
G1 X-2.551 Y-10.371 E109.68774
G1 X-2.652 Y-10.4 E109.69124
G1 X-8.587 Y-10.4 E109.88863
G1 X-8.348 Y-10.469 E109.89691
G1 X-8.271 Y-10.49 E109.89956
G1 X-8.021 Y-10.549 E109.90811
G1 X-7.917 Y-10.572 E109.91165
G1 X-7.417 Y-10.668 E109.92858
G1 X-7.311 Y-10.686 E109.93216
G1 X-7.098 Y-10.717 E109.93932
G1 X-6.965 Y-10.734 E109.94378
G1 X-6.459 Y-10.785 E109.96069
G1 X-6.342 Y-10.794 E109.96459
G1 X-6.221 Y-10.8 E109.96862
G1 X-5.024 Y-10.8 E110.00844
G1 X-5.037 Y-10.801
G1 X-5.166 Y-10.807 E110.01273
G1 X-5.367 Y-10.814 E110.01942
G1 X-5.51 Y-10.816 E110.02418
G1 X-6.001 Y-10.811 E110.04051
G1 X-6.221 Y-10.8 E110.04784
G0 F3600 X-15.676 Y-4
G1 F1200 X-15.507 Y-4.4 E110.06228
G1 X16.66 Y-4.399 E111.13216
G1 X16.633 Y-4.466 E111.13456
G1 X16.483 Y-4.785 E111.14628
G1 X16.476 Y-4.799 E111.1468
G1 X-15.318 Y-4.8 E112.20428
G1 X-15.287 Y-4.864 E112.20664
G1 X-15.108 Y-5.2 E112.21931
G1 X16.23 Y-5.199 E113.26161
G1 X16.21 Y-5.229 E113.26281
G1 X16.083 Y-5.395 E113.26976
G1 X15.905 Y-5.599 E113.27877
G1 X-14.88 Y-5.6 E114.30268
G1 X-14.828 Y-5.689 E114.30611
G1 X-14.624 Y-6 E114.31848
G1 X15.474 Y-5.999 E115.31954
G1 X15.464 Y-6.007 E115.31997
G1 X15.301 Y-6.128 E115.32672
G1 X15.014 Y-6.31 E115.33802
G1 X14.85 Y-6.399 E115.34423
G1 X-14.348 Y-6.4 E116.31536
G1 X-14.326 Y-6.432 E116.31665
G1 X-14.034 Y-6.8 E116.33228
G1 X13.432 Y-6.799 E117.2458
G1 X13.229 Y-6.813 E117.25257
G0 F3600 X-5.037 Y10.8
G1 F1200 X-4.51 Y10.759 E117.27015
G1 X-4.192 Y10.721 E117.2808
G1 X-4.089 Y10.706 E117.28426
G1 X-3.563 Y10.618 E117.302
G1 X-3.238 Y10.55 E117.31304
G1 X-3.129 Y10.524 E117.31677
G1 X-2.652 Y10.4 E117.33316
G1 X-8.59 Y10.4 E117.53066
G1 X-8.852 Y10.324 E117.53973
G1 X-9.187 Y10.214 E117.55146
G1 X-9.273 Y10.184 E117.55449
G1 X-9.75 Y10 E117.5715
G1 X-1.502 Y10 E117.84583
G1 X-1.404 Y9.96 E117.84935
G1 X-.839 Y9.7 E117.87003
G1 X-.758 Y9.66 E117.87304
G1 X-.644 Y9.6 E117.87732
G1 X-10.608 Y9.6 E118.20873
G1 X-10.751 Y9.527 E118.21407
G1 X-10.918 Y9.435 E118.22041
G1 X-11.048 Y9.36 E118.2254
G1 X-11.311 Y9.2 E118.23564
G1 X0.057 Y9.2 E118.61374
G1 X0.27 Y9.067 E118.62209
G1 X0.368 Y9.001 E118.62602
G1 X0.656 Y8.8 E118.6377
G1 X-11.914 Y8.8 E119.05578
G1 X-12.244 Y8.557 E119.06941
G1 X-12.325 Y8.495 E119.07281
G1 X-12.442 Y8.4 E119.07782
G1 X1.185 Y8.4 E119.53105
G1 X1.634 Y8.021 E119.5506
G1 X1.664 Y8 E119.55181
G1 X-12.906 Y7.999 E120.03641
G1 X-12.995 Y7.919 E120.0404
G1 X-13.051 Y7.868 E120.04291
G1 X-13.241 Y7.683 E120.05173
G1 X-13.322 Y7.599 E120.05562
G1 X2.249 Y7.6 E120.57351
G1 X2.432 Y7.475 E120.58088
G1 X3.012 Y7.2 E120.60223
G1 X-13.699 Y7.199 E121.15804
G1 X-13.875 Y6.998 E121.16693
G1 X-13.964 Y6.89 E121.17158
G1 X-14.036 Y6.799 E121.17544
G1 X13.381 Y6.8 E122.08733
G1 X13.534 Y6.788 E122.09244
G1 X13.897 Y6.732 E122.10465
G1 X14.08 Y6.689 E122.11091
G1 X14.407 Y6.59 E122.12227
G1 X14.572 Y6.525 E122.12817
G1 X14.838 Y6.4 E122.13794
G1 X-14.349 Y6.399 E123.10871
G1 X-14.538 Y6.133 E123.11956
G1 X-14.626 Y5.999 E123.12489
G1 X15.469 Y6 E124.12586
G1 X15.502 Y5.975 E124.12723
G1 X15.769 Y5.741 E124.13904
G1 X15.893 Y5.615 E124.14492
G1 X15.905 Y5.6 E124.14556
G1 X-14.883 Y5.599 E125.16957
G1 X-15.006 Y5.391 E125.17761
G1 X-15.109 Y5.199 E125.18486
G1 X16.229 Y5.2 E126.22716
G1 X16.238 Y5.189 E126.22764
G1 X16.42 Y4.901 E126.23897
G1 X16.474 Y4.8 E126.24278
G1 X-15.319 Y4.799 E127.30022
G1 X-15.442 Y4.548 E127.30951
G1 X-15.506 Y4.399 E127.31491
G1 X16.657 Y4.4 E128.38465
G1 X16.719 Y4.235 E128.39051
G1 X16.787 Y4 E128.39865
G1 X-15.677 Y3.999 E129.47841
G1 X-15.732 Y3.859 E129.48341
G1 X-15.827 Y3.599 E129.49262
G1 X16.871 Y3.6 E130.58016
G1 X16.902 Y3.382 E130.58748
G1 X16.915 Y3.2 E130.59355
G1 X-15.958 Y3.199 E131.68691
G1 X-15.988 Y3.105 E131.69019
G1 X-16.034 Y2.95 E131.69557
G1 X-16.075 Y2.799 E131.70077
G1 X16.928 Y2.8 E132.79846
G1 X16.928 Y2.4 E132.81176
G1 X-16.171 Y2.399 E133.91264
G1 X-16.249 Y2.049 E133.92457
G1 X-16.259 Y1.999 E133.92626
G1 X16.928 Y2 E135.03007
G1 X16.928 Y1.6 E135.04337
G1 X-16.325 Y1.599 E136.14937
G1 X-16.378 Y1.199 E136.16279
G1 X16.905 Y1.2 E137.26979
G1 X16.895 Y1.087 E137.27356
G1 X16.852 Y0.8 E137.28321
