;FLAVOR:Marlin
;TIME:6362
;Filament used: 1.20387m
;Layer height: 0.1
;MINX:-18.098
;MINY:-13.775
;MINZ:0.2
;MAXX:22.022
;MAXY:13.775
;MAXZ:14
;Generated with Cura_SteamEngine 4.13.1
M140 S70
M105
M190 S70
M104 S210
M105
M109 S210
M82 ;absolute extrusion mode
G28 ;Home
G1 Z15.0 F6000 ;Move the platform down 15mm
;Prime the extruder
G92 E0
G1 F200 E3
G92 E0
G92 E0
G92 E0
G1 F3900 E-6
;LAYER_COUNT:139
;LAYER:0
M106 S76.5
G0 F750 X-6.402 Y6.782 Z0.2
;TYPE:SKIRT
G1 F4200 E0.01123
G1 F750 X-11.257 Y6.782 E0.13233
G1 X-11.779 Y6.748 E0.14538
G1 X-12.594 Y6.642 E0.16588
G1 X-13.152 Y6.529 E0.18009
G1 X-13.531 Y6.405 E0.19003
G1 X-14.052 Y6.176 E0.20423
G1 X-14.627 Y5.827 E0.22101
G1 X-15.169 Y5.417 E0.23796
G1 X-15.567 Y5.019 E0.252
G1 X-15.708 Y4.857 E0.25736
G1 X-16.05 Y4.403 E0.27154
G1 X-16.326 Y3.905 E0.28574
G1 X-16.501 Y3.471 E0.29741
G1 X-16.664 Y2.926 E0.3116
G1 X-16.748 Y2.364 E0.32578
G1 X-16.761 Y2.051 E0.33359
G1 X-16.762 Y1.443 E0.34876
G1 X-16.737 Y0.927 E0.36165
G1 X-16.66 Y0.363 E0.37585
G1 X-16.556 Y-0.004 E0.38536
G1 X-16.653 Y-.33 E0.39385
G1 X-16.75 Y-1.172 E0.41499
G1 X-16.758 Y-1.997 E0.43557
G1 X-16.723 Y-2.565 E0.44977
G1 X-16.61 Y-3.122 E0.46394
G1 X-16.428 Y-3.636 E0.47754
G1 X-16.351 Y-3.815 E0.48241
G1 X-16.09 Y-4.321 E0.49661
G1 X-15.761 Y-4.785 E0.5108
G1 X-15.301 Y-5.26 E0.52729
G1 X-14.911 Y-5.602 E0.54023
G1 X-14.458 Y-5.946 E0.55442
G1 X-13.9 Y-6.251 E0.57028
G1 X-13.782 Y-6.304 E0.57351
G1 X-13.248 Y-6.501 E0.58771
G1 X-12.696 Y-6.619 E0.60179
G1 X-11.864 Y-6.738 E0.62275
G1 X-11.269 Y-6.782 E0.63764
G1 X-11.076 Y-6.782 E0.64245
G1 X-11.081 Y-6.834 E0.64375
G1 X-11.055 Y-7.402 E0.65794
G1 X-10.949 Y-7.961 E0.67213
G1 X-10.767 Y-8.5 E0.68632
G1 X-10.51 Y-9.008 E0.70052
G1 X-10.185 Y-9.475 E0.71472
G1 X-9.798 Y-9.891 E0.72889
G1 X-9.356 Y-10.25 E0.74309
G1 X-8.869 Y-10.543 E0.75727
G1 X-8.345 Y-10.764 E0.77146
G1 X-7.85 Y-10.898 E0.78425
G1 X-7.397 Y-11.109 E0.79672
G1 X-6.866 Y-11.312 E0.8109
G1 X-6.311 Y-11.439 E0.8251
G1 X-5.745 Y-11.487 E0.83927
G1 X-5.177 Y-11.454 E0.85346
G1 X-4.619 Y-11.343 E0.86765
G1 X-4.082 Y-11.154 E0.88185
G1 X-3.577 Y-10.892 E0.89605
G1 X-3.114 Y-10.562 E0.91023
G1 X-2.701 Y-10.17 E0.92443
G1 X-2.348 Y-9.725 E0.9386
G1 X-2.25 Y-9.558 E0.94343
G1 X0.595 Y-11.462 E1.02883
G1 X0.76 Y-11.566 E1.03369
G1 X1.523 Y-12.025 E1.0559
G1 X1.847 Y-12.201 E1.0651
G1 X2.647 Y-12.588 E1.08727
G1 X2.987 Y-12.733 E1.09649
G1 X3.831 Y-13.05 E1.11898
G1 X4.188 Y-13.166 E1.12834
G1 X5.063 Y-13.405 E1.15097
G1 X5.432 Y-13.487 E1.1604
G1 X6.306 Y-13.64 E1.18253
G1 X6.66 Y-13.686 E1.19144
G1 X7.528 Y-13.76 E1.21317
G1 X7.903 Y-13.775 E1.22253
G1 X8.809 Y-13.768 E1.24513
G1 X9.179 Y-13.748 E1.25438
G1 X10.053 Y-13.661 E1.27629
G1 X10.415 Y-13.608 E1.28541
G1 X11.301 Y-13.438 E1.30792
G1 X11.678 Y-13.347 E1.31759
G1 X12.52 Y-13.1 E1.33948
G1 X12.864 Y-12.982 E1.34855
G1 X13.725 Y-12.643 E1.37163
G1 X14.067 Y-12.49 E1.38098
G1 X14.861 Y-12.089 E1.40317
G1 X15.187 Y-11.905 E1.41251
G1 X15.946 Y-11.429 E1.43486
G1 X16.251 Y-11.217 E1.44412
G1 X16.961 Y-10.675 E1.4664
G1 X17.248 Y-10.435 E1.47574
G1 X17.893 Y-9.841 E1.49761
G1 X18.146 Y-9.586 E1.50657
G1 X18.754 Y-8.917 E1.52912
G1 X18.991 Y-8.631 E1.53839
G1 X19.527 Y-7.92 E1.5606
G1 X19.746 Y-7.598 E1.57031
G1 X20.229 Y-6.81 E1.59337
G1 X20.41 Y-6.483 E1.60269
G1 X20.793 Y-5.705 E1.62432
G1 X20.937 Y-5.374 E1.63333
G1 X21.262 Y-4.532 E1.65584
G1 X21.383 Y-4.168 E1.66541
G1 X21.617 Y-3.334 E1.68702
G1 X21.709 Y-2.953 E1.69679
G1 X21.872 Y-2.074 E1.71909
G1 X21.922 Y-1.713 E1.72818
G1 X22.004 Y-.835 E1.75018
G1 X22.022 Y-.458 E1.7596
G1 X22.022 Y0.456 E1.7824
G1 X22.004 Y0.837 E1.79191
G1 X21.92 Y1.727 E1.81421
G1 X21.871 Y2.08 E1.8231
G1 X21.711 Y2.948 E1.84512
G1 X21.625 Y3.317 E1.85457
G1 X21.387 Y4.158 E1.87637
G1 X21.271 Y4.507 E1.88555
G1 X20.941 Y5.366 E1.9085
G1 X20.791 Y5.709 E1.91784
G1 X20.397 Y6.506 E1.94002
G1 X20.218 Y6.83 E1.94925
G1 X19.746 Y7.599 E1.97176
G1 X19.531 Y7.914 E1.98127
G1 X18.995 Y8.627 E2.00352
G1 X18.736 Y8.935 E2.01356
G1 X18.149 Y9.582 E2.03535
G1 X17.896 Y9.838 E2.04433
G1 X17.252 Y10.432 E2.06619
G1 X16.963 Y10.675 E2.07561
G1 X16.25 Y11.219 E2.09798
G1 X15.944 Y11.43 E2.10725
G1 X15.188 Y11.904 E2.12951
G1 X14.859 Y12.09 E2.13894
G1 X14.043 Y12.501 E2.16173
G1 X13.708 Y12.651 E2.17088
G1 X12.89 Y12.974 E2.19282
G1 X12.54 Y13.094 E2.20205
G1 X11.675 Y13.347 E2.22453
G1 X11.305 Y13.437 E2.23403
G1 X10.419 Y13.608 E2.25654
G1 X10.053 Y13.661 E2.26577
G1 X9.178 Y13.748 E2.2877
G1 X8.808 Y13.768 E2.29694
G1 X7.903 Y13.775 E2.31952
G1 X7.522 Y13.76 E2.32903
G1 X6.634 Y13.683 E2.35127
G1 X6.284 Y13.637 E2.36007
G1 X5.407 Y13.483 E2.38228
G1 X5.027 Y13.397 E2.392
G1 X4.156 Y13.156 E2.41455
G1 X3.805 Y13.042 E2.42375
G1 X2.963 Y12.724 E2.4462
G1 X2.627 Y12.579 E2.45533
G1 X1.825 Y12.19 E2.47757
G1 X1.495 Y12.011 E2.48693
G1 X0.743 Y11.556 E2.50886
G1 X0.591 Y11.459 E2.51336
G1 X-1.034 Y10.374 E2.5621
G1 X-6.402 Y6.782 E2.72322
G0 X-6.311 Y6.482
G1 X-11.257 Y6.482 E2.84659
G1 X-11.741 Y6.451 E2.85869
G1 X-12.556 Y6.345 E2.87919
G1 X-13.338 Y6.156 E2.89926
G1 X-13.43 Y6.123 E2.9017
G1 X-13.93 Y5.901 E2.91535
G1 X-14.467 Y5.574 E2.93103
G1 X-14.968 Y5.194 E2.94672
G1 X-15.341 Y4.822 E2.95986
G1 X-15.482 Y4.66 E2.96521
G1 X-15.81 Y4.222 E2.97886
G1 X-16.162 Y3.52 E2.99845
G1 X-16.22 Y3.366 E3.00256
G1 X-16.375 Y2.841 E3.01621
G1 X-16.461 Y2.05 E3.03606
G1 X-16.462 Y1.442 E3.05123
G1 X-16.438 Y0.947 E3.06359
G1 X-16.362 Y0.405 E3.07724
G1 X-16.244 Y0.003 E3.08769
G1 X-16.377 Y-.476 E3.1001
G1 X-16.45 Y-1.175 E3.11763
G1 X-16.458 Y-2 E3.13821
G1 X-16.423 Y-2.546 E3.15186
G1 X-16.309 Y-3.081 E3.1655
G1 X-16.076 Y-3.697 E3.18193
G1 X-15.823 Y-4.183 E3.1956
G1 X-15.503 Y-4.626 E3.20923
G1 X-15.103 Y-5.034 E3.22348
G1 X-14.713 Y-5.376 E3.23642
G1 X-14.277 Y-5.706 E3.25006
G1 X-13.777 Y-5.978 E3.26426
G1 X-13.659 Y-6.031 E3.26749
G1 X-13.145 Y-6.218 E3.28113
G1 X-12.654 Y-6.322 E3.29365
G1 X-11.822 Y-6.441 E3.31462
G1 X-11.268 Y-6.482 E3.32847
G1 X-10.752 Y-6.483 E3.34135
G1 X-10.759 Y-6.522 E3.34233
G1 X-10.78 Y-7.069 E3.35599
G1 X-10.72 Y-7.613 E3.36964
G1 X-10.582 Y-8.142 E3.38328
G1 X-10.368 Y-8.646 E3.39694
G1 X-10.083 Y-9.114 E3.41061
G1 X-9.733 Y-9.535 E3.42426
G1 X-9.325 Y-9.9 E3.43792
G1 X-8.869 Y-10.202 E3.45156
G1 X-8.374 Y-10.435 E3.46521
G1 X-7.751 Y-10.614 E3.48138
G1 X-7.271 Y-10.837 E3.49458
G1 X-6.759 Y-11.031 E3.50824
G1 X-6.225 Y-11.149 E3.52188
G1 X-5.679 Y-11.187 E3.53554
G1 X-5.133 Y-11.145 E3.5492
G1 X-4.599 Y-11.025 E3.56285
G1 X-4.088 Y-10.828 E3.57651
G1 X-3.612 Y-10.558 E3.59016
G1 X-3.179 Y-10.223 E3.60382
G1 X-2.801 Y-9.827 E3.61747
G1 X-2.483 Y-9.381 E3.63114
G1 X-2.354 Y-9.127 E3.63824
G1 X0.762 Y-11.212 E3.73177
G1 X0.915 Y-11.309 E3.73629
G1 X1.678 Y-11.768 E3.7585
G1 X1.978 Y-11.931 E3.76702
G1 X2.778 Y-12.318 E3.78918
G1 X3.092 Y-12.453 E3.79771
G1 X3.936 Y-12.77 E3.8202
G1 X4.267 Y-12.876 E3.82887
G1 X5.142 Y-13.115 E3.8515
G1 X5.483 Y-13.192 E3.86022
G1 X6.357 Y-13.345 E3.88235
G1 X6.685 Y-13.387 E3.8906
G1 X7.553 Y-13.461 E3.91233
G1 X7.901 Y-13.475 E3.92102
G1 X8.807 Y-13.468 E3.94362
G1 X9.149 Y-13.45 E3.95216
G1 X10.023 Y-13.363 E3.97407
G1 X10.359 Y-13.314 E3.98254
G1 X11.245 Y-13.144 E4.00505
G1 X11.594 Y-13.059 E4.01401
G1 X12.436 Y-12.812 E4.0359
G1 X12.754 Y-12.703 E4.04428
G1 X13.615 Y-12.364 E4.06736
G1 X13.932 Y-12.222 E4.07603
G1 X14.726 Y-11.821 E4.09822
G1 X15.027 Y-11.651 E4.10684
G1 X15.786 Y-11.175 E4.12919
G1 X16.069 Y-10.979 E4.13778
G1 X16.779 Y-10.437 E4.16006
G1 X17.044 Y-10.214 E4.1687
G1 X17.689 Y-9.62 E4.19057
G1 X17.924 Y-9.384 E4.19888
G1 X18.532 Y-8.715 E4.22143
G1 X18.751 Y-8.45 E4.23001
G1 X19.287 Y-7.739 E4.25222
G1 X19.49 Y-7.442 E4.26119
G1 X19.973 Y-6.654 E4.28425
G1 X20.14 Y-6.35 E4.2929
G1 X20.523 Y-5.572 E4.31453
G1 X20.657 Y-5.266 E4.32286
G1 X20.982 Y-4.424 E4.34538
G1 X21.095 Y-4.087 E4.35424
G1 X21.329 Y-3.253 E4.37585
G1 X21.414 Y-2.899 E4.38493
G1 X21.577 Y-2.02 E4.40723
G1 X21.624 Y-1.685 E4.41567
G1 X21.706 Y-.807 E4.43767
G1 X21.722 Y-.458 E4.44638
G1 X21.722 Y0.456 E4.46918
G1 X21.705 Y0.808 E4.47797
G1 X21.621 Y1.698 E4.50027
G1 X21.576 Y2.026 E4.50853
G1 X21.416 Y2.894 E4.53055
G1 X21.336 Y3.235 E4.53929
G1 X21.098 Y4.076 E4.56109
G1 X20.991 Y4.4 E4.5696
G1 X20.661 Y5.259 E4.59256
G1 X20.522 Y5.576 E4.60119
G1 X20.128 Y6.373 E4.62337
G1 X19.962 Y6.673 E4.63192
G1 X19.49 Y7.442 E4.65443
G1 X19.291 Y7.733 E4.66322
G1 X18.755 Y8.446 E4.68547
G1 X18.514 Y8.734 E4.69484
G1 X17.927 Y9.381 E4.71663
G1 X17.692 Y9.617 E4.72494
G1 X17.048 Y10.211 E4.7468
G1 X16.781 Y10.436 E4.75551
G1 X16.068 Y10.98 E4.77788
G1 X15.785 Y11.176 E4.78646
G1 X15.029 Y11.65 E4.80872
G1 X14.724 Y11.822 E4.81746
G1 X13.908 Y12.233 E4.84025
G1 X13.598 Y12.372 E4.84872
G1 X12.78 Y12.695 E4.87066
G1 X12.456 Y12.806 E4.87921
G1 X11.591 Y13.059 E4.90169
G1 X11.249 Y13.142 E4.91047
G1 X10.363 Y13.313 E4.93298
G1 X10.023 Y13.363 E4.94155
G1 X9.148 Y13.45 E4.96348
G1 X8.806 Y13.468 E4.97203
G1 X7.901 Y13.475 E4.9946
G1 X7.548 Y13.461 E5.00341
G1 X6.66 Y13.384 E5.02565
G1 X6.335 Y13.341 E5.03383
G1 X5.458 Y13.187 E5.05604
G1 X5.107 Y13.108 E5.06501
G1 X4.236 Y12.867 E5.08756
G1 X3.911 Y12.761 E5.09608
G1 X3.069 Y12.443 E5.11854
G1 X2.757 Y12.309 E5.12701
G1 X1.955 Y11.92 E5.14924
G1 X1.651 Y11.754 E5.15788
G1 X0.899 Y11.299 E5.17981
G1 X0.758 Y11.21 E5.18397
G1 X-.867 Y10.125 E5.23271
G1 X-6.311 Y6.482 E5.39611
G0 X-6.22 Y6.182
G1 X-11.257 Y6.182 E5.52176
G1 X-11.702 Y6.153 E5.53288
G1 X-12.517 Y6.047 E5.55338
G1 X-13.237 Y5.873 E5.57186
G1 X-13.329 Y5.84 E5.5743
G1 X-14.007 Y5.509 E5.59312
G1 X-14.306 Y5.32 E5.60194
G1 X-14.768 Y4.971 E5.61639
G1 X-15.255 Y4.463 E5.63394
G1 X-15.569 Y4.042 E5.64704
G1 X-15.882 Y3.414 E5.66455
G1 X-15.94 Y3.26 E5.66865
G1 X-16.087 Y2.756 E5.68175
G1 X-16.161 Y2.05 E5.69945
G1 X-16.162 Y1.442 E5.71462
G1 X-16.139 Y0.966 E5.72651
G1 X-16.064 Y0.447 E5.73959
G1 X-15.926 Y-0.008 E5.75145
G1 X-15.97 Y-.111 E5.75424
G1 X-16.099 Y-.62 E5.76734
G1 X-16.15 Y-1.178 E5.78132
G1 X-16.158 Y-2.003 E5.8019
G1 X-16.123 Y-2.526 E5.81498
G1 X-16.009 Y-3.039 E5.82809
G1 X-15.8 Y-3.578 E5.84251
G1 X-15.557 Y-4.043 E5.85559
G1 X-15.245 Y-4.466 E5.86871
G1 X-14.906 Y-4.809 E5.88074
G1 X-14.516 Y-5.151 E5.89367
G1 X-14.096 Y-5.466 E5.90677
G1 X-13.655 Y-5.704 E5.91927
G1 X-13.537 Y-5.757 E5.9225
G1 X-13.043 Y-5.935 E5.9356
G1 X-12.611 Y-6.025 E5.9466
G1 X-11.779 Y-6.144 E5.96757
G1 X-11.267 Y-6.182 E5.98038
G1 X-10.395 Y-6.184 E6.00213
G1 X-10.413 Y-6.248 E6.00379
G1 X-10.478 Y-6.769 E6.01688
G1 X-10.463 Y-7.293 E6.02996
G1 X-10.369 Y-7.81 E6.04307
G1 X-10.197 Y-8.306 E6.05616
G1 X-9.952 Y-8.77 E6.06925
G1 X-9.64 Y-9.192 E6.08235
G1 X-9.267 Y-9.562 E6.09545
G1 X-8.842 Y-9.87 E6.10854
G1 X-8.375 Y-10.111 E6.12165
G1 X-7.711 Y-10.316 E6.13899
G1 X-7.657 Y-10.327 E6.14036
G1 X-7.145 Y-10.565 E6.15445
G1 X-6.653 Y-10.75 E6.16756
G1 X-6.139 Y-10.858 E6.18066
G1 X-5.615 Y-10.886 E6.19375
G1 X-5.093 Y-10.835 E6.20683
G1 X-4.584 Y-10.705 E6.21994
G1 X-4.101 Y-10.499 E6.23304
G1 X-3.655 Y-10.223 E6.24612
G1 X-3.256 Y-9.882 E6.25921
G1 X-2.913 Y-9.484 E6.27232
G1 X-2.634 Y-9.039 E6.28542
G1 X-2.48 Y-8.681 E6.29514
G1 X0.929 Y-10.963 E6.39748
G1 X1.07 Y-11.052 E6.40163
G1 X1.833 Y-11.511 E6.42385
G1 X2.109 Y-11.661 E6.43168
G1 X2.909 Y-12.048 E6.45385
G1 X3.198 Y-12.172 E6.4617
G1 X4.042 Y-12.489 E6.48419
G1 X4.346 Y-12.587 E6.49215
G1 X5.221 Y-12.826 E6.51478
G1 X5.535 Y-12.896 E6.5228
G1 X6.409 Y-13.049 E6.54494
G1 X6.711 Y-13.089 E6.55254
G1 X7.579 Y-13.163 E6.57427
G1 X7.899 Y-13.175 E6.58226
G1 X8.805 Y-13.168 E6.60486
G1 X9.12 Y-13.151 E6.61273
G1 X9.994 Y-13.064 E6.63464
G1 X10.302 Y-13.019 E6.6424
G1 X11.188 Y-12.849 E6.66491
G1 X11.509 Y-12.771 E6.67315
G1 X12.351 Y-12.524 E6.69503
G1 X12.644 Y-12.424 E6.70276
G1 X13.505 Y-12.085 E6.72584
G1 X13.796 Y-11.955 E6.73379
G1 X14.59 Y-11.554 E6.75598
G1 X14.868 Y-11.397 E6.76394
G1 X15.627 Y-10.921 E6.78629
G1 X15.887 Y-10.74 E6.79419
G1 X16.597 Y-10.198 E6.81648
G1 X16.841 Y-9.994 E6.82441
G1 X17.486 Y-9.4 E6.84628
G1 X17.702 Y-9.182 E6.85394
G1 X18.31 Y-8.513 E6.87649
G1 X18.512 Y-8.27 E6.88437
G1 X19.048 Y-7.559 E6.90658
G1 X19.234 Y-7.285 E6.91484
G1 X19.717 Y-6.497 E6.9379
G1 X19.871 Y-6.218 E6.94585
G1 X20.254 Y-5.44 E6.96748
G1 X20.378 Y-5.158 E6.97516
G1 X20.703 Y-4.316 E6.99768
G1 X20.806 Y-4.006 E7.00583
G1 X21.04 Y-3.172 E7.02744
G1 X21.119 Y-2.844 E7.03585
G1 X21.282 Y-1.965 E7.05815
G1 X21.325 Y-1.657 E7.06591
G1 X21.407 Y-.779 E7.08791
G1 X21.422 Y-.458 E7.09592
G1 X21.422 Y0.456 E7.11872
G1 X21.407 Y0.78 E7.12681
G1 X21.323 Y1.67 E7.14911
G1 X21.281 Y1.971 E7.15669
G1 X21.121 Y2.839 E7.17871
G1 X21.048 Y3.153 E7.18675
G1 X20.81 Y3.994 E7.20856
G1 X20.711 Y4.292 E7.21639
G1 X20.381 Y5.151 E7.23934
G1 X20.253 Y5.443 E7.2473
G1 X19.859 Y6.24 E7.26947
G1 X19.706 Y6.516 E7.27735
G1 X19.234 Y7.285 E7.29985
G1 X19.052 Y7.553 E7.30794
G1 X18.516 Y8.266 E7.33019
G1 X18.292 Y8.532 E7.33886
G1 X17.705 Y9.179 E7.36065
G1 X17.489 Y9.397 E7.36831
G1 X16.845 Y9.991 E7.39016
G1 X16.599 Y10.198 E7.39818
G1 X15.886 Y10.742 E7.42055
G1 X15.626 Y10.922 E7.42844
G1 X14.87 Y11.396 E7.4507
G1 X14.589 Y11.554 E7.45874
G1 X13.773 Y11.965 E7.48153
G1 X13.488 Y12.093 E7.48933
G1 X12.67 Y12.416 E7.51127
G1 X12.371 Y12.518 E7.51915
G1 X11.506 Y12.771 E7.54163
G1 X11.192 Y12.847 E7.54969
G1 X10.306 Y13.018 E7.5722
G1 X9.993 Y13.064 E7.58009
G1 X9.118 Y13.151 E7.60202
G1 X8.804 Y13.168 E7.60987
G1 X7.899 Y13.175 E7.63244
G1 X7.574 Y13.162 E7.64056
G1 X6.686 Y13.085 E7.66279
G1 X6.387 Y13.046 E7.67031
G1 X5.51 Y12.892 E7.69252
G1 X5.187 Y12.819 E7.70079
G1 X4.316 Y12.578 E7.72333
G1 X4.017 Y12.48 E7.73118
G1 X3.175 Y12.162 E7.75363
G1 X2.888 Y12.039 E7.76142
G1 X2.086 Y11.65 E7.78365
G1 X1.806 Y11.498 E7.7916
G1 X1.054 Y11.043 E7.81353
G1 X0.924 Y10.96 E7.81737
G1 X-.701 Y9.875 E7.86611
G1 X-6.22 Y6.182 E8.03177
G0 X-6.129 Y5.883
G1 X-11.257 Y5.882 E8.15968
G1 X-11.663 Y5.856 E8.16983
G1 X-12.478 Y5.75 E8.19033
G1 X-13.136 Y5.591 E8.20722
G1 X-13.228 Y5.558 E8.20966
G1 X-13.847 Y5.256 E8.22684
G1 X-14.146 Y5.067 E8.23566
G1 X-14.568 Y4.748 E8.24886
G1 X-15.029 Y4.266 E8.2655
G1 X-15.327 Y3.863 E8.278
G1 X-15.601 Y3.308 E8.29344
G1 X-15.659 Y3.154 E8.29754
G1 X-15.798 Y2.672 E8.31006
G1 X-15.861 Y2.049 E8.32568
G1 X-15.862 Y1.441 E8.34084
G1 X-15.839 Y0.986 E8.35221
G1 X-15.766 Y0.49 E8.36471
G1 X-15.616 Y0.011 E8.37724
G1 X-15.706 Y-.27 E8.3846
G1 X-15.817 Y-.759 E8.3971
G1 X-15.85 Y-1.18 E8.40764
G1 X-15.858 Y-2.005 E8.42822
G1 X-15.823 Y-2.506 E8.44075
G1 X-15.709 Y-2.994 E8.45325
G1 X-15.525 Y-3.46 E8.46575
G1 X-15.29 Y-3.903 E8.47826
G1 X-14.989 Y-4.304 E8.49076
G1 X-14.708 Y-4.583 E8.50064
G1 X-14.318 Y-4.925 E8.51358
G1 X-13.916 Y-5.225 E8.52609
G1 X-13.414 Y-5.483 E8.54017
G1 X-12.941 Y-5.652 E8.5527
G1 X-12.569 Y-5.728 E8.56217
G1 X-11.737 Y-5.847 E8.58314
G1 X-11.267 Y-5.882 E8.59489
G1 X-9.994 Y-5.885 E8.62665
G1 X-10.045 Y-6.016 E8.63016
G1 X-10.153 Y-6.505 E8.64265
G1 X-10.181 Y-7.006 E8.65517
G1 X-10.13 Y-7.505 E8.66768
G1 X-9.999 Y-7.99 E8.68021
G1 X-9.794 Y-8.447 E8.6927
G1 X-9.519 Y-8.867 E8.70523
G1 X-9.18 Y-9.237 E8.71775
G1 X-8.787 Y-9.549 E8.73026
G1 X-8.35 Y-9.794 E8.74276
G1 X-7.652 Y-10.021 E8.76107
G1 X-7.56 Y-10.041 E8.76342
G1 X-7.018 Y-10.293 E8.77833
G1 X-6.548 Y-10.468 E8.79084
G1 X-6.056 Y-10.566 E8.80335
G1 X-5.555 Y-10.584 E8.81586
G1 X-5.057 Y-10.523 E8.82837
G1 X-4.575 Y-10.383 E8.84089
G1 X-4.121 Y-10.169 E8.85341
G1 X-3.708 Y-9.885 E8.86592
G1 X-3.344 Y-9.539 E8.87844
G1 X-3.04 Y-9.14 E8.89096
G1 X-2.804 Y-8.698 E8.90346
