;FLAVOR:Marlin
;TIME:4566
;Filament used: 1.12592m
;Layer height: 0.1
;MINX:-18.098
;MINY:-13.675
;MINZ:0.2
;MAXX:21.922
;MAXY:13.675
;MAXZ:14
;Generated with Cura_SteamEngine 4.13.1
M140 S60
M105
M190 S60
M104 S205
M105
M109 S205
M82 ;absolute extrusion mode
G28 ;Home
G1 Z15.0 F6000 ;Move the platform down 15mm
;Prime the extruder
G92 E0
G1 F200 E3
G92 E0
G92 E0
G92 E0
G1 F2400 E-5
;LAYER_COUNT:139
;LAYER:0
M107
G0 F900 X-6.371 Y6.682 Z0.2
;TYPE:SKIRT
G1 F2400 E0.01123
G1 F900 X-11.252 Y6.682 E0.13298
G1 X-11.777 Y6.648 E0.14611
G1 X-12.572 Y6.544 E0.16611
G1 X-13.13 Y6.431 E0.18031
G1 X-13.479 Y6.317 E0.18947
G1 X-14 Y6.089 E0.20365
G1 X-14.564 Y5.749 E0.22008
G1 X-15.022 Y5.412 E0.23427
G1 X-15.545 Y4.89 E0.2527
G1 X-15.9 Y4.446 E0.26688
G1 X-16.189 Y3.956 E0.28107
G1 X-16.403 Y3.448 E0.29482
G1 X-16.565 Y2.903 E0.309
G1 X-16.649 Y2.34 E0.3232
G1 X-16.661 Y2.033 E0.33087
G1 X-16.662 Y1.446 E0.34551
G1 X-16.641 Y0.977 E0.35722
G1 X-16.564 Y0.413 E0.37142
G1 X-16.445 Y-0.008 E0.38233
G1 X-16.552 Y-.366 E0.39165
G1 X-16.637 Y-.928 E0.40583
G1 X-16.65 Y-1.215 E0.413
G1 X-16.657 Y-1.979 E0.43206
G1 X-16.622 Y-2.547 E0.44625
G1 X-16.508 Y-3.104 E0.46044
G1 X-16.331 Y-3.608 E0.47376
G1 X-16.272 Y-3.746 E0.4775
G1 X-16.012 Y-4.252 E0.4917
G1 X-15.684 Y-4.717 E0.50589
G1 X-15.225 Y-5.193 E0.52239
G1 X-14.864 Y-5.511 E0.53439
G1 X-14.412 Y-5.856 E0.54857
G1 X-13.836 Y-6.171 E0.56495
G1 X-13.744 Y-6.212 E0.56746
G1 X-13.209 Y-6.407 E0.58166
G1 X-12.662 Y-6.523 E0.59561
G1 X-11.821 Y-6.642 E0.6168
G1 X-11.264 Y-6.682 E0.63073
G1 X-11.205 Y-6.682 E0.6322
G1 X-11.21 Y-6.734 E0.63351
G1 X-11.184 Y-7.302 E0.64769
G1 X-11.078 Y-7.861 E0.66188
G1 X-10.896 Y-8.4 E0.67607
G1 X-10.639 Y-8.908 E0.69027
G1 X-10.314 Y-9.375 E0.70447
G1 X-9.927 Y-9.791 E0.71864
G1 X-9.485 Y-10.15 E0.73285
G1 X-8.998 Y-10.443 E0.74702
G1 X-8.474 Y-10.664 E0.76121
G1 X-7.919 Y-10.811 E0.77553
G1 X-7.259 Y-11.153 E0.79407
G1 X-6.916 Y-11.32 E0.80359
G1 X-6.388 Y-11.531 E0.81777
G1 X-5.835 Y-11.666 E0.83197
G1 X-5.269 Y-11.722 E0.84616
G1 X-4.701 Y-11.699 E0.86034
G1 X-4.141 Y-11.596 E0.87455
G1 X-3.602 Y-11.415 E0.88873
G1 X-3.093 Y-11.161 E0.90292
G1 X-2.625 Y-10.838 E0.9171
G1 X-2.206 Y-10.452 E0.93131
G1 X-1.846 Y-10.012 E0.9455
G1 X-1.715 Y-9.796 E0.9518
G1 X0.649 Y-11.378 E1.02275
G1 X0.811 Y-11.48 E1.02753
G1 X1.549 Y-11.925 E1.04903
G1 X1.87 Y-12.1 E1.05815
G1 X2.681 Y-12.494 E1.08064
G1 X3.027 Y-12.643 E1.09004
G1 X3.858 Y-12.955 E1.11218
G1 X4.204 Y-13.067 E1.12125
G1 X5.051 Y-13.301 E1.14317
G1 X5.432 Y-13.387 E1.15291
G1 X6.319 Y-13.542 E1.17537
G1 X6.68 Y-13.588 E1.18445
G1 X7.556 Y-13.661 E1.20638
G1 X7.924 Y-13.675 E1.21557
G1 X8.805 Y-13.668 E1.23754
G1 X9.173 Y-13.648 E1.24674
G1 X10.04 Y-13.562 E1.26847
G1 X10.407 Y-13.509 E1.27772
G1 X11.283 Y-13.34 E1.29998
G1 X11.653 Y-13.25 E1.30947
G1 X12.504 Y-13.001 E1.33159
G1 X12.86 Y-12.879 E1.34098
G1 X13.692 Y-12.549 E1.36331
G1 X14.025 Y-12.399 E1.37242
G1 X14.813 Y-12.001 E1.39444
G1 X15.135 Y-11.82 E1.40365
G1 X15.88 Y-11.354 E1.42557
G1 X16.193 Y-11.137 E1.43508
G1 X16.899 Y-10.597 E1.45725
G1 X17.183 Y-10.358 E1.46651
G1 X17.836 Y-9.756 E1.48866
G1 X18.092 Y-9.498 E1.49773
G1 X18.682 Y-8.847 E1.51964
G1 X18.915 Y-8.565 E1.52877
G1 X19.445 Y-7.862 E1.55073
G1 X19.665 Y-7.538 E1.5605
G1 X20.14 Y-6.762 E1.5832
G1 X20.318 Y-6.44 E1.59237
G1 X20.699 Y-5.668 E1.61385
G1 X20.845 Y-5.336 E1.6229
G1 X21.167 Y-4.503 E1.64517
G1 X21.286 Y-4.144 E1.65461
G1 X21.527 Y-3.291 E1.67672
G1 X21.612 Y-2.93 E1.68597
G1 X21.773 Y-2.064 E1.70794
G1 X21.824 Y-1.699 E1.71714
G1 X21.905 Y-.828 E1.73896
G1 X21.922 Y-.453 E1.74832
G1 X21.922 Y0.451 E1.77087
G1 X21.904 Y0.831 E1.78036
G1 X21.821 Y1.712 E1.80244
G1 X21.772 Y2.067 E1.81138
G1 X21.614 Y2.923 E1.83309
G1 X21.528 Y3.292 E1.84254
G1 X21.286 Y4.146 E1.86468
G1 X21.166 Y4.503 E1.87408
G1 X20.838 Y5.351 E1.89676
G1 X20.691 Y5.686 E1.90588
G1 X20.309 Y6.458 E1.92737
G1 X20.129 Y6.784 E1.93666
G1 X19.661 Y7.545 E1.95895
G1 X19.444 Y7.862 E1.96853
G1 X18.906 Y8.575 E1.99081
G1 X18.673 Y8.856 E1.99992
G1 X18.081 Y9.509 E2.0219
G1 X17.826 Y9.767 E2.03095
G1 X17.186 Y10.357 E2.05266
G1 X16.896 Y10.6 E2.0621
G1 X16.19 Y11.138 E2.08424
G1 X15.891 Y11.345 E2.09332
G1 X15.142 Y11.816 E2.11539
G1 X14.806 Y12.006 E2.12502
G1 X14.003 Y12.41 E2.14744
G1 X13.671 Y12.559 E2.15652
G1 X12.856 Y12.881 E2.17838
G1 X12.506 Y13.001 E2.18761
G1 X11.652 Y13.251 E2.2098
G1 X11.278 Y13.341 E2.2194
G1 X10.403 Y13.509 E2.24162
G1 X10.033 Y13.563 E2.25095
G1 X9.154 Y13.649 E2.27298
G1 X8.792 Y13.668 E2.28203
G1 X7.909 Y13.675 E2.30405
G1 X7.532 Y13.66 E2.31347
G1 X6.655 Y13.585 E2.33542
G1 X6.299 Y13.539 E2.34438
G1 X5.428 Y13.386 E2.36644
G1 X5.047 Y13.3 E2.37618
G1 X4.185 Y13.061 E2.39849
G1 X3.841 Y12.949 E2.40752
G1 X3.025 Y12.642 E2.42927
G1 X2.683 Y12.495 E2.43855
G1 X1.873 Y12.102 E2.46101
G1 X1.546 Y11.924 E2.4703
G1 X0.8 Y11.473 E2.49204
G1 X0.643 Y11.373 E2.49669
G1 X-6.371 Y6.682 E2.70718
G0 X-6.28 Y6.382
G1 X-11.252 Y6.382 E2.8312
G1 X-11.738 Y6.35 E2.84335
G1 X-12.533 Y6.246 E2.86335
G1 X-13.305 Y6.061 E2.88316
G1 X-13.378 Y6.035 E2.88509
G1 X-13.879 Y5.814 E2.89875
G1 X-14.404 Y5.495 E2.91407
G1 X-14.844 Y5.17 E2.92772
G1 X-15.324 Y4.687 E2.9447
G1 X-15.664 Y4.258 E2.95836
G1 X-15.939 Y3.785 E2.97201
G1 X-16.122 Y3.343 E2.98394
G1 X-16.277 Y2.818 E2.99759
G1 X-16.361 Y2.032 E3.01731
G1 X-16.362 Y1.445 E3.03196
G1 X-16.341 Y0.996 E3.04317
G1 X-16.266 Y0.454 E3.05682
G1 X-16.134 Y0.00 E3.06861
G1 X-16.276 Y-.512 E3.08187
G1 X-16.35 Y-1.218 E3.09957
G1 X-16.357 Y-1.982 E3.11863
G1 X-16.322 Y-2.528 E3.13228
G1 X-16.208 Y-3.063 E3.14593
G1 X-15.996 Y-3.628 E3.16098
G1 X-15.745 Y-4.114 E3.17462
G1 X-15.425 Y-4.559 E3.1883
G1 X-15.027 Y-4.968 E3.20253
G1 X-14.666 Y-5.286 E3.21453
G1 X-14.23 Y-5.617 E3.22819
G1 X-13.713 Y-5.897 E3.24285
G1 X-13.621 Y-5.938 E3.24537
G1 X-13.107 Y-6.124 E3.259
G1 X-12.62 Y-6.226 E3.27141
G1 X-11.779 Y-6.345 E3.2926
G1 X-11.263 Y-6.382 E3.30551
G1 X-10.881 Y-6.383 E3.31504
G1 X-10.888 Y-6.422 E3.31602
G1 X-10.909 Y-6.969 E3.32968
G1 X-10.849 Y-7.513 E3.34333
G1 X-10.711 Y-8.042 E3.35697
G1 X-10.497 Y-8.546 E3.37063
G1 X-10.212 Y-9.014 E3.3843
G1 X-9.862 Y-9.435 E3.39795
G1 X-9.454 Y-9.8 E3.41161
G1 X-8.998 Y-10.102 E3.42525
G1 X-8.503 Y-10.335 E3.4389
G1 X-7.978 Y-10.493 E3.45258
G1 X-7.829 Y-10.518 E3.45635
G1 X-7.027 Y-10.933 E3.47887
G1 X-6.785 Y-11.05 E3.48558
G1 X-6.276 Y-11.252 E3.49924
G1 X-5.744 Y-11.377 E3.51287
G1 X-5.198 Y-11.424 E3.52654
G1 X-4.652 Y-11.39 E3.54019
G1 X-4.116 Y-11.278 E3.55385
G1 X-3.603 Y-11.089 E3.56748
G1 X-3.122 Y-10.826 E3.58116
G1 X-2.685 Y-10.497 E3.5948
G1 X-2.3 Y-10.108 E3.60846
G1 X-1.976 Y-9.667 E3.62211
G1 X-1.817 Y-9.366 E3.6306
G1 X0.816 Y-11.128 E3.70963
G1 X0.966 Y-11.223 E3.71406
G1 X1.704 Y-11.668 E3.73556
G1 X2.001 Y-11.83 E3.74399
G1 X2.812 Y-12.224 E3.76649
G1 X3.133 Y-12.362 E3.7752
G1 X3.964 Y-12.674 E3.79734
G1 X4.283 Y-12.778 E3.80571
G1 X5.13 Y-13.012 E3.82763
G1 X5.483 Y-13.091 E3.83666
G1 X6.37 Y-13.246 E3.85912
G1 X6.705 Y-13.289 E3.86754
G1 X7.581 Y-13.362 E3.88947
G1 X7.922 Y-13.375 E3.89798
G1 X8.803 Y-13.368 E3.91996
G1 X9.143 Y-13.35 E3.92845
G1 X10.01 Y-13.264 E3.95019
G1 X10.35 Y-13.214 E3.95876
G1 X11.226 Y-13.045 E3.98102
G1 X11.569 Y-12.962 E3.98982
G1 X12.42 Y-12.713 E4.01194
G1 X12.75 Y-12.6 E4.02064
G1 X13.582 Y-12.27 E4.04297
G1 X13.89 Y-12.131 E4.05139
G1 X14.678 Y-11.733 E4.07342
G1 X14.976 Y-11.565 E4.08195
G1 X15.721 Y-11.099 E4.10387
G1 X16.01 Y-10.899 E4.11264
G1 X16.716 Y-10.359 E4.13481
G1 X16.98 Y-10.137 E4.14341
G1 X17.633 Y-9.535 E4.16557
G1 X17.87 Y-9.296 E4.17397
G1 X18.46 Y-8.645 E4.19588
G1 X18.675 Y-8.384 E4.20432
G1 X19.205 Y-7.681 E4.22628
G1 X19.409 Y-7.382 E4.23531
G1 X19.884 Y-6.606 E4.258
G1 X20.049 Y-6.308 E4.2665
G1 X20.43 Y-5.536 E4.28798
G1 X20.565 Y-5.228 E4.29636
G1 X20.887 Y-4.395 E4.31864
G1 X20.998 Y-4.063 E4.32737
G1 X21.239 Y-3.21 E4.34949
G1 X21.317 Y-2.875 E4.35807
G1 X21.478 Y-2.009 E4.38004
G1 X21.525 Y-1.671 E4.38855
G1 X21.606 Y-.8 E4.41037
G1 X21.622 Y-.453 E4.41904
G1 X21.622 Y0.451 E4.44159
G1 X21.605 Y0.803 E4.45038
G1 X21.522 Y1.684 E4.47245
G1 X21.477 Y2.013 E4.48074
G1 X21.319 Y2.869 E4.50245
G1 X21.239 Y3.21 E4.51119
G1 X20.997 Y4.064 E4.53333
G1 X20.886 Y4.395 E4.54204
G1 X20.558 Y5.243 E4.56472
G1 X20.422 Y5.553 E4.57316
G1 X20.04 Y6.325 E4.59465
G1 X19.873 Y6.626 E4.60324
G1 X19.405 Y7.387 E4.62552
G1 X19.204 Y7.682 E4.63443
G1 X18.666 Y8.395 E4.65671
G1 X18.451 Y8.655 E4.66512
G1 X17.859 Y9.308 E4.68711
G1 X17.623 Y9.546 E4.69547
G1 X16.983 Y10.136 E4.71718
G1 X16.714 Y10.362 E4.72595
G1 X16.008 Y10.9 E4.74809
G1 X15.731 Y11.092 E4.7565
G1 X14.982 Y11.563 E4.77857
G1 X14.671 Y11.738 E4.78747
G1 X13.868 Y12.142 E4.80989
G1 X13.561 Y12.28 E4.81829
G1 X12.746 Y12.602 E4.84015
G1 X12.422 Y12.713 E4.84869
G1 X11.568 Y12.963 E4.87089
G1 X11.221 Y13.047 E4.8798
G1 X10.346 Y13.215 E4.90202
G1 X10.004 Y13.264 E4.91064
G1 X9.125 Y13.35 E4.93267
G1 X8.79 Y13.368 E4.94104
G1 X7.907 Y13.375 E4.96307
G1 X7.557 Y13.361 E4.9718
G1 X6.68 Y13.286 E4.99376
G1 X6.351 Y13.243 E5.00204
G1 X5.48 Y13.09 E5.0241
G1 X5.127 Y13.011 E5.03312
G1 X4.265 Y12.772 E5.05544
G1 X3.947 Y12.668 E5.06378
G1 X3.131 Y12.361 E5.08553
G1 X2.814 Y12.225 E5.09413
G1 X2.004 Y11.832 E5.11659
G1 X1.701 Y11.667 E5.1252
G1 X0.955 Y11.216 E5.14694
G1 X0.81 Y11.124 E5.15123
G1 X-6.28 Y6.382 E5.364
G0 X-6.189 Y6.082
G1 X-11.252 Y6.082 E5.4903
G1 X-11.7 Y6.053 E5.5015
G1 X-12.495 Y5.949 E5.5215
G1 X-13.205 Y5.778 E5.53971
G1 X-13.278 Y5.752 E5.54165
G1 X-13.961 Y5.419 E5.5606
G1 X-14.243 Y5.241 E5.56892
G1 X-14.665 Y4.928 E5.58203
G1 X-15.103 Y4.484 E5.59758
G1 X-15.429 Y4.072 E5.61069
G1 X-15.688 Y3.615 E5.62379
G1 X-15.841 Y3.237 E5.63397
G1 X-15.988 Y2.733 E5.64706
G1 X-16.061 Y2.032 E5.66464
G1 X-16.062 Y1.445 E5.67929
G1 X-16.042 Y1.015 E5.69002
G1 X-15.968 Y0.496 E5.7031
G1 X-15.813 Y-0.016 E5.71645
G1 X-15.868 Y-.147 E5.71999
G1 X-15.998 Y-.656 E5.73309
G1 X-16.05 Y-1.22 E5.74722
G1 X-16.057 Y-1.984 E5.76628
G1 X-16.022 Y-2.508 E5.77938
G1 X-15.907 Y-3.021 E5.7925
G1 X-15.72 Y-3.51 E5.80556
G1 X-15.478 Y-3.976 E5.81865
G1 X-15.167 Y-4.399 E5.83175
G1 X-14.467 Y-5.061 E5.85578
G1 X-14.048 Y-5.377 E5.86888
G1 X-13.591 Y-5.623 E5.88182
G1 X-13.499 Y-5.664 E5.88434
G1 X-13.005 Y-5.841 E5.89743
G1 X-12.578 Y-5.929 E5.9083
G1 X-11.737 Y-6.048 E5.92949
G1 X-11.262 Y-6.082 E5.94137
G1 X-10.524 Y-6.084 E5.95978
G1 X-10.542 Y-6.148 E5.96144
G1 X-10.607 Y-6.669 E5.97453
G1 X-10.592 Y-7.193 E5.98761
G1 X-10.498 Y-7.71 E6.00072
G1 X-10.326 Y-8.206 E6.01381
G1 X-10.081 Y-8.67 E6.0269
G1 X-9.769 Y-9.092 E6.03999
G1 X-9.396 Y-9.462 E6.0531
G1 X-8.971 Y-9.77 E6.06619
G1 X-8.504 Y-10.011 E6.0793
G1 X-8.007 Y-10.178 E6.09238
G1 X-7.739 Y-10.227 E6.09918
G1 X-6.897 Y-10.663 E6.12283
G1 X-6.655 Y-10.78 E6.12953
G1 X-6.166 Y-10.972 E6.14264
G1 X-5.654 Y-11.087 E6.15573
G1 X-5.13 Y-11.124 E6.16883
G1 X-4.607 Y-11.081 E6.18192
G1 X-4.096 Y-10.958 E6.19503
G1 X-3.61 Y-10.76 E6.20813
G1 X-3.16 Y-10.49 E6.22122
G1 X-2.756 Y-10.155 E6.23431
G1 X-2.407 Y-9.763 E6.2474
G1 X-2.122 Y-9.322 E6.2605
G1 X-1.942 Y-8.921 E6.27146
G1 X0.983 Y-10.879 E6.35927
G1 X1.121 Y-10.966 E6.36334
G1 X1.859 Y-11.411 E6.38483
G1 X2.132 Y-11.56 E6.39259
G1 X2.943 Y-11.954 E6.41508
G1 X3.238 Y-12.081 E6.42309
G1 X4.069 Y-12.393 E6.44524
G1 X4.363 Y-12.488 E6.45294
G1 X5.21 Y-12.722 E6.47486
G1 X5.535 Y-12.796 E6.48318
G1 X6.422 Y-12.951 E6.50564
G1 X6.729 Y-12.99 E6.51336
G1 X7.605 Y-13.063 E6.53529
G1 X7.919 Y-13.075 E6.54313
G1 X8.8 Y-13.068 E6.5651
G1 X9.114 Y-13.051 E6.57295
G1 X9.981 Y-12.965 E6.59468
G1 X10.294 Y-12.92 E6.60257
G1 X11.17 Y-12.751 E6.62482
G1 X11.485 Y-12.674 E6.63291
G1 X12.336 Y-12.425 E6.65503
G1 X12.639 Y-12.321 E6.66302
G1 X13.471 Y-11.991 E6.68535
G1 X13.754 Y-11.863 E6.6931
G1 X14.542 Y-11.465 E6.71512
G1 X14.817 Y-11.311 E6.72298
G1 X15.562 Y-10.845 E6.7449
G1 X15.828 Y-10.66 E6.75298
G1 X16.534 Y-10.12 E6.77516
G1 X16.776 Y-9.917 E6.78304
G1 X17.429 Y-9.315 E6.80519
G1 X17.647 Y-9.095 E6.81292
G1 X18.237 Y-8.444 E6.83483
G1 X18.436 Y-8.204 E6.84261
G1 X18.966 Y-7.501 E6.86457
G1 X19.154 Y-7.225 E6.8729
G1 X19.629 Y-6.449 E6.8956
G1 X19.78 Y-6.175 E6.9034
G1 X20.161 Y-5.403 E6.92488
G1 X20.285 Y-5.12 E6.93258
G1 X20.607 Y-4.287 E6.95486
G1 X20.709 Y-3.981 E6.96291
G1 X20.95 Y-3.128 E6.98502
G1 X21.022 Y-2.821 E6.99289
G1 X21.183 Y-1.955 E7.01486
G1 X21.226 Y-1.643 E7.02271
G1 X21.307 Y-.772 E7.04454
G1 X21.322 Y-.453 E7.0525
G1 X21.322 Y0.451 E7.07505
G1 X21.307 Y0.775 E7.08314
G1 X21.224 Y1.656 E7.10522
G1 X21.182 Y1.958 E7.11282
G1 X21.024 Y2.814 E7.13454
G1 X20.95 Y3.129 E7.14261
G1 X20.708 Y3.983 E7.16475
G1 X20.607 Y4.287 E7.17274
G1 X20.279 Y5.135 E7.19542
G1 X20.153 Y5.42 E7.20319
G1 X19.771 Y6.192 E7.22468
G1 X19.618 Y6.469 E7.23257
G1 X19.15 Y7.23 E7.25486
G1 X18.965 Y7.501 E7.26305
G1 X18.427 Y8.214 E7.28533
G1 X18.229 Y8.453 E7.29307
G1 X17.637 Y9.106 E7.31506
G1 X17.419 Y9.326 E7.32278
G1 X16.779 Y9.916 E7.3445
G1 X16.532 Y10.123 E7.35253
G1 X15.826 Y10.661 E7.37468
G1 X15.572 Y10.838 E7.3824
G1 X14.823 Y11.309 E7.40447
G1 X14.537 Y11.47 E7.41266
G1 X13.734 Y11.874 E7.43508
G1 X13.451 Y12.001 E7.44282
G1 X12.636 Y12.323 E7.46468
G1 X12.337 Y12.425 E7.47256
G1 X11.483 Y12.675 E7.49476
G1 X11.165 Y12.752 E7.50292
G1 X10.29 Y12.92 E7.52514
G1 X9.975 Y12.966 E7.53308
G1 X9.096 Y13.052 E7.55512
G1 X8.787 Y13.068 E7.56283
G1 X7.904 Y13.075 E7.58486
G1 X7.583 Y13.062 E7.59287
G1 X6.706 Y12.987 E7.61483
G1 X6.403 Y12.948 E7.62245
G1 X5.532 Y12.795 E7.64451
G1 X5.207 Y12.722 E7.65282
G1 X4.345 Y12.483 E7.67513
G1 X4.052 Y12.387 E7.68283
G1 X3.236 Y12.08 E7.70457
G1 X2.945 Y11.955 E7.71247
G1 X2.135 Y11.562 E7.73493
G1 X1.856 Y11.41 E7.74286
G1 X1.11 Y10.959 E7.7646
G1 X0.977 Y10.875 E7.76853
G1 X-6.189 Y6.082 E7.98358
G0 X-6.096 Y5.783
G1 X-11.252 Y5.782 E8.1122
G1 X-11.661 Y5.755 E8.12243
G1 X-12.456 Y5.651 E8.14243
G1 X-13.104 Y5.495 E8.15905
G1 X-13.177 Y5.469 E8.16098
G1 X-13.801 Y5.166 E8.17829
G1 X-14.083 Y4.988 E8.18661
G1 X-14.485 Y4.687 E8.19913
G1 X-14.883 Y4.28 E8.21333
G1 X-15.192 Y3.886 E8.22583
G1 X-15.515 Y3.252 E8.24357
G1 X-15.56 Y3.132 E8.24677
G1 X-15.699 Y2.65 E8.25929
G1 X-15.761 Y2.031 E8.2748
G1 X-15.762 Y1.444 E8.28945
G1 X-15.742 Y1.035 E8.29966
G1 X-15.67 Y0.538 E8.31219
G1 X-15.52 Y0.06 E8.32469
G1 X-15.485 Y-0.01 E8.32664
G1 X-15.605 Y-.307 E8.33463
G1 X-15.717 Y-.796 E8.34714
G1 X-15.75 Y-1.223 E8.35783
G1 X-15.757 Y-1.987 E8.37688
G1 X-15.722 Y-2.487 E8.38939
G1 X-15.607 Y-2.976 E8.40192
G1 X-15.444 Y-3.392 E8.41306
G1 X-15.211 Y-3.836 E8.42557
G1 X-14.91 Y-4.238 E8.4381
G1 X-14.269 Y-4.836 E8.45997
G1 X-13.868 Y-5.136 E8.47246
G1 X-13.377 Y-5.39 E8.48625
G1 X-12.904 Y-5.557 E8.49876
G1 X-12.536 Y-5.632 E8.50813
G1 X-11.695 Y-5.751 E8.52932
G1 X-11.262 Y-5.782 E8.54015
G1 X-10.123 Y-5.785 E8.56856
G1 X-10.174 Y-5.916 E8.57207
G1 X-10.282 Y-6.405 E8.58456
G1 X-10.31 Y-6.906 E8.59708
G1 X-10.259 Y-7.405 E8.60959
G1 X-10.128 Y-7.89 E8.62212
G1 X-9.923 Y-8.347 E8.63461
G1 X-9.648 Y-8.767 E8.64714
G1 X-9.309 Y-9.137 E8.65966
G1 X-8.916 Y-9.449 E8.67217
G1 X-8.479 Y-9.694 E8.68467
G1 X-8.008 Y-9.867 E8.69719
G1 X-7.645 Y-9.939 E8.70642
G1 X-6.766 Y-10.393 E8.7311
G1 X-6.524 Y-10.51 E8.7378
G1 X-6.057 Y-10.692 E8.7503
G1 X-5.566 Y-10.797 E8.76283
G1 X-5.065 Y-10.823 E8.77534
G1 X-4.566 Y-10.769 E8.78786
G1 X-4.083 Y-10.637 E8.80035
G1 X-3.626 Y-10.429 E8.81288
G1 X-3.208 Y-10.152 E8.82539
G1 X-2.839 Y-9.812 E8.8379
G1 X-2.529 Y-9.417 E8.85043
G1 X-2.286 Y-8.979 E8.86292
G1 X-2.115 Y-8.507 E8.87545
G1 X-2.104 Y-8.451 E8.87687
G1 X1.15 Y-10.63 E8.97456
G1 X1.275 Y-10.71 E8.97826
G1 X2.013 Y-11.155 E8.99976
G1 X2.264 Y-11.29 E9.00687
G1 X3.075 Y-11.684 E9.02936
G1 X3.344 Y-11.8 E9.03667
G1 X4.175 Y-12.112 E9.05881
G1 X4.443 Y-12.199 E9.06584
G1 X5.29 Y-12.433 E9.08776
G1 X5.587 Y-12.5 E9.09535
G1 X6.474 Y-12.655 E9.11782
G1 X6.754 Y-12.691 E9.12486
G1 X7.63 Y-12.764 E9.14679
G1 X7.917 Y-12.775 E9.15395
G1 X8.798 Y-12.768 E9.17593
G1 X9.084 Y-12.753 E9.18307
G1 X9.951 Y-12.667 E9.20481
G1 X10.237 Y-12.625 E9.21202
G1 X11.113 Y-12.456 E9.23427
