;FLAVOR:Marlin
;TIME:4543
;Filament used: 1.16418m
;Layer height: 0.1
;MINX:-18.098
;MINY:-13.675
;MINZ:0.2
;MAXX:21.922
;MAXY:13.675
;MAXZ:14
;Generated with Cura_SteamEngine 4.13.1
M140 S55
M105
M190 S55
M104 S205
M105
M109 S205
M82 ;absolute extrusion mode
G28 ;Home
G1 Z15.0 F6000 ;Move the platform down 15mm
;Prime the extruder
G92 E0
G1 F200 E3
G92 E0
G92 E0
G92 E0
G1 F2400 E-5
;LAYER_COUNT:139
;LAYER:0
M107
G0 F900 X-6.364 Y-6.683 Z0.2
;TYPE:SKIRT
G1 F2400 E0.01123
G1 F900 X0.649 Y-11.378 E0.22175
G1 X0.811 Y-11.48 E0.22652
G1 X1.549 Y-11.925 E0.24802
G1 X1.87 Y-12.1 E0.25714
G1 X2.681 Y-12.494 E0.27963
G1 X3.027 Y-12.643 E0.28903
G1 X3.858 Y-12.955 E0.31117
G1 X4.204 Y-13.067 E0.32025
G1 X5.051 Y-13.301 E0.34217
G1 X5.432 Y-13.387 E0.35191
G1 X6.319 Y-13.542 E0.37437
G1 X6.68 Y-13.588 E0.38345
G1 X7.556 Y-13.661 E0.40538
G1 X7.924 Y-13.675 E0.41456
G1 X8.805 Y-13.668 E0.43654
G1 X9.173 Y-13.648 E0.44573
G1 X10.04 Y-13.562 E0.46747
G1 X10.407 Y-13.509 E0.47672
G1 X11.283 Y-13.34 E0.49897
G1 X11.653 Y-13.25 E0.50847
G1 X12.504 Y-13.001 E0.53059
G1 X12.86 Y-12.879 E0.53998
G1 X13.692 Y-12.549 E0.5623
G1 X14.025 Y-12.399 E0.57141
G1 X14.813 Y-12.001 E0.59344
G1 X15.135 Y-11.82 E0.60265
G1 X15.88 Y-11.354 E0.62457
G1 X16.193 Y-11.137 E0.63407
G1 X16.899 Y-10.597 E0.65624
G1 X17.183 Y-10.358 E0.6655
G1 X17.836 Y-9.756 E0.68766
G1 X18.092 Y-9.498 E0.69672
G1 X18.682 Y-8.847 E0.71864
G1 X18.915 Y-8.565 E0.72776
G1 X19.445 Y-7.862 E0.74973
G1 X19.665 Y-7.538 E0.7595
G1 X20.14 Y-6.762 E0.78219
G1 X20.318 Y-6.44 E0.79137
G1 X20.699 Y-5.668 E0.81284
G1 X20.845 Y-5.336 E0.82189
G1 X21.167 Y-4.503 E0.84417
G1 X21.286 Y-4.144 E0.8536
G1 X21.527 Y-3.291 E0.87572
G1 X21.612 Y-2.93 E0.88497
G1 X21.773 Y-2.064 E0.90694
G1 X21.824 Y-1.699 E0.91613
G1 X21.905 Y-.828 E0.93795
G1 X21.922 Y-.453 E0.94732
G1 X21.922 Y0.451 E0.96987
G1 X21.904 Y0.831 E0.97936
G1 X21.821 Y1.712 E1.00143
G1 X21.772 Y2.067 E1.01037
G1 X21.614 Y2.923 E1.03208
G1 X21.528 Y3.292 E1.04154
G1 X21.286 Y4.146 E1.06368
G1 X21.166 Y4.503 E1.07307
G1 X20.838 Y5.351 E1.09575
G1 X20.691 Y5.686 E1.10488
G1 X20.309 Y6.458 E1.12637
G1 X20.129 Y6.784 E1.13566
G1 X19.661 Y7.545 E1.15794
G1 X19.444 Y7.862 E1.16752
G1 X18.906 Y8.575 E1.1898
G1 X18.673 Y8.856 E1.19891
G1 X18.081 Y9.509 E1.2209
G1 X17.826 Y9.767 E1.22995
G1 X17.186 Y10.357 E1.25166
G1 X16.896 Y10.6 E1.2611
G1 X16.19 Y11.138 E1.28324
G1 X15.891 Y11.345 E1.29231
G1 X15.142 Y11.816 E1.31438
G1 X14.806 Y12.006 E1.32401
G1 X14.003 Y12.41 E1.34643
G1 X13.671 Y12.559 E1.35551
G1 X12.856 Y12.881 E1.37737
G1 X12.506 Y13.001 E1.3866
G1 X11.652 Y13.251 E1.4088
G1 X11.278 Y13.341 E1.41839
G1 X10.403 Y13.509 E1.44062
G1 X10.033 Y13.563 E1.44995
G1 X9.154 Y13.649 E1.47198
G1 X8.792 Y13.668 E1.48102
G1 X7.909 Y13.675 E1.50305
G1 X7.532 Y13.66 E1.51246
G1 X6.655 Y13.585 E1.53442
G1 X6.299 Y13.539 E1.54337
G1 X5.428 Y13.386 E1.56543
G1 X5.047 Y13.3 E1.57517
G1 X4.185 Y13.061 E1.59749
G1 X3.841 Y12.949 E1.60651
G1 X3.025 Y12.642 E1.62826
G1 X2.683 Y12.495 E1.63755
G1 X1.873 Y12.102 E1.66
G1 X1.546 Y11.924 E1.66929
G1 X0.8 Y11.473 E1.69104
G1 X0.643 Y11.373 E1.69568
G1 X-1.622 Y9.858 E1.76366
G1 X-1.647 Y9.905 E1.76498
G1 X-1.985 Y10.363 E1.77918
G1 X-2.383 Y10.769 E1.79336
G1 X-2.835 Y11.115 E1.80756
G1 X-3.33 Y11.395 E1.82175
G1 X-3.86 Y11.602 E1.83594
G1 X-4.413 Y11.733 E1.85012
G1 X-4.98 Y11.785 E1.86432
G1 X-5.548 Y11.757 E1.87851
G1 X-6.107 Y11.65 E1.89271
G1 X-6.736 Y11.426 E1.90936
G1 X-7.861 Y10.917 E1.94017
G1 X-8.388 Y10.867 E1.95337
G1 X-8.609 Y10.832 E1.95895
G1 X-9.163 Y10.704 E1.97314
G1 X-9.694 Y10.499 E1.98733
G1 X-10.19 Y10.222 E2.00151
G1 X-10.644 Y9.879 E2.0157
G1 X-11.044 Y9.475 E2.02988
G1 X-11.384 Y9.018 E2.04409
G1 X-11.657 Y8.519 E2.05828
G1 X-11.857 Y7.987 E2.07246
G1 X-11.98 Y7.431 E2.08666
G1 X-12.025 Y6.864 E2.10085
G1 X-12.009 Y6.618 E2.107
G1 X-12.572 Y6.544 E2.12116
G1 X-13.13 Y6.431 E2.13537
G1 X-13.479 Y6.317 E2.14452
G1 X-14 Y6.089 E2.15871
G1 X-14.564 Y5.749 E2.17514
G1 X-15.022 Y5.412 E2.18932
G1 X-15.545 Y4.89 E2.20776
G1 X-15.9 Y4.446 E2.22194
G1 X-16.189 Y3.956 E2.23613
G1 X-16.403 Y3.448 E2.24988
G1 X-16.565 Y2.903 E2.26406
G1 X-16.649 Y2.34 E2.27826
G1 X-16.661 Y2.033 E2.28592
G1 X-16.662 Y1.446 E2.30057
G1 X-16.641 Y0.977 E2.31228
G1 X-16.564 Y0.413 E2.32648
G1 X-16.445 Y-0.008 E2.33739
G1 X-16.552 Y-.366 E2.34671
G1 X-16.637 Y-.928 E2.36089
G1 X-16.65 Y-1.215 E2.36806
G1 X-16.657 Y-1.979 E2.38712
G1 X-16.622 Y-2.547 E2.40131
G1 X-16.508 Y-3.104 E2.41549
G1 X-16.331 Y-3.608 E2.42882
G1 X-16.272 Y-3.746 E2.43256
G1 X-16.012 Y-4.252 E2.44675
G1 X-15.684 Y-4.717 E2.46095
G1 X-15.225 Y-5.193 E2.47744
G1 X-14.864 Y-5.511 E2.48944
G1 X-14.412 Y-5.856 E2.50363
G1 X-13.836 Y-6.171 E2.52
G1 X-13.744 Y-6.212 E2.52252
G1 X-13.209 Y-6.407 E2.53672
G1 X-12.662 Y-6.523 E2.55067
G1 X-11.821 Y-6.642 E2.57186
G1 X-11.264 Y-6.682 E2.58579
G1 X-10.026 Y-6.685 E2.61667
G1 X-6.364 Y-6.683 E2.70802
G0 X-6.275 Y-6.383
G1 X0.816 Y-11.128 E2.92085
G1 X0.966 Y-11.223 E2.92528
G1 X1.704 Y-11.668 E2.94678
G1 X2.001 Y-11.83 E2.95522
G1 X2.812 Y-12.224 E2.97771
G1 X3.133 Y-12.362 E2.98643
G1 X3.964 Y-12.674 E3.00857
G1 X4.283 Y-12.778 E3.01694
G1 X5.13 Y-13.012 E3.03886
G1 X5.483 Y-13.091 E3.04788
G1 X6.37 Y-13.246 E3.07034
G1 X6.705 Y-13.289 E3.07877
G1 X7.581 Y-13.362 E3.1007
G1 X7.922 Y-13.375 E3.10921
G1 X8.803 Y-13.368 E3.13119
G1 X9.143 Y-13.35 E3.13968
G1 X10.01 Y-13.264 E3.16141
G1 X10.35 Y-13.214 E3.16999
G1 X11.226 Y-13.045 E3.19224
G1 X11.569 Y-12.962 E3.20104
G1 X12.42 Y-12.713 E3.22316
G1 X12.75 Y-12.6 E3.23186
G1 X13.582 Y-12.27 E3.25419
G1 X13.89 Y-12.131 E3.26262
G1 X14.678 Y-11.733 E3.28464
G1 X14.976 Y-11.565 E3.29318
G1 X15.721 Y-11.099 E3.3151
G1 X16.01 Y-10.899 E3.32386
G1 X16.716 Y-10.359 E3.34604
G1 X16.98 Y-10.137 E3.35464
G1 X17.633 Y-9.535 E3.37679
G1 X17.87 Y-9.296 E3.38519
G1 X18.46 Y-8.645 E3.40711
G1 X18.675 Y-8.384 E3.41554
G1 X19.205 Y-7.681 E3.4375
G1 X19.409 Y-7.382 E3.44653
G1 X19.884 Y-6.606 E3.46923
G1 X20.049 Y-6.308 E3.47773
G1 X20.43 Y-5.536 E3.4992
G1 X20.565 Y-5.228 E3.50759
G1 X20.887 Y-4.395 E3.52987
G1 X20.998 Y-4.063 E3.5386
G1 X21.239 Y-3.21 E3.56071
G1 X21.317 Y-2.875 E3.56929
G1 X21.478 Y-2.009 E3.59126
G1 X21.525 Y-1.671 E3.59978
G1 X21.606 Y-.8 E3.6216
G1 X21.622 Y-.453 E3.63026
G1 X21.622 Y0.451 E3.65281
G1 X21.605 Y0.803 E3.6616
G1 X21.522 Y1.684 E3.68368
G1 X21.477 Y2.013 E3.69196
G1 X21.319 Y2.869 E3.71367
G1 X21.239 Y3.21 E3.72241
G1 X20.997 Y4.064 E3.74455
G1 X20.886 Y4.395 E3.75326
G1 X20.558 Y5.243 E3.77594
G1 X20.422 Y5.553 E3.78439
G1 X20.04 Y6.325 E3.80587
G1 X19.873 Y6.626 E3.81446
G1 X19.405 Y7.387 E3.83675
G1 X19.204 Y7.682 E3.84565
G1 X18.666 Y8.395 E3.86793
G1 X18.451 Y8.655 E3.87635
G1 X17.859 Y9.308 E3.89833
G1 X17.623 Y9.546 E3.9067
G1 X16.983 Y10.136 E3.92841
G1 X16.714 Y10.362 E3.93717
G1 X16.008 Y10.9 E3.95932
G1 X15.731 Y11.092 E3.96772
G1 X14.982 Y11.563 E3.98979
G1 X14.671 Y11.738 E3.9987
G1 X13.868 Y12.142 E4.02112
G1 X13.561 Y12.28 E4.02952
G1 X12.746 Y12.602 E4.05137
G1 X12.422 Y12.713 E4.05992
G1 X11.568 Y12.963 E4.08212
G1 X11.221 Y13.047 E4.09102
G1 X10.346 Y13.215 E4.11325
G1 X10.004 Y13.264 E4.12187
G1 X9.125 Y13.35 E4.1439
G1 X8.79 Y13.368 E4.15227
G1 X7.907 Y13.375 E4.17429
G1 X7.557 Y13.361 E4.18303
G1 X6.68 Y13.286 E4.20499
G1 X6.351 Y13.243 E4.21326
G1 X5.48 Y13.09 E4.23532
G1 X5.127 Y13.011 E4.24435
G1 X4.265 Y12.772 E4.26666
G1 X3.947 Y12.668 E4.27501
G1 X3.131 Y12.361 E4.29675
G1 X2.814 Y12.225 E4.30536
G1 X2.004 Y11.832 E4.32782
G1 X1.701 Y11.667 E4.33642
G1 X0.955 Y11.216 E4.35817
G1 X0.81 Y11.124 E4.36245
G1 X-1.724 Y9.429 E4.4385
G1 X-1.74 Y9.467 E4.43953
G1 X-2.028 Y9.933 E4.4532
G1 X-2.38 Y10.352 E4.46685
G1 X-2.79 Y10.715 E4.48051
G1 X-3.247 Y11.015 E4.49414
G1 X-3.744 Y11.245 E4.5078
G1 X-4.269 Y11.4 E4.52146
G1 X-4.811 Y11.477 E4.53512
G1 X-5.358 Y11.475 E4.54876
G1 X-5.899 Y11.392 E4.56241
G1 X-6.612 Y11.153 E4.58117
G1 X-7.79 Y10.62 E4.61343
G1 X-8.341 Y10.571 E4.62722
G1 X-8.562 Y10.536 E4.63281
G1 X-9.095 Y10.411 E4.64646
G1 X-9.604 Y10.21 E4.66011
G1 X-10.078 Y9.937 E4.67376
G1 X-10.508 Y9.598 E4.68742
G1 X-10.883 Y9.199 E4.70108
G1 X-11.197 Y8.751 E4.71472
G1 X-11.442 Y8.261 E4.72839
G1 X-11.613 Y7.742 E4.74202
G1 X-11.707 Y7.202 E4.75569
G1 X-11.721 Y6.655 E4.76934
G1 X-11.684 Y6.354 E4.77691
G1 X-11.738 Y6.35 E4.77826
G1 X-12.533 Y6.246 E4.79826
G1 X-13.305 Y6.061 E4.81806
G1 X-13.378 Y6.035 E4.81999
G1 X-13.879 Y5.814 E4.83365
G1 X-14.404 Y5.495 E4.84898
G1 X-14.844 Y5.17 E4.86262
G1 X-15.324 Y4.687 E4.87961
G1 X-15.664 Y4.258 E4.89326
G1 X-15.939 Y3.785 E4.90691
G1 X-16.122 Y3.343 E4.91885
G1 X-16.277 Y2.818 E4.9325
G1 X-16.361 Y2.032 E4.95222
G1 X-16.362 Y1.445 E4.96686
G1 X-16.341 Y0.996 E4.97808
G1 X-16.266 Y0.454 E4.99172
G1 X-16.134 Y0.00 E5.00352
G1 X-16.276 Y-.512 E5.01677
G1 X-16.35 Y-1.218 E5.03448
G1 X-16.357 Y-1.982 E5.05354
G1 X-16.322 Y-2.528 E5.06719
G1 X-16.208 Y-3.063 E5.08083
G1 X-15.996 Y-3.628 E5.09589
G1 X-15.745 Y-4.114 E5.10953
G1 X-15.425 Y-4.559 E5.1232
G1 X-15.027 Y-4.968 E5.13744
G1 X-14.666 Y-5.286 E5.14944
G1 X-14.23 Y-5.617 E5.16309
G1 X-13.713 Y-5.897 E5.17776
G1 X-13.621 Y-5.938 E5.18027
G1 X-13.107 Y-6.124 E5.19391
G1 X-12.62 Y-6.226 E5.20632
G1 X-11.779 Y-6.345 E5.22751
G1 X-11.263 Y-6.382 E5.24041
G1 X-10.026 Y-6.385 E5.27127
G1 X-6.275 Y-6.383 E5.36484
G0 X-6.183 Y-6.083
G1 X0.983 Y-10.879 E5.57994
G1 X1.121 Y-10.966 E5.58401
G1 X1.859 Y-11.411 E5.6055
G1 X2.132 Y-11.56 E5.61326
G1 X2.943 Y-11.954 E5.63575
G1 X3.238 Y-12.081 E5.64377
G1 X4.069 Y-12.393 E5.66591
G1 X4.363 Y-12.488 E5.67361
G1 X5.21 Y-12.722 E5.69553
G1 X5.535 Y-12.796 E5.70385
G1 X6.422 Y-12.951 E5.72631
G1 X6.729 Y-12.99 E5.73403
G1 X7.605 Y-13.063 E5.75596
G1 X7.919 Y-13.075 E5.7638
G1 X8.8 Y-13.068 E5.78577
G1 X9.114 Y-13.051 E5.79362
G1 X9.981 Y-12.965 E5.81535
G1 X10.294 Y-12.92 E5.82324
G1 X11.17 Y-12.751 E5.8455
G1 X11.485 Y-12.674 E5.85358
G1 X12.336 Y-12.425 E5.8757
G1 X12.639 Y-12.321 E5.88369
G1 X13.471 Y-11.991 E5.90602
G1 X13.754 Y-11.863 E5.91377
G1 X14.542 Y-11.465 E5.93579
G1 X14.817 Y-11.311 E5.94365
G1 X15.562 Y-10.845 E5.96557
G1 X15.828 Y-10.66 E5.97366
G1 X16.534 Y-10.12 E5.99583
G1 X16.776 Y-9.917 E6.00371
G1 X17.429 Y-9.315 E6.02586
G1 X17.647 Y-9.095 E6.03359
G1 X18.237 Y-8.444 E6.0555
G1 X18.436 Y-8.204 E6.06328
G1 X18.966 Y-7.501 E6.08524
G1 X19.154 Y-7.225 E6.09357
G1 X19.629 Y-6.449 E6.11627
G1 X19.78 Y-6.175 E6.12407
G1 X20.161 Y-5.403 E6.14555
G1 X20.285 Y-5.12 E6.15326
G1 X20.607 Y-4.287 E6.17553
G1 X20.709 Y-3.981 E6.18358
G1 X20.95 Y-3.128 E6.20569
G1 X21.022 Y-2.821 E6.21356
G1 X21.183 Y-1.955 E6.23553
G1 X21.226 Y-1.643 E6.24339
G1 X21.307 Y-.772 E6.26521
G1 X21.322 Y-.453 E6.27317
G1 X21.322 Y0.451 E6.29572
G1 X21.307 Y0.775 E6.30381
G1 X21.224 Y1.656 E6.32589
G1 X21.182 Y1.958 E6.33349
G1 X21.024 Y2.814 E6.35521
G1 X20.95 Y3.129 E6.36328
G1 X20.708 Y3.983 E6.38542
G1 X20.607 Y4.287 E6.39341
G1 X20.279 Y5.135 E6.41609
G1 X20.153 Y5.42 E6.42387
G1 X19.771 Y6.192 E6.44535
G1 X19.618 Y6.469 E6.45325
G1 X19.15 Y7.23 E6.47553
G1 X18.965 Y7.501 E6.48372
G1 X18.427 Y8.214 E6.506
G1 X18.229 Y8.453 E6.51374
G1 X17.637 Y9.106 E6.53573
G1 X17.419 Y9.326 E6.54345
G1 X16.779 Y9.916 E6.56517
G1 X16.532 Y10.123 E6.57321
G1 X15.826 Y10.661 E6.59535
G1 X15.572 Y10.838 E6.60307
G1 X14.823 Y11.309 E6.62514
G1 X14.537 Y11.47 E6.63333
G1 X13.734 Y11.874 E6.65575
G1 X13.451 Y12.001 E6.66349
G1 X12.636 Y12.323 E6.68535
G1 X12.337 Y12.425 E6.69323
G1 X11.483 Y12.675 E6.71543
G1 X11.165 Y12.752 E6.72359
G1 X10.29 Y12.92 E6.74581
G1 X9.975 Y12.966 E6.75375
G1 X9.096 Y13.052 E6.77579
G1 X8.787 Y13.068 E6.7835
G1 X7.904 Y13.075 E6.80553
G1 X7.583 Y13.062 E6.81355
G1 X6.706 Y12.987 E6.8355
G1 X6.403 Y12.948 E6.84312
G1 X5.532 Y12.795 E6.86518
G1 X5.207 Y12.722 E6.87349
G1 X4.345 Y12.483 E6.89581
G1 X4.052 Y12.387 E6.9035
G1 X3.236 Y12.08 E6.92525
G1 X2.945 Y11.955 E6.93315
G1 X2.135 Y11.562 E6.9556
G1 X1.856 Y11.41 E6.96353
G1 X1.11 Y10.959 E6.98528
G1 X0.977 Y10.875 E6.9892
G1 X-1.855 Y8.981 E7.07419
G1 X-1.876 Y9.047 E7.07591
G1 X-2.112 Y9.516 E7.08901
G1 X-2.416 Y9.944 E7.10211
G1 X-2.781 Y10.32 E7.11518
G1 X-3.2 Y10.637 E7.12828
G1 X-3.662 Y10.887 E7.14139
G1 X-4.156 Y11.064 E7.15448
G1 X-4.672 Y11.163 E7.16758
G1 X-5.196 Y11.184 E7.18067
G1 X-5.718 Y11.124 E7.19377
G1 X-6.224 Y10.986 E7.20686
G1 X-6.489 Y10.879 E7.21399
G1 X-7.718 Y10.323 E7.24763
G1 X-8.294 Y10.275 E7.26205
G1 X-8.515 Y10.24 E7.26763
G1 X-9.025 Y10.118 E7.28072
G1 X-9.512 Y9.921 E7.29382
G1 X-9.963 Y9.652 E7.30692
G1 X-10.368 Y9.318 E7.32001
G1 X-10.717 Y8.926 E7.33311
G1 X-11.003 Y8.486 E7.3462
G1 X-11.219 Y8.007 E7.35931
G1 X-11.359 Y7.501 E7.3724
G1 X-11.422 Y6.98 E7.38549
G1 X-11.404 Y6.455 E7.3986
G1 X-11.334 Y6.077 E7.40819
G1 X-11.7 Y6.053 E7.41734
G1 X-12.495 Y5.949 E7.43734
G1 X-13.205 Y5.778 E7.45555
G1 X-13.278 Y5.752 E7.45749
G1 X-13.961 Y5.419 E7.47644
G1 X-14.243 Y5.241 E7.48476
G1 X-14.665 Y4.928 E7.49787
G1 X-15.103 Y4.484 E7.51342
G1 X-15.429 Y4.072 E7.52653
G1 X-15.688 Y3.615 E7.53963
G1 X-15.841 Y3.237 E7.54981
G1 X-15.988 Y2.733 E7.5629
G1 X-16.061 Y2.032 E7.58048
G1 X-16.062 Y1.445 E7.59513
G1 X-16.042 Y1.015 E7.60586
G1 X-15.968 Y0.496 E7.61894
G1 X-15.813 Y-0.016 E7.63229
G1 X-15.868 Y-.147 E7.63583
G1 X-15.998 Y-.656 E7.64893
G1 X-16.05 Y-1.22 E7.66306
G1 X-16.057 Y-1.984 E7.68212
G1 X-16.022 Y-2.508 E7.69522
G1 X-15.907 Y-3.021 E7.70834
G1 X-15.72 Y-3.51 E7.7214
G1 X-15.478 Y-3.976 E7.73449
G1 X-15.167 Y-4.399 E7.74759
G1 X-14.467 Y-5.061 E7.77162
G1 X-14.048 Y-5.377 E7.78472
G1 X-13.591 Y-5.623 E7.79766
G1 X-13.499 Y-5.664 E7.80017
G1 X-13.005 Y-5.841 E7.81326
G1 X-12.578 Y-5.929 E7.82414
G1 X-11.737 Y-6.048 E7.84533
G1 X-11.262 Y-6.082 E7.85721
G1 X-10.027 Y-6.085 E7.88801
G1 X-6.183 Y-6.083 E7.9839
G0 X-6.092 Y-5.783
G1 X1.15 Y-10.63 E8.20128
G1 X1.275 Y-10.71 E8.20499
G1 X2.013 Y-11.155 E8.22648
G1 X2.264 Y-11.29 E8.23359
G1 X3.075 Y-11.684 E8.25608
G1 X3.344 Y-11.8 E8.26339
G1 X4.175 Y-12.112 E8.28553
G1 X4.443 Y-12.199 E8.29256
G1 X5.29 Y-12.433 E8.31448
G1 X5.587 Y-12.5 E8.32208
G1 X6.474 Y-12.655 E8.34454
G1 X6.754 Y-12.691 E8.35158
G1 X7.63 Y-12.764 E8.37351
G1 X7.917 Y-12.775 E8.38067
G1 X8.798 Y-12.768 E8.40265
G1 X9.084 Y-12.753 E8.40979
G1 X9.951 Y-12.667 E8.43153
G1 X10.237 Y-12.625 E8.43874
G1 X11.113 Y-12.456 E8.46099
G1 X11.401 Y-12.386 E8.46839
G1 X12.252 Y-12.137 E8.49051
G1 X12.528 Y-12.042 E8.49779
G1 X13.36 Y-11.712 E8.52011
G1 X13.619 Y-11.596 E8.52719
G1 X14.407 Y-11.198 E8.54922
G1 X14.657 Y-11.057 E8.55638
G1 X15.402 Y-10.591 E8.5783
G1 X15.646 Y-10.422 E8.5857
G1 X16.352 Y-9.882 E8.60787
G1 X16.573 Y-9.696 E8.61508
G1 X17.226 Y-9.094 E8.63723
G1 X17.425 Y-8.893 E8.64429
G1 X18.015 Y-8.242 E8.6662
G1 X18.196 Y-8.023 E8.67329
G1 X18.726 Y-7.32 E8.69525
G1 X18.898 Y-7.069 E8.70284
G1 X19.373 Y-6.293 E8.72554
G1 X19.511 Y-6.042 E8.73268
G1 X19.892 Y-5.27 E8.75416
G1 X20.005 Y-5.012 E8.76119
G1 X20.327 Y-4.179 E8.78346
G1 X20.42 Y-3.899 E8.79082
G1 X20.661 Y-3.046 E8.81293
G1 X20.727 Y-2.766 E8.82011
G1 X20.888 Y-1.9 E8.84208
G1 X20.927 Y-1.616 E8.84923
G1 X21.008 Y-.745 E8.87105
G1 X21.022 Y-.453 E8.87835
G1 X21.022 Y0.451 E8.9009
G1 X21.008 Y0.746 E8.90826
G1 X20.925 Y1.627 E8.93034
G1 X20.887 Y1.904 E8.93731
G1 X20.729 Y2.76 E8.95903
G1 X20.662 Y3.047 E8.96638
G1 X20.42 Y3.901 E8.98852
G1 X20.327 Y4.178 E8.99581
G1 X19.999 Y5.026 E9.01849
G1 X19.884 Y5.287 E9.0256
G1 X19.502 Y6.059 E9.04709
G1 X19.362 Y6.312 E9.0543
G1 X18.894 Y7.073 E9.07659
G1 X18.725 Y7.32 E9.08405
