;FLAVOR:Marlin
;TIME:1907
;Filament used: 1.3096m
;Layer height: 0.15
;MINX:-18.048
;MINY:-13.714
;MINZ:0.3
;MAXX:21.961
;MAXY:13.714
;MAXZ:13.95
;Generated with Cura_SteamEngine 4.13.1
M140 S60
M105
M190 S60
M104 S205
M105
M109 S205
M82 ;absolute extrusion mode
G28 ;Home
G1 Z15.0 F6000 ;Move the platform down 15mm
;Prime the extruder
G92 E0
G1 F200 E3
G92 E0
G92 E0
G92 E0
G1 F2700 E-5
;LAYER_COUNT:92
;LAYER:0
M107
G0 F4200 X-6.377 Y-6.727 Z0.3
;TYPE:SKIRT
G1 F3000 E0
G1 F1800 X0.64 Y-11.416 E0.42105
G1 X0.793 Y-11.512 E0.43006
G1 X1.541 Y-11.967 E0.47374
G1 X1.879 Y-12.148 E0.49287
G1 X2.673 Y-12.534 E0.53691
G1 X3.002 Y-12.675 E0.55477
G1 X3.868 Y-12.999 E0.6009
G1 X4.202 Y-13.107 E0.61841
G1 X5.084 Y-13.347 E0.66402
G1 X5.417 Y-13.421 E0.68104
G1 X6.295 Y-13.577 E0.72553
G1 X6.634 Y-13.622 E0.74259
G1 X7.54 Y-13.7 E0.78795
G1 X7.895 Y-13.714 E0.80568
G1 X8.81 Y-13.707 E0.85133
G1 X9.157 Y-13.688 E0.86867
G1 X10.071 Y-13.597 E0.91449
G1 X10.427 Y-13.545 E0.93244
G1 X11.324 Y-13.369 E0.97805
G1 X11.659 Y-13.287 E0.99525
G1 X12.541 Y-13.029 E1.0411
G1 X12.868 Y-12.917 E1.05834
G1 X13.71 Y-12.585 E1.1035
G1 X14.036 Y-12.439 E1.12132
G1 X14.838 Y-12.032 E1.16619
G1 X15.133 Y-11.864 E1.18313
G1 X15.921 Y-11.371 E1.2295
G1 X16.211 Y-11.171 E1.24708
G1 X16.92 Y-10.63 E1.29157
G1 X17.183 Y-10.41 E1.30868
G1 X17.869 Y-9.781 E1.35511
G1 X18.125 Y-9.523 E1.37324
G1 X18.731 Y-8.85 E1.41842
G1 X18.944 Y-8.591 E1.43515
G1 X19.496 Y-7.857 E1.48097
G1 X19.699 Y-7.559 E1.49896
G1 X20.166 Y-6.797 E1.54355
G1 X20.333 Y-6.494 E1.56081
G1 X20.741 Y-5.668 E1.60677
G1 X20.878 Y-5.357 E1.62373
G1 X21.204 Y-4.515 E1.66877
G1 X21.316 Y-4.18 E1.6864
G1 X21.561 Y-3.316 E1.7312
G1 X21.64 Y-2.981 E1.74837
G1 X21.813 Y-2.06 E1.79513
G1 X21.862 Y-1.709 E1.81281
G1 X21.945 Y-.815 E1.8576
G1 X21.961 Y-.464 E1.87513
G1 X21.961 Y0.458 E1.92113
G1 X21.945 Y0.807 E1.93856
G1 X21.862 Y1.707 E1.98365
G1 X21.806 Y2.081 E2.00252
G1 X21.642 Y2.97 E2.04762
G1 X21.56 Y3.321 E2.0656
G1 X21.315 Y4.182 E2.11026
G1 X21.205 Y4.512 E2.12762
G1 X20.882 Y5.348 E2.17233
G1 X20.744 Y5.661 E2.1894
G1 X20.333 Y6.493 E2.23569
G1 X20.167 Y6.794 E2.25284
G1 X19.701 Y7.555 E2.29736
G1 X19.499 Y7.852 E2.31528
G1 X18.948 Y8.586 E2.36107
G1 X18.733 Y8.848 E2.37798
G1 X18.126 Y9.522 E2.42323
G1 X17.873 Y9.777 E2.44115
G1 X17.207 Y10.389 E2.48628
G1 X16.946 Y10.608 E2.50328
G1 X16.216 Y11.167 E2.54915
G1 X15.92 Y11.372 E2.56711
G1 X15.133 Y11.864 E2.61342
G1 X14.84 Y12.03 E2.63022
G1 X14.037 Y12.438 E2.67515
G1 X13.711 Y12.585 E2.69299
G1 X12.87 Y12.917 E2.7381
G1 X12.538 Y13.03 E2.7556
G1 X11.656 Y13.287 E2.80143
G1 X11.328 Y13.367 E2.81828
G1 X10.425 Y13.545 E2.86419
G1 X10.064 Y13.599 E2.8824
G1 X9.155 Y13.689 E2.92798
G1 X8.81 Y13.707 E2.94521
G1 X7.895 Y13.714 E2.99086
G1 X7.54 Y13.7 E3.00859
G1 X6.634 Y13.622 E3.05396
G1 X6.29 Y13.577 E3.07126
G1 X5.385 Y13.415 E3.11713
G1 X5.053 Y13.34 E3.13411
G1 X4.197 Y13.106 E3.17839
G1 X3.867 Y12.999 E3.19569
G1 X3.004 Y12.676 E3.24167
G1 X2.682 Y12.538 E3.25914
G1 X1.861 Y12.141 E3.30464
G1 X1.538 Y11.965 E3.32299
G1 X0.791 Y11.51 E3.36663
G1 X0.64 Y11.417 E3.37548
G1 X-6.383 Y6.725 E3.79686
G1 X-11.274 Y6.721 E4.04087
G1 X-11.607 Y6.706 E4.0575
G1 X-12.388 Y6.637 E4.09662
G1 X-13.008 Y6.53 E4.12801
G1 X-13.521 Y6.369 E4.15483
G1 X-13.927 Y6.21 E4.17658
G1 X-14.456 Y5.954 E4.2059
G1 X-14.54 Y5.905 E4.21076
G1 X-15.075 Y5.528 E4.24341
G1 X-15.426 Y5.232 E4.26631
G1 X-15.82 Y4.847 E4.2938
G1 X-16.155 Y4.409 E4.32131
G1 X-16.468 Y3.826 E4.35432
G1 X-16.577 Y3.572 E4.36811
G1 X-16.757 Y3.051 E4.39561
G1 X-16.86 Y2.509 E4.42314
G1 X-16.882 Y1.919 E4.45259
G1 X-16.846 Y1.03 E4.49698
G1 X-16.784 Y0.483 E4.52444
G1 X-16.649 Y-0.025 E4.55067
G1 X-16.745 Y-.34 E4.5671
G1 X-16.834 Y-.991 E4.59988
G1 X-16.874 Y-1.794 E4.63999
G1 X-16.862 Y-2.345 E4.66749
G1 X-16.777 Y-2.873 E4.69417
G1 X-16.632 Y-3.404 E4.72163
G1 X-16.341 Y-4.053 E4.75711
G1 X-16.06 Y-4.527 E4.7846
G1 X-15.667 Y-5.01 E4.81567
G1 X-15.27 Y-5.393 E4.84319
G1 X-14.731 Y-5.783 E4.87638
G1 X-14.215 Y-6.081 E4.90611
G1 X-13.516 Y-6.371 E4.94387
G1 X-12.948 Y-6.544 E4.97349
G1 X-12.382 Y-6.637 E5.00211
G1 X-11.613 Y-6.706 E5.04063
G1 X-11.277 Y-6.721 E5.05741
G1 X-6.377 Y-6.727 E5.30187
G0 F4200 X-6.257 Y-6.327
G1 F1800 X0.862 Y-11.084 E5.72903
G1 X1.749 Y-11.625 E5.78087
G1 X2.053 Y-11.788 E5.79808
G1 X2.847 Y-12.174 E5.84212
G1 X3.143 Y-12.3 E5.85817
G1 X4.009 Y-12.624 E5.9043
G1 X4.307 Y-12.721 E5.91994
G1 X5.189 Y-12.961 E5.96554
G1 X5.487 Y-13.028 E5.98078
G1 X6.365 Y-13.184 E6.02527
G1 X6.668 Y-13.223 E6.04051
G1 X7.574 Y-13.301 E6.08588
G1 X7.892 Y-13.314 E6.10175
G1 X8.807 Y-13.307 E6.1474
G1 X9.118 Y-13.29 E6.16294
G1 X10.032 Y-13.199 E6.20877
G1 X10.35 Y-13.152 E6.22481
G1 X11.247 Y-12.976 E6.27041
G1 X11.547 Y-12.903 E6.28582
G1 X12.429 Y-12.645 E6.33166
G1 X12.721 Y-12.545 E6.34706
G1 X13.563 Y-12.213 E6.39222
G1 X13.855 Y-12.082 E6.40818
G1 X14.657 Y-11.675 E6.45305
G1 X14.921 Y-11.525 E6.4682
G1 X15.709 Y-11.032 E6.51457
G1 X15.968 Y-10.853 E6.53028
G1 X16.677 Y-10.312 E6.57478
G1 X16.913 Y-10.115 E6.59011
G1 X17.599 Y-9.486 E6.63655
G1 X17.828 Y-9.255 E6.65277
G1 X18.434 Y-8.582 E6.69796
G1 X18.624 Y-8.351 E6.71288
G1 X19.176 Y-7.617 E6.7587
G1 X19.358 Y-7.35 E6.77482
G1 X19.825 Y-6.588 E6.81941
G1 X19.974 Y-6.317 E6.83484
G1 X20.382 Y-5.491 E6.8808
G1 X20.505 Y-5.213 E6.89596
G1 X20.831 Y-4.371 E6.94101
G1 X20.931 Y-4.071 E6.95679
G1 X21.176 Y-3.207 E7.00159
G1 X21.247 Y-2.907 E7.01697
G1 X21.42 Y-1.986 E7.06372
G1 X21.463 Y-1.672 E7.07954
G1 X21.546 Y-.778 E7.12433
G1 X21.561 Y-.464 E7.14001
G1 X21.561 Y0.458 E7.18601
G1 X21.547 Y0.77 E7.20159
G1 X21.464 Y1.67 E7.24669
G1 X21.413 Y2.009 E7.26379
G1 X21.249 Y2.898 E7.30889
G1 X21.175 Y3.212 E7.32498
G1 X20.93 Y4.073 E7.36964
G1 X20.832 Y4.367 E7.38511
G1 X20.509 Y5.203 E7.42982
G1 X20.385 Y5.484 E7.44514
G1 X19.974 Y6.316 E7.49144
G1 X19.826 Y6.586 E7.5068
G1 X19.36 Y7.347 E7.55132
G1 X19.179 Y7.612 E7.56733
G1 X18.628 Y8.346 E7.61312
G1 X18.435 Y8.58 E7.62825
G1 X17.828 Y9.254 E7.6735
G1 X17.603 Y9.483 E7.68952
G1 X16.937 Y10.095 E7.73465
G1 X16.703 Y10.29 E7.74984
G1 X15.973 Y10.849 E7.79571
G1 X15.708 Y11.033 E7.81181
G1 X14.921 Y11.525 E7.85811
G1 X14.659 Y11.673 E7.87313
G1 X13.856 Y12.081 E7.91806
G1 X13.564 Y12.212 E7.93403
G1 X12.723 Y12.544 E7.97914
G1 X12.426 Y12.646 E7.99481
G1 X11.544 Y12.903 E8.04064
G1 X11.251 Y12.975 E8.05569
G1 X10.348 Y13.153 E8.10161
G1 X10.025 Y13.2 E8.11789
G1 X9.116 Y13.29 E8.16347
G1 X8.807 Y13.307 E8.1789
G1 X7.892 Y13.314 E8.22456
G1 X7.574 Y13.301 E8.24043
G1 X6.668 Y13.223 E8.2858
G1 X6.361 Y13.183 E8.30125
G1 X5.456 Y13.021 E8.34712
G1 X5.158 Y12.954 E8.36235
G1 X4.302 Y12.72 E8.40663
G1 X4.007 Y12.624 E8.4221
G1 X3.144 Y12.301 E8.46808
G1 X2.856 Y12.178 E8.4837
G1 X2.035 Y11.781 E8.5292
G1 X1.746 Y11.624 E8.54561
G1 X0.999 Y11.169 E8.58924
G1 X0.863 Y11.084 E8.59724
G1 X-6.261 Y6.325 E9.02467
G1 X-11.274 Y6.321 E9.27477
G1 X-11.572 Y6.308 E9.28965
G1 X-12.353 Y6.239 E9.32877
G1 X-12.907 Y6.143 E9.35682
G1 X-13.781 Y5.838 E9.403
G1 X-14.254 Y5.609 E9.42922
G1 X-14.338 Y5.56 E9.43407
G1 X-14.817 Y5.222 E9.46332
G1 X-15.168 Y4.926 E9.48623
G1 X-15.539 Y4.561 E9.51219
G1 X-15.851 Y4.143 E9.53822
G1 X-16.1 Y3.668 E9.56497
G1 X-16.209 Y3.414 E9.57876
G1 X-16.378 Y2.921 E9.60476
G1 X-16.469 Y2.407 E9.6308
G1 X-16.482 Y1.935 E9.65436
G1 X-16.446 Y1.046 E9.69875
G1 X-16.385 Y0.529 E9.72472
G1 X-16.246 Y0.027 E9.75071
G1 X-16.241 Y-0.036 E9.75386
G1 X-16.378 Y-.539 E9.77987
G1 X-16.435 Y-1.011 E9.80359
G1 X-16.475 Y-1.814 E9.8437
G1 X-16.461 Y-2.335 E9.8697
G1 X-16.384 Y-2.796 E9.89302
G1 X-16.245 Y-3.298 E9.91901
G1 X-15.983 Y-3.875 E9.95063
G1 X-15.716 Y-4.322 E9.9766
G1 X-15.369 Y-4.743 E10.00382
G1 X-14.992 Y-5.104 E10.02986
G1 X-14.505 Y-5.453 E10.05975
G1 X-14.043 Y-5.72 E10.08637
G1 X-13.37 Y-5.998 E10.1227
G1 X-12.861 Y-6.153 E10.14925
G1 X-12.346 Y-6.238 E10.17529
G1 X-11.577 Y-6.307 E10.21381
G1 X-11.277 Y-6.321 E10.22879
G1 X-6.257 Y-6.327 E10.47924
G0 F4200 X-6.135 Y-5.927
G1 F1800 X1.084 Y-10.751 E10.91241
G1 X1.957 Y-11.283 E10.96341
G1 X2.228 Y-11.428 E10.97875
G1 X3.022 Y-11.814 E11.02279
G1 X3.283 Y-11.926 E11.03696
G1 X4.149 Y-12.25 E11.08309
G1 X4.412 Y-12.335 E11.09688
G1 X5.294 Y-12.575 E11.14249
G1 X5.557 Y-12.634 E11.15593
G1 X6.435 Y-12.79 E11.20042
G1 X6.703 Y-12.825 E11.21391
G1 X7.609 Y-12.903 E11.25927
G1 X7.889 Y-12.914 E11.27325
G1 X8.804 Y-12.907 E11.31891
G1 X9.078 Y-12.892 E11.3326
G1 X9.992 Y-12.801 E11.37842
G1 X10.273 Y-12.76 E11.39259
G1 X11.17 Y-12.584 E11.43819
G1 X11.434 Y-12.519 E11.45176
G1 X12.316 Y-12.261 E11.4976
G1 X12.574 Y-12.173 E11.5112
G1 X13.416 Y-11.841 E11.55636
G1 X13.674 Y-11.725 E11.57047
G1 X14.476 Y-11.318 E11.61534
G1 X14.709 Y-11.186 E11.6287
G1 X15.497 Y-10.693 E11.67508
G1 X15.726 Y-10.535 E11.68896
G1 X16.435 Y-9.994 E11.73345
G1 X16.642 Y-9.82 E11.74694
G1 X17.328 Y-9.191 E11.79337
G1 X17.53 Y-8.987 E11.8077
G1 X18.136 Y-8.314 E11.85288
G1 X18.305 Y-8.11 E11.8661
G1 X18.857 Y-7.376 E11.91192
G1 X19.017 Y-7.141 E11.9261
G1 X19.484 Y-6.379 E11.97069
G1 X19.616 Y-6.14 E11.98431
G1 X20.024 Y-5.314 E12.03027
G1 X20.132 Y-5.068 E12.04367
G1 X20.458 Y-4.226 E12.08872
G1 X20.546 Y-3.961 E12.10265
G1 X20.791 Y-3.097 E12.14746
G1 X20.853 Y-2.833 E12.16099
G1 X21.026 Y-1.912 E12.20774
G1 X21.065 Y-1.635 E12.22169
G1 X21.148 Y-.741 E12.26649
G1 X21.161 Y-.464 E12.28032
G1 X21.161 Y0.458 E12.32632
G1 X21.148 Y0.733 E12.34006
G1 X21.065 Y1.633 E12.38515
G1 X21.019 Y1.936 E12.40044
G1 X20.855 Y2.825 E12.44554
G1 X20.79 Y3.102 E12.45973
G1 X20.545 Y3.963 E12.50439
G1 X20.458 Y4.223 E12.51807
G1 X20.135 Y5.059 E12.56279
G1 X20.027 Y5.307 E12.57628
G1 X19.616 Y6.139 E12.62258
G1 X19.484 Y6.377 E12.63616
G1 X19.018 Y7.138 E12.68067
G1 X18.859 Y7.372 E12.69479
G1 X18.308 Y8.106 E12.74058
G1 X18.138 Y8.313 E12.75394
G1 X17.531 Y8.987 E12.79919
G1 X17.332 Y9.188 E12.81331
G1 X16.666 Y9.8 E12.85843
G1 X16.46 Y9.973 E12.87185
G1 X15.73 Y10.532 E12.91772
G1 X15.496 Y10.694 E12.93192
G1 X14.709 Y11.186 E12.97823
G1 X14.478 Y11.317 E12.99148
G1 X13.675 Y11.725 E13.03641
G1 X13.418 Y11.84 E13.05046
G1 X12.577 Y12.172 E13.09557
G1 X12.314 Y12.262 E13.10944
G1 X11.432 Y12.519 E13.15527
G1 X11.173 Y12.582 E13.16857
G1 X10.27 Y12.76 E13.21448
G1 X9.986 Y12.802 E13.22881
G1 X9.077 Y12.892 E13.27438
G1 X8.804 Y12.907 E13.28802
G1 X7.889 Y12.914 E13.33367
G1 X7.609 Y12.903 E13.34765
G1 X6.703 Y12.825 E13.39302
G1 X6.431 Y12.789 E13.40671
G1 X5.526 Y12.627 E13.45258
G1 X5.264 Y12.568 E13.46597
G1 X4.408 Y12.334 E13.51025
G1 X4.147 Y12.25 E13.52393
G1 X3.284 Y11.927 E13.5699
G1 X3.03 Y11.818 E13.58369
G1 X2.209 Y11.421 E13.62919
G1 X1.954 Y11.282 E13.64367
G1 X1.207 Y10.827 E13.68731
G1 X1.085 Y10.752 E13.69446
G1 X-6.141 Y5.925 E14.128
G1 X-11.274 Y5.921 E14.38409
G1 X-11.537 Y5.909 E14.39722
G1 X-12.318 Y5.84 E14.43634
G1 X-12.888 Y5.735 E14.46525
G1 X-13.635 Y5.465 E14.50488
G1 X-14.137 Y5.214 E14.53288
G1 X-14.559 Y4.916 E14.55865
G1 X-15.257 Y4.275 E14.60593
G1 X-15.544 Y3.878 E14.63037
G1 X-15.842 Y3.256 E14.66478
G1 X-15.998 Y2.792 E14.68921
G1 X-16.076 Y2.309 E14.71362
G1 X-16.083 Y1.952 E14.73143
G1 X-16.047 Y1.063 E14.77582
G1 X-15.987 Y0.577 E14.80025
G1 X-15.792 Y-0.012 E14.8312
G1 X-15.893 Y-.255 E14.84433
G1 X-16.035 Y-1.031 E14.88369
G1 X-16.075 Y-1.834 E14.9238
G1 X-16.023 Y-2.561 E14.96016
G1 X-15.859 Y-3.19 E14.99259
G1 X-15.625 Y-3.697 E15.02045
G1 X-15.372 Y-4.116 E15.04487
G1 X-15.071 Y-4.477 E15.06832
G1 X-14.534 Y-4.949 E15.10399
G1 X-13.871 Y-5.359 E15.14288
G1 X-13.224 Y-5.626 E15.1778
G1 X-12.689 Y-5.781 E15.20559
G1 X-12.31 Y-5.84 E15.22473
G1 X-11.541 Y-5.909 E15.26325
G1 X-11.277 Y-5.921 E15.27643
G1 X-6.135 Y-5.927 E15.53297
G0 F4200 X-6.015 Y-5.527
G1 F1800 X1.306 Y-10.419 E15.97225
G1 X2.165 Y-10.941 E16.0224
G1 X2.403 Y-11.068 E16.03586
G1 X3.197 Y-11.454 E16.0799
G1 X3.423 Y-11.551 E16.09217
G1 X4.289 Y-11.875 E16.1383
G1 X4.517 Y-11.949 E16.15026
G1 X5.399 Y-12.189 E16.19586
G1 X5.627 Y-12.24 E16.20752
G1 X6.505 Y-12.396 E16.25201
G1 X6.737 Y-12.426 E16.26368
G1 X7.643 Y-12.504 E16.30905
G1 X7.886 Y-12.514 E16.32118
G1 X8.801 Y-12.507 E16.36683
G1 X9.039 Y-12.494 E16.37873
G1 X9.953 Y-12.403 E16.42455
G1 X10.196 Y-12.367 E16.43681
G1 X11.093 Y-12.191 E16.48241
G1 X11.322 Y-12.135 E16.49417
G1 X12.204 Y-11.877 E16.54002
G1 X12.428 Y-11.801 E16.55182
G1 X13.27 Y-11.469 E16.59698
G1 X13.493 Y-11.369 E16.60917
G1 X14.295 Y-10.962 E16.65404
G1 X14.497 Y-10.847 E16.66563
G1 X15.285 Y-10.354 E16.71201
G1 X15.483 Y-10.217 E16.72402
G1 X16.192 Y-9.676 E16.76851
G1 X16.372 Y-9.525 E16.78024
G1 X17.058 Y-8.896 E16.82667
G1 X17.233 Y-8.72 E16.83905
G1 X17.839 Y-8.047 E16.88423
G1 X17.985 Y-7.87 E16.89568
G1 X18.537 Y-7.136 E16.9415
G1 X18.676 Y-6.932 E16.95382
G1 X19.143 Y-6.17 E16.9984
G1 X19.257 Y-5.962 E17.01024
G1 X19.665 Y-5.136 E17.0562
G1 X19.759 Y-4.924 E17.06777
G1 X20.085 Y-4.082 E17.11282
G1 X20.161 Y-3.852 E17.1249
G1 X20.406 Y-2.988 E17.16971
G1 X20.46 Y-2.759 E17.18144
G1 X20.633 Y-1.838 E17.2282
G1 X20.667 Y-1.598 E17.24029
G1 X20.75 Y-.704 E17.28508
G1 X20.761 Y-.464 E17.29707
G1 X20.761 Y0.458 E17.34307
G1 X20.75 Y0.697 E17.355
G1 X20.667 Y1.597 E17.4001
G1 X20.626 Y1.864 E17.41357
G1 X20.462 Y2.753 E17.45867
G1 X20.406 Y2.993 E17.47097
G1 X20.161 Y3.854 E17.51563
G1 X20.085 Y4.079 E17.52748
G1 X19.762 Y4.915 E17.57219
G1 X19.668 Y5.13 E17.5839
G1 X19.257 Y5.962 E17.63019
G1 X19.143 Y6.168 E17.64194
G1 X18.677 Y6.929 E17.68646
G1 X18.539 Y7.132 E17.69871
G1 X17.988 Y7.866 E17.7445
G1 X17.841 Y8.045 E17.75605
G1 X17.234 Y8.719 E17.8013
G1 X17.061 Y8.893 E17.81355
G1 X16.395 Y9.505 E17.85867
G1 X16.217 Y9.655 E17.87028
G1 X15.487 Y10.214 E17.91615
G1 X15.284 Y10.355 E17.92849
G1 X14.497 Y10.847 E17.97479
G1 X14.297 Y10.96 E17.98625
G1 X13.494 Y11.368 E18.03119
G1 X13.271 Y11.468 E18.04338
G1 X12.43 Y11.8 E18.08849
G1 X12.202 Y11.878 E18.10051
G1 X11.32 Y12.135 E18.14634
G1 X11.096 Y12.19 E18.15785
G1 X10.193 Y12.368 E18.20377
G1 X9.946 Y12.404 E18.21622
G1 X9.037 Y12.494 E18.26179
G1 X8.801 Y12.507 E18.27359
G1 X7.886 Y12.514 E18.31924
G1 X7.643 Y12.504 E18.33137
G1 X6.737 Y12.426 E18.37674
G1 X6.502 Y12.395 E18.38856
G1 X5.597 Y12.233 E18.43443
G1 X5.369 Y12.182 E18.44609
G1 X4.513 Y11.948 E18.49036
G1 X4.288 Y11.875 E18.50216
G1 X3.425 Y11.552 E18.54814
G1 X3.204 Y11.458 E18.56012
G1 X2.383 Y11.061 E18.60561
G1 X2.162 Y10.941 E18.61816
G1 X1.415 Y10.486 E18.6618
G1 X1.307 Y10.419 E18.66814
G1 X-6.019 Y5.525 E19.10769
G1 X-11.274 Y5.521 E19.36986
G1 X-11.502 Y5.511 E19.38125
G1 X-12.283 Y5.442 E19.42036
G1 X-12.788 Y5.348 E19.44599
G1 X-13.489 Y5.093 E19.4832
G1 X-13.935 Y4.869 E19.5081
G1 X-14.652 Y4.315 E19.55331
G1 X-14.973 Y3.991 E19.57606
G1 X-15.233 Y3.617 E19.59879
G1 X-15.474 Y3.098 E19.62734
G1 X-15.617 Y2.665 E19.65009
G1 X-15.683 Y1.968 E19.68502
G1 X-15.647 Y1.079 E19.7294
G1 X-15.589 Y0.627 E19.75214
G1 X-15.452 Y0.192 E19.77489
G1 X-15.352 Y-0.001 E19.78574
G1 X-15.54 Y-.469 E19.8109
G1 X-15.636 Y-1.051 E19.84033
G1 X-15.676 Y-1.854 E19.88044
G1 X-15.63 Y-2.484 E19.91195
G1 X-15.473 Y-3.079 E19.94265
G1 X-15.267 Y-3.519 E19.96689
G1 X-14.876 Y-4.095 E20.00162
G1 X-14.773 Y-4.21 E20.00933
G1 X-14.307 Y-4.619 E20.04026
G1 X-13.699 Y-4.997 E20.07598
G1 X-13.078 Y-5.253 E20.10949
G1 X-12.603 Y-5.391 E20.13417
G1 X-12.274 Y-5.442 E20.15078
G1 X-11.505 Y-5.511 E20.1893
G1 X-11.276 Y-5.521 E20.20073
G1 X-6.015 Y-5.527 E20.4632
G0 F4200 X-5.892 Y-5.127
G1 F1800 X1.529 Y-10.086 E20.9085
G1 X2.373 Y-10.6 E20.9578
