;FLAVOR:Marlin
;TIME:659
;Filament used: 0.513093m
;Layer height: 0.2
;MINX:-15.357
;MINY:-9.727
;MINZ:0.24
;MAXX:15.928
;MAXY:9.727
;MAXZ:7.99
;Generated with Cura_SteamEngine 4.13.1
M140 S75
M105
M190 S75
M104 S235
M105
M109 S235
M82 ;absolute extrusion mode
G28 ;Home
G1 Z15.0 F6000 ;Move the platform down 15mm
;Prime the extruder
G92 E0
G1 F200 E3
G92 E0
G92 E0
G92 E0
G1 F2100 E-3
;LAYER_COUNT:35
;LAYER:-5
M106 S102
G0 F4800 X2.538 Y5.917 Z0.24
;TYPE:SUPPORT-INTERFACE
G1 F2100 E0.02661
G1 F1012.5 X1.922 Y6.209 E0.08102
G1 X1.347 Y6.577 E0.13552
G1 X0.893 Y6.951 E0.18247
G1 X0.706 Y7.119 E0.20254
G1 X0.321 Y7.445 E0.24281
G1 X0.044 Y7.656 E0.2706
G1 X-.377 Y7.949 E0.31155
G1 X-.651 Y8.125 E0.33754
G1 X-1.103 Y8.387 E0.37925
G1 X-1.394 Y8.536 E0.40534
G1 X-1.917 Y8.778 E0.45134
G1 X-2.627 Y9.043 E0.51184
G1 X-3.472 Y9.282 E0.58194
G1 X-4.282 Y9.432 E0.64769
G1 X-5.126 Y9.514 E0.71538
G1 X-5.98 Y9.522 E0.78356
G1 X-6.312 Y9.505 E0.81009
G1 X-6.912 Y9.443 E0.85824
G1 X-7.167 Y9.404 E0.87883
G1 X-7.668 Y9.308 E0.91955
G1 X-8.027 Y9.222 E0.94902
G1 X-8.525 Y9.078 E0.9904
G1 X-9.27 Y8.805 E1.05374
G1 X-9.605 Y8.658 E1.08294
G1 X-10.118 Y8.405 E1.1286
G1 X-10.798 Y8.003 E1.19166
G1 X-11.482 Y7.519 E1.25854
G1 X-12.128 Y6.967 E1.32637
G1 X-12.372 Y6.731 E1.35347
G1 X-12.77 Y6.309 E1.39977
G1 X-12.926 Y6.127 E1.41891
G1 X-13.279 Y5.679 E1.46443
G1 X-13.457 Y5.432 E1.48874
G1 X-13.785 Y4.929 E1.53667
G1 X-13.922 Y4.689 E1.55873
G1 X-14.163 Y4.235 E1.59976
G1 X-14.299 Y3.948 E1.62511
G1 X-14.495 Y3.488 E1.66503
G1 X-14.614 Y3.167 E1.69235
G1 X-14.772 Y2.678 E1.73337
G1 X-14.859 Y2.364 E1.75938
G1 X-14.991 Y1.771 E1.80788
G1 X-15.1 Y1.031 E1.86759
G1 X-15.154 Y0.179 E1.93573
G1 X-15.133 Y-.664 E2.00305
G1 X-15.034 Y-1.528 E2.07246
G1 X-14.975 Y-1.848 E2.09844
G1 X-14.847 Y-2.415 E2.14484
G1 X-14.77 Y-2.688 E2.16748
G1 X-14.61 Y-3.181 E2.20885
G1 X-14.495 Y-3.488 E2.23502
G1 X-14.299 Y-3.948 E2.27494
G1 X-13.923 Y-4.688 E2.3412
G1 X-13.747 Y-4.989 E2.36903
G1 X-13.412 Y-5.498 E2.41767
G1 X-13.259 Y-5.704 E2.43815
G1 X-12.912 Y-6.144 E2.48288
G1 X-12.748 Y-6.333 E2.50286
G1 X-12.372 Y-6.731 E2.54656
G1 X-11.763 Y-7.29 E2.61255
G1 X-11.087 Y-7.81 E2.68063
G1 X-10.394 Y-8.249 E2.74611
G1 X-10.074 Y-8.428 E2.77538
G1 X-9.605 Y-8.658 E2.81708
G1 X-8.846 Y-8.968 E2.88252
G1 X-8.525 Y-9.079 E2.90964
G1 X-8.027 Y-9.221 E2.95097
G1 X-7.668 Y-9.308 E2.98046
G1 X-7.092 Y-9.417 E3.02726
G1 X-6.857 Y-9.449 E3.04619
G1 X-6.312 Y-9.505 E3.08992
G1 X-5.503 Y-9.527 E3.15452
G1 X-4.638 Y-9.477 E3.22369
G1 X-3.827 Y-9.356 E3.28914
G1 X-2.997 Y-9.158 E3.35725
G1 X-2.187 Y-8.886 E3.42546
G1 X-1.868 Y-8.756 E3.45296
G1 X-1.394 Y-8.536 E3.49467
G1 X-1.093 Y-8.381 E3.52169
G1 X-.657 Y-8.128 E3.56193
G1 X-.377 Y-7.949 E3.58846
G1 X0.037 Y-7.661 E3.62872
G1 X0.319 Y-7.446 E3.65702
G1 X0.706 Y-7.119 E3.69747
G1 X0.894 Y-6.95 E3.71765
G1 X1.415 Y-6.528 E3.77117
G1 X1.995 Y-6.169 E3.82562
G1 X2.617 Y-5.887 E3.88013
G1 X3.269 Y-5.683 E3.93467
G1 X3.94 Y-5.566 E3.98904
G1 X4.529 Y-5.533 E4.03613
G1 X13 Y-5.533 E4.71232
G1 X13.219 Y-5.524 E4.72981
G1 X13.732 Y-5.451 E4.77118
G1 X14.178 Y-5.3 E4.80876
G1 X14.548 Y-5.1 E4.84234
G1 X14.882 Y-4.839 E4.87617
G1 X15.168 Y-4.529 E4.90984
G1 X15.399 Y-4.179 E4.94332
G1 X15.573 Y-3.788 E4.97748
G1 X15.688 Y-3.33 E5.01517
G1 X15.728 Y-2.858 E5.05298
G1 X15.728 Y-1.628 E5.15117
G1 X15.643 Y-.879 E5.21134
G1 X15.576 Y-.214 E5.26469
G1 X15.595 Y0.466 E5.31899
G1 X15.687 Y1.09 E5.36934
G1 X15.728 Y1.58 E5.40859
G1 X15.728 Y2.804 E5.5063
G1 X15.646 Y3.535 E5.56502
G1 X15.494 Y3.984 E5.60286
G1 X15.295 Y4.352 E5.63625
G1 X15.034 Y4.686 E5.67009
G1 X14.724 Y4.972 E5.70376
G1 X14.368 Y5.206 E5.73776
G1 X13.983 Y5.377 E5.77139
G1 X13.527 Y5.492 E5.80893
G1 X13.038 Y5.532 E5.84809
G1 X4.526 Y5.533 E6.52756
G1 X3.858 Y5.575 E6.58099
G1 X3.188 Y5.704 E6.63545
G1 X2.538 Y5.917 E6.69005
G0 F4800 X3.2 Y5.702
G1 F1012.5 X3.2 Y-5.704 E7.60053
G0 F4800 X4.8 Y-5.533
G1 F1012.5 X4.8 Y5.533 E8.48386
G0 F4800 X6.4 Y5.533
G1 F1012.5 X6.4 Y-5.533 E9.3672
G0 F4800 X8 Y-5.533
G1 F1012.5 X8 Y5.533 E10.25054
G0 F4800 X9.6 Y5.533
G1 F1012.5 X9.6 Y-5.533 E11.13387
G0 F4800 X11.2 Y-5.533
G1 F1012.5 X11.2 Y5.533 E12.01721
G0 F4800 X12.8 Y5.533
G1 F1012.5 X12.8 Y-5.533 E12.90054
G0 F4800 X14.4 Y-5.18
G1 F1012.5 X14.4 Y5.185 E13.72792
G0 F4800 X3.914 Y6.034
G0 X1.6 Y6.416
G1 F1012.5 X1.6 Y-6.413 E14.75199
G0 F4800 X0.00 Y-7.686
G1 F1012.5 X0.00 Y7.687 E15.97913
G0 F4800 X-1.6 Y8.632
G1 F1012.5 X-1.6 Y-8.631 E17.35713
G0 F4800 X-3.2 Y-9.206
G1 F1012.5 X-3.2 Y9.206 E18.82686
G0 F4800 X-4.8 Y9.483
G1 F1012.5 X-4.8 Y-9.486 E20.34105
G0 F4800 X-6.4 Y-9.496
G1 F1012.5 X-6.4 Y9.495 E21.85699
G0 F4800 X-8 Y9.228
G1 F1012.5 X-8 Y-9.228 E23.33023
G0 F4800 X-9.6 Y-8.661
G1 F1012.5 X-9.6 Y8.66 E24.71287
G0 F4800 X-11.2 Y7.718
G1 F1012.5 X-11.2 Y-7.724 E25.94551
G0 F4800 X-12.8 Y-6.274
G1 F1012.5 X-12.8 Y6.274 E26.94715
G0 F4800 X-14.4 Y3.71
G1 F1012.5 X-14.4 Y-3.711 E27.53953
G1 F2100 E24.53953
G0 F600 X-14.4 Y-3.711 Z0.54
G0 F4800 X-14.154 Y-4.251
;TIME_ELAPSED:23.404306
;LAYER:-4
;TYPE:SUPPORT
G1 F2100 E27.56613
G1 F1012.5 X-14.257 Y-4.041 E27.58947
G1 X-14.298 Y-3.947 E27.59971
G1 X-14.494 Y-3.487 E27.6496
G1 X-14.533 Y-3.387 E27.66031
G1 X-14.579 Y-3.265 E27.67332
G1 X-2.365 Y8.948 E29.39677
G1 X-2.626 Y9.043 E29.42449
G1 X-2.769 Y9.089 E29.43948
G1 X-2.996 Y9.157 E29.46312
G1 X-3.452 Y9.275 E29.51012
G1 X-14.901 Y-2.173 E31.12563
G1 X-14.989 Y-1.771 E31.16669
G1 X-15.032 Y-1.528 E31.19131
G1 X-15.096 Y-1.047 E31.23973
G1 X-15.105 Y-.963 E31.24816
G1 X-4.664 Y9.477 E32.72143
G1 X-5.126 Y9.513 E32.76766
G1 X-5.258 Y9.521 E32.78086
G1 X-5.502 Y9.526 E32.80521
G1 X-5.98 Y9.521 E32.85291
G1 X-6.037 Y9.519 E32.8586
G1 X-15.142 Y0.413 E34.14348
G1 X-15.13 Y0.675 E34.16965
G1 X-15.124 Y0.784 E34.18055
G1 X-15.098 Y1.03 E34.20523
G1 X-15.033 Y1.525 E34.25504
G1 X-14.989 Y1.771 E34.27998
G1 X-14.974 Y1.847 E34.28771
G1 X-14.931 Y2.039 E34.30734
G1 X-7.662 Y9.307 E35.33301
G1 X-7.667 Y9.306 E35.33351
G1 X-7.894 Y9.255 E35.35673
G1 X-8.027 Y9.22 E35.37045
G1 X-8.524 Y9.077 E35.42205
G1 X-8.56 Y9.067 E35.42578
G1 X-8.722 Y9.013 E35.44282
G1 X-9.268 Y8.804 E35.50116
G1 X-9.395 Y8.753 E35.51481
G1 X-9.516 Y8.698 E35.52807
G1 X-9.603 Y8.657 E35.53767
G1 X-9.847 Y8.537 E35.5648
G1 X-10.117 Y8.404 E35.59483
G1 X-10.274 Y8.318 E35.6127
G1 X-10.393 Y8.249 E35.62642
G1 X-10.797 Y8.003 E35.67362
G1 X-10.984 Y7.881 E35.6959
G1 X-11.086 Y7.809 E35.70835
G1 X-11.481 Y7.518 E35.75731
G1 X-11.665 Y7.373 E35.78068
G1 X-11.762 Y7.29 E35.79342
G1 X-12.127 Y6.967 E35.84205
G1 X-12.313 Y6.789 E35.86774
G1 X-12.37 Y6.73 E35.87593
G1 X-12.768 Y6.308 E35.93381
G1 X-12.925 Y6.127 E35.95772
G1 X-13.278 Y5.678 E36.01471
G1 X-13.411 Y5.497 E36.03712
G1 X-13.746 Y4.989 E36.09784
G1 X-13.784 Y4.928 E36.10501
G1 X-13.868 Y4.784 E36.12164
G1 X-13.92 Y4.688 E36.13253
G1 X-14.162 Y4.234 E36.18387
G1 X-14.174 Y4.21
G1 X-9.847 Y8.537 E36.79446
G0 F4800 X-14.153 Y-4.253
G1 F1012.5 X-1.374 Y8.524 E38.59757
G1 X-1.303 Y8.491 E38.60538
G1 X-1.103 Y8.386 E38.62792
G1 X-.651 Y8.123 E38.6801
G1 X-.548 Y8.061 E38.6921
G1 X-.473 Y8.011 E38.70109
G1 X-13.638 Y-5.153 E40.55874
G1 X-13.456 Y-5.431 E40.5919
G1 X-13.411 Y-5.497 E40.59987
G1 X-13.258 Y-5.703 E40.62547
G1 X-13.045 Y-5.974 E40.65987
G1 X0.349 Y7.42 E42.5499
G1 X0.706 Y7.118 E42.59656
G1 X0.893 Y6.95 E42.62164
G1 X1.112 Y6.769 E42.64999
G1 X-12.379 Y-6.722 E44.55372
G1 X-12.37 Y-6.73 E44.55492
G1 X-12.313 Y-6.789 E44.56311
G1 X-12.101 Y-6.99 E44.59226
G1 X-11.762 Y-7.29 E44.63743
G1 X-11.636 Y-7.393 E44.65366
G1 X1.951 Y6.194 E46.57094
G1 X2.537 Y5.916 E46.63565
G1 X2.952 Y5.78 E46.67923
G1 X-10.817 Y-7.988 E48.62211
G1 X-10.789 Y-8.007 E48.62549
G1 X-10.393 Y-8.249 E48.6718
G1 X-10.274 Y-8.318 E48.68552
G1 X-10.072 Y-8.428 E48.70847
G1 X-9.917 Y-8.503 E48.72565
G1 X4.142 Y5.556 E50.70953
G1 X4.525 Y5.532 E50.74782
G1 X5.531 Y5.531 E50.8482
G1 X-8.932 Y-8.932 E52.88909
G1 X-8.722 Y-9.013 E52.91154
G1 X-8.56 Y-9.065 E52.92852
G1 X-8.524 Y-9.077 E52.93231
G1 X-8.027 Y-9.22 E52.98391
G1 X-7.894 Y-9.255 E52.99763
G1 X-7.851 Y-9.265 E53.00204
G1 X6.945 Y5.531 E55.08991
G1 X8.36 Y5.531 E55.2311
G1 X-6.641 Y-9.469 E57.34784
G1 X-6.312 Y-9.504 E57.38085
G1 X-6.103 Y-9.516 E57.40174
G1 X-5.98 Y-9.521 E57.41402
G1 X-5.502 Y-9.526 E57.46172
G1 X-5.278 Y-9.521 E57.48407
G1 X9.774 Y5.531 E59.60807
G1 X11.188 Y5.531 E59.74916
G1 X-3.667 Y-9.323 E61.84529
G1 X-3.471 Y-9.281 E61.86529
G1 X-2.996 Y-9.157 E61.91428
G1 X-2.769 Y-9.09 E61.9379
G1 X-2.631 Y-9.043 E61.95244
G1 X-2.187 Y-8.884 E61.9995
G1 X-2.087 Y-8.847 E62.01014
G1 X-1.868 Y-8.755 E62.03384
G1 X-1.525 Y-8.596 E62.07156
G1 X12.602 Y5.531 E64.06504
G1 X13.036 Y5.531 E64.10834
G1 X13.222 Y5.526 E64.12691
G1 X13.526 Y5.492 E64.15743
G1 X13.625 Y5.473 E64.16749
G1 X13.887 Y5.402 E64.19457
G1 X2.583 Y-5.901 E65.78962
G1 X2.617 Y-5.886 E65.79333
G1 X3.269 Y-5.682 E65.86149
G1 X3.939 Y-5.564 E65.92937
G1 X4.358 Y-5.54 E65.97125
G1 X14.801 Y4.902 E67.4448
G1 X15.033 Y4.685 E67.4765
G1 X15.064 Y4.652 E67.48102
G1 X15.294 Y4.352 E67.51873
G1 X15.313 Y4.321 E67.52236
G1 X15.425 Y4.111 E67.54611
G1 X5.782 Y-5.531 E68.90677
G1 X7.196 Y-5.531 E69.04786
G1 X15.72 Y2.992 E70.25062
G1 X15.727 Y2.804 E70.26939
G1 X15.727 Y1.585 E70.39102
G1 X8.61 Y-5.531 E71.39524
G1 X10.023 Y-5.532 E71.53623
G1 X15.582 Y0.026 E72.32059
G1 X15.575 Y-.214 E72.34455
G1 X15.641 Y-.878 E72.41113
G1 X15.706 Y-1.264 E72.45019
G1 X11.438 Y-5.532 E73.05245
G1 X12.852 Y-5.532 E73.19354
G1 X12.998 Y-5.533 E73.20811
G1 X13.218 Y-5.523 E73.23008
G1 X13.362 Y-5.511 E73.2445
G1 X13.731 Y-5.451 E73.2818
G1 X13.782 Y-5.438 E73.28705
G1 X14.127 Y-5.321 E73.3234
G1 X14.177 Y-5.3 E73.32881
G1 X14.516 Y-5.12 E73.36711
G1 X14.547 Y-5.1 E73.37079
G1 X14.847 Y-4.871 E73.40845
G1 X14.881 Y-4.838 E73.41318
G1 X15.138 Y-4.565 E73.45059
G1 X15.166 Y-4.529 E73.45514
G1 X15.379 Y-4.212 E73.49325
G1 X15.397 Y-4.179 E73.497
G1 X15.554 Y-3.837 E73.53455
G1 X15.572 Y-3.787 E73.53985
G1 X15.668 Y-3.432 E73.57655
G1 X15.687 Y-3.329 E73.587
G1 X15.722 Y-3.028 E73.61723
G1 X15.727 Y-2.858 E73.6342
G1 X15.727 Y-2.657
G1 X12.852 Y-5.532 E74.0399
G1 F2100 E71.0399
G0 F600 X12.852 Y-5.532 Z0.74
G0 F4800 X3.996 Y-6.025
G0 X2.717 Y-6.383
G0 X-4.243 Y-9.629
;TIME_ELAPSED:51.712946
;LAYER:-3
;TYPE:SUPPORT-INTERFACE
G1 F2100 E74.0665
G1 F1350 X-4.388 Y-9.649 E74.07137
G1 X-4.619 Y-9.676 E74.07911
G1 X-5.107 Y-9.714 E74.09539
G1 X-5.259 Y-9.722 E74.10045
G1 X-5.502 Y-9.727 E74.10853
G1 X-5.987 Y-9.722 E74.12467
G1 X-6.108 Y-9.717 E74.12869
G1 X-6.337 Y-9.703 E74.13633
G1 X-6.941 Y-9.641 E74.15652
G1 X-7.128 Y-9.614 E74.1628
G1 X-7.201 Y-9.6 E74.16528
G1 X-4.069 Y-9.6 E74.26945
G1 X-3.793 Y-9.554 E74.27875
G1 X-3.661 Y-9.528 E74.28323
G1 X-3.42 Y-9.475 E74.29144
G1 X-2.933 Y-9.348 E74.30817
G1 X-2.715 Y-9.283 E74.31574
G1 X-2.56 Y-9.232 E74.32117
G1 X-2.47 Y-9.2 E74.32435
G1 X-8.793 Y-9.2 E74.53465
G1 X-9.331 Y-8.995 E74.5538
G1 X-9.473 Y-8.937 E74.5589
G1 X-9.69 Y-8.84 E74.56681
G1 X-9.771 Y-8.8 E74.56981
G1 X-1.485 Y-8.8 E74.8454
G1 X-1.305 Y-8.716 E74.85201
G1 X-1.064 Y-8.593 E74.86101
G1 X-.998 Y-8.558 E74.86349
G1 X-.725 Y-8.4 E74.87399
G1 X-10.53 Y-8.4 E75.2001
G1 X-10.89 Y-8.18 E75.21413
G1 X-11.095 Y-8.046 E75.22228
G1 X-11.161 Y-8 E75.22495
G1 X-0.098 Y-8 E75.59291
G1 X0.154 Y-7.823 E75.60315
G1 X0.243 Y-7.758 E75.60682
G1 X0.446 Y-7.6 E75.61538
G1 X-11.702 Y-7.6 E76.01942
G1 X-11.899 Y-7.436 E76.02795
G1 X-12.165 Y-7.2 E76.03977
G1 X0.917 Y-7.2 E76.47488
G1 X0.927 Y-7.191 E76.47533
G1 X1.023 Y-7.101 E76.47971
G1 X1.397 Y-6.8 E76.49567
G1 X-12.582 Y-6.8 E76.96062
G1 X-12.894 Y-6.47 E76.97572
G1 X-12.954 Y-6.4 E76.97879
G1 X2.002 Y-6.4 E77.47623
G1 X2.089 Y-6.346 E77.47963
G1 X2.688 Y-6.074 E77.50151
G1 X2.925 Y-6 E77.50977
G1 X-13.279 Y-6 E78.04872
G1 X-13.422 Y-5.82 E78.05636
G1 X-13.573 Y-5.615 E78.06483
G1 X-13.583 Y-5.6 E78.06543
G1 X13.928 Y-5.599 E78.98045
G1 X14.208 Y-5.505 E78.99028
G1 X14.258 Y-5.483 E78.99209
G1 X14.622 Y-5.289 E79.00581
G1 X14.664 Y-5.262 E79.00747
G1 X14.747 Y-5.199 E79.01094
G1 X-13.846 Y-5.2 E79.96194
G1 X-13.952 Y-5.039 E79.96836
G1 X-14.088 Y-4.8 E79.9775
G1 X15.193 Y-4.799 E80.95139
G1 X15.294 Y-4.691 E80.95631
G1 X15.333 Y-4.642 E80.95839
G1 X15.497 Y-4.399 E80.96814
G1 X-14.301 Y-4.4 E81.95923
G1 X-14.335 Y-4.337 E81.96161
G1 X-14.442 Y-4.118 E81.96972
G1 X-14.482 Y-4.03 E81.97293
G1 X-14.494 Y-4 E81.97401
G1 X15.701 Y-3.999 E82.9783
G1 X15.741 Y-3.91 E82.98154
G1 X15.763 Y-3.849 E82.9837
G1 X15.832 Y-3.599 E82.99232
G1 X-14.664 Y-3.6 E84.00663
G1 X-14.679 Y-3.566 E84.00786
G1 X-14.72 Y-3.462 E84.01158
G1 X-14.798 Y-3.246 E84.01922
G1 X-14.812 Y-3.2 E84.02082
G1 X15.904 Y-3.199 E85.04244
G1 X15.921 Y-3.052 E85.04736
G1 X15.928 Y-2.857 E85.05385
G1 X15.928 Y-2.799 E85.05578
G1 X-14.943 Y-2.8 E86.08255
G1 X-14.96 Y-2.749 E86.08434
G1 X-15.039 Y-2.468 E86.09405
G1 X-15.054 Y-2.4 E86.09636
G1 X15.928 Y-2.399 E87.12683
G1 X15.928 Y-1.999 E87.14013
G1 X-15.145 Y-2 E88.17362
G1 X-15.172 Y-1.884 E88.17759
G1 X-15.187 Y-1.81 E88.1801
G1 X-15.223 Y-1.6 E88.18718
G1 X15.927 Y-1.599 E89.22324
G1 X15.919 Y-1.391 E89.23016
G1 X15.907 Y-1.246 E89.235
G1 X15.899 Y-1.199 E89.23659
G1 X-15.278 Y-1.2 E90.27354
G1 X-15.297 Y-1.064 E90.2781
G1 X-15.315 Y-.898 E90.28366
G1 X-15.323 Y-.8 E90.28693
G1 X15.836 Y-.799 E91.32328
G1 X15.796 Y-.399 E91.33665
G1 X-15.345 Y-.4 E92.3724
G1 X-15.354 Y-.189 E92.37943
G1 X-15.357 Y-0.065 E92.38355
G1 X-15.357 Y0.00 E92.38572
G1 X15.783 Y0.00 E93.42144
G1 X15.793 Y0.4 E93.43474
G1 X-15.345 Y0.399 E94.4704
G1 X-15.332 Y0.684 E94.47989
G1 X-15.325 Y0.799 E94.48372
G1 X15.842 Y0.8 E95.52034
G1 X15.859 Y0.925 E95.52453
G1 X15.883 Y1.051 E95.5288
G1 X15.901 Y1.2 E95.53379
G1 X-15.279 Y1.199 E96.57084
G1 X-15.231 Y1.559 E96.58292
G1 X-15.225 Y1.599 E96.58427
G1 X15.928 Y1.6 E97.62042
G1 X15.928 Y2 E97.63373
G1 X-15.146 Y1.999 E98.66725
G1 X-15.056 Y2.399 E98.68089
G1 X15.928 Y2.4 E99.71142
G1 X15.928 Y2.8 E99.72472
G1 X-14.943 Y2.799 E100.7515
G1 X-14.814 Y3.199 E100.76548
G1 X15.905 Y3.2 E101.78719
G1 X15.844 Y3.571 E101.7997
G1 X15.836 Y3.6 E101.8007
G1 X-14.665 Y3.599 E102.81517
G1 X-14.496 Y3.999 E102.82961
G1 X15.705 Y4 E103.8341
G1 X15.68 Y4.058 E103.8362
G1 X15.497 Y4.4 E103.8491
G1 X-14.301 Y4.399 E104.84019
G1 X-14.097 Y4.784 E104.85468
G1 X-14.089 Y4.799 E104.85524
G1 X15.199 Y4.8 E105.82937
G1 X15.177 Y4.824 E105.83045
G1 X14.887 Y5.097 E105.8437
G1 X14.84 Y5.134 E105.84569
G1 X14.741 Y5.2 E105.84964
G1 X-13.848 Y5.199 E106.80052
G1 X-13.622 Y5.544 E106.81423
G1 X-13.585 Y5.599 E106.81644
G1 X13.92 Y5.6 E107.73126
G1 X13.672 Y5.668 E107.73981
G1 X13.568 Y5.687 E107.74333
G1 X13.242 Y5.724 E107.75424
G1 X13.043 Y5.731 E107.76086
G1 X4.533 Y5.733 E108.04391
G1 X3.883 Y5.774 E108.06557
G1 X3.237 Y5.898 E108.08745
G1 X2.926 Y6 E108.09833
G1 X-13.281 Y5.999 E108.63738
G1 X-13.082 Y6.251 E108.64806
G1 X-12.956 Y6.399 E108.65453
G1 X1.994 Y6.4 E109.15176
G1 X1.464 Y6.739 E109.17269
G1 X1.389 Y6.8 E109.17591
G1 X-12.583 Y6.799 E109.64062
G1 X-12.515 Y6.871 E109.64391
G1 X-12.453 Y6.933 E109.64683
G1 X-12.261 Y7.117 E109.65567
G1 X-12.168 Y7.199 E109.65979
G1 X0.914 Y7.2 E110.0949
G1 X0.83 Y7.275 E110.09865
G1 X0.452 Y7.595 E110.11512
G1 X0.445 Y7.6 E110.11541
G1 X-11.704 Y7.599 E110.51949
G1 X-11.69 Y7.61 E110.52008
G1 X-11.6 Y7.679 E110.52385
G1 X-11.205 Y7.97 E110.54017
G1 X-11.164 Y7.999 E110.54184
G1 X-0.099 Y8 E110.90986
G1 X-.265 Y8.116 E110.9166
G1 X-.443 Y8.233 E110.92368
G1 X-.553 Y8.3 E110.92797
G1 X-.726 Y8.4 E110.93461
G1 X-10.531 Y8.4 E111.26073
G1 X-10.491 Y8.424 E111.26228
G1 X-10.372 Y8.493 E111.26685
G1 X-10.158 Y8.609 E111.27495
G1 X-9.772 Y8.8 E111.28927
G1 X-1.487 Y8.8 E111.56483
G1 X-1.78 Y8.936 E111.57558
G1 X-1.845 Y8.965 E111.57795
G1 X-2.007 Y9.031 E111.58376
G1 X-2.124 Y9.077 E111.58795
G1 X-2.471 Y9.2 E111.60019
G1 X-8.794 Y9.2 E111.81049
G1 X-8.791 Y9.201
G1 X-8.615 Y9.26 E111.81667
G1 X-8.074 Y9.416 E111.83539
G1 X-7.951 Y9.449 E111.83963
G1 X-7.821 Y9.479 E111.84407
G1 X-7.704 Y9.505 E111.84805
G1 X-7.202 Y9.6 E111.86505
G1 X-4.069 Y9.6 E111.96925
G1 X-4.243 Y9.629 E111.97512
