;FLAVOR:Marlin
;TIME:262
;Filament used: 0.169956m
;Layer height: 0.2
;MINX:-14.281
;MINY:-5.249
;MINZ:0.36
;MAXX:14.285
;MAXY:5.245
;MAXZ:12.21
;Generated with Cura_SteamEngine 4.13.1
M140 S100
M105
M190 S100
M104 S230
M105
M109 S230
M82 ;absolute extrusion mode
G28 ;Home
G1 Z15.0 F6000 ;Move the platform down 15mm
;Prime the extruder
G92 E0
G1 F200 E3
G92 E0
G92 E0
G92 E0
G1 F3000 E-2.5
;LAYER_COUNT:55
;LAYER:-6
M107
G0 F3600 X1.993 Y4.174 Z0.36
;TYPE:SUPPORT-INTERFACE
G1 F3000 E0.02661
G1 F1125 X1.459 Y4.428 E0.09741
G1 X0.98 Y4.658 E0.16103
G1 X0.505 Y4.828 E0.22144
G1 X-0.074 Y4.968 E0.29277
G1 X-.646 Y5.036 E0.36174
G1 X-1.198 Y5.041 E0.42784
G1 X-1.739 Y4.986 E0.49295
G1 X-2.263 Y4.875 E0.55708
G1 X-2.791 Y4.704 E0.62354
G1 X-3.323 Y4.46 E0.69362
G1 X-3.71 Y4.233 E0.74734
G1 X-4.302 Y3.919 E0.82757
G1 X-4.94 Y3.677 E0.90928
G1 X-5.604 Y3.518 E0.99103
G1 X-6.283 Y3.444 E1.07281
G1 X-6.965 Y3.456 E1.15449
G1 X-7.646 Y3.554 E1.23687
G1 X-8.062 Y3.658 E1.28821
G1 X-8.765 Y3.904 E1.37739
G1 X-9.417 Y4.051 E1.45742
G1 X-10.127 Y4.089 E1.54255
G1 X-10.826 Y4.005 E1.62685
G1 X-11.475 Y3.812 E1.70792
G1 X-12.092 Y3.509 E1.79023
G1 X-12.668 Y3.093 E1.8753
G1 X-13.155 Y2.59 E1.95913
G1 X-13.546 Y2.023 E2.0416
G1 X-13.837 Y1.391 E2.12491
G1 X-14.016 Y0.728 E2.20714
G1 X-14.081 Y0.019 E2.29239
G1 X-14.022 Y-.69 E2.37757
G1 X-13.861 Y-1.322 E2.45566
G1 X-13.586 Y-1.95 E2.53775
G1 X-13.214 Y-2.518 E2.61905
G1 X-12.722 Y-3.045 E2.70538
G1 X-12.154 Y-3.472 E2.79046
G1 X-11.545 Y-3.784 E2.87239
G1 X-10.871 Y-3.996 E2.95699
G1 X-10.289 Y-4.084 E3.02747
G1 X-9.681 Y-4.084 E3.10027
G1 X-9.105 Y-3.996 E3.17004
G1 X-8.613 Y-3.857 E3.23126
G1 X-8.513 Y-3.818 E3.24411
G1 X-7.876 Y-3.61 E3.32434
G1 X-7.205 Y-3.481 E3.40616
G1 X-6.523 Y-3.439 E3.48797
G1 X-5.842 Y-3.483 E3.56968
G1 X-5.171 Y-3.613 E3.65152
G1 X-4.519 Y-3.827 E3.73369
G1 X-3.711 Y-4.233 E3.84196
G1 X-3.251 Y-4.498 E3.90553
G1 X-2.769 Y-4.711 E3.96862
G1 X-2.234 Y-4.884 E4.03595
G1 X-1.671 Y-4.996 E4.10468
G1 X-1.101 Y-5.048 E4.17321
G1 X-.474 Y-5.024 E4.24834
G1 X0.06 Y-4.943 E4.31301
G1 X0.636 Y-4.787 E4.38447
G1 X1.126 Y-4.596 E4.44744
G1 X1.482 Y-4.415 E4.49526
G1 X2.092 Y-4.134 E4.57567
G1 X2.742 Y-3.929 E4.65728
G1 X3.414 Y-3.807 E4.73906
G1 X4.096 Y-3.771 E4.82083
G1 X4.777 Y-3.822 E4.9026
G1 X5.447 Y-3.958 E4.98446
G1 X6.091 Y-4.177 E5.06591
G1 X6.597 Y-4.417 E5.13296
G1 X7.068 Y-4.646 E5.19567
G1 X7.584 Y-4.833 E5.26139
G1 X8.101 Y-4.958 E5.32508
G1 X8.597 Y-5.027 E5.38504
G1 X9.176 Y-5.047 E5.45441
G1 X9.776 Y-4.993 E5.52654
G1 X10.317 Y-4.882 E5.59267
G1 X10.86 Y-4.707 E5.66098
G1 X11.364 Y-4.478 E5.72726
G1 X11.857 Y-4.185 E5.79593
G1 X12.28 Y-3.868 E5.85922
G1 X12.7 Y-3.471 E5.92842
G1 X13.037 Y-3.079 E5.99032
G1 X13.379 Y-2.574 E6.06335
G1 X13.626 Y-2.103 E6.12703
G1 X13.829 Y-1.586 E6.19353
G1 X13.973 Y-1.056 E6.25929
G1 X14.059 Y-.514 E6.325
G1 X14.085 Y0.037 E6.39105
G1 X14.047 Y0.614 E6.46029
G1 X13.957 Y1.125 E6.52241
G1 X13.837 Y1.562 E6.57668
G1 X13.632 Y2.09 E6.64449
G1 X13.377 Y2.578 E6.71042
G1 X13.076 Y3.028 E6.77525
G1 X12.702 Y3.471 E6.84467
G1 X12.286 Y3.863 E6.91311
G1 X11.858 Y4.185 E6.97724
G1 X11.397 Y4.462 E7.04163
G1 X10.857 Y4.708 E7.11268
G1 X10.34 Y4.875 E7.17774
G1 X9.805 Y4.989 E7.24323
G1 X9.275 Y5.041 E7.307
G1 X8.709 Y5.035 E7.37477
G1 X8.145 Y4.967 E7.44279
G1 X7.572 Y4.828 E7.51339
G1 X7.096 Y4.658 E7.57391
G1 X6.602 Y4.42 E7.63957
G1 X5.993 Y4.137 E7.71998
G1 X5.342 Y3.931 E7.80174
G1 X4.67 Y3.808 E7.88354
G1 X3.988 Y3.771 E7.96532
G1 X3.308 Y3.821 E8.04696
G1 X2.638 Y3.956 E8.12879
G1 X1.993 Y4.174 E8.21032
G0 F3600 X1.6 Y4.361
G1 F1125 X1.6 Y-4.36 E9.25454
G0 F3600 X3.2 Y-3.845
G1 F1125 X3.2 Y3.843 E10.17507
G0 F3600 X4.8 Y3.831
G1 F1125 X4.8 Y-3.827 E11.09201
G0 F3600 X6.4 Y-4.324
G1 F1125 X6.4 Y4.326 E12.12773
G0 F3600 X8 Y4.931
G1 F1125 X8 Y-4.934 E13.30893
G0 F3600 X9.6 Y-5.008
G1 F1125 X9.6 Y5.01 E14.50845
G0 F3600 X11.2 Y4.552
G1 F1125 X11.2 Y-4.552 E15.59854
G0 F3600 X12.8 Y-3.354
G1 F1125 X12.8 Y3.355 E16.40185
G0 F3600 X3.369 Y4.279
G0 X0.00 Y4.951
G1 F1125 X0.00 Y-4.952 E17.5876
G0 F3600 X-1.6 Y-5.003
G1 F1125 X-1.6 Y5 E18.78532
G0 F3600 X-3.2 Y4.516
G1 F1125 X-3.2 Y-4.521 E19.86738
G0 F3600 X-4.8 Y-3.735
G1 F1125 X-4.8 Y3.73 E20.76121
G0 F3600 X-6.4 Y3.447
G1 F1125 X-6.4 Y-3.447 E21.58668
G0 F3600 X-8 Y-3.65
G1 F1125 X-8 Y3.643 E22.45991
G0 F3600 X-9.6 Y4.061
G1 F1125 X-9.6 Y-4.071 E23.43361
G0 F3600 X-11.2 Y-3.893
G1 F1125 X-11.2 Y3.893 E24.36588
G0 F3600 X-12.8 Y2.956
G1 F1125 X-12.8 Y-2.962 E25.07448
G1 F3000 E22.57448
G0 F600 X-12.8 Y-2.962 Z0.66
G0 F3600 X-13.468 Y-2.155
;TIME_ELAPSED:14.012127
;LAYER:-5
;TYPE:SUPPORT
G1 F3000 E25.10109
G1 F1125 X-13.361 Y-2.316 E25.12038
G1 X-13.213 Y-2.518 E25.14536
G1 X-13.051 Y-2.717 E25.17097
G1 X-12.929 Y-2.844 E25.18854
G1 X-12.834 Y-2.935 E25.20167
G1 X-6.453 Y3.446 E26.10209
G1 X-6.282 Y3.444 E26.11916
G1 X-5.603 Y3.517 E26.1873
G1 X-4.939 Y3.676 E26.25543
G1 X-4.728 Y3.756 E26.27794
G1 X-12.03 Y-3.545 E27.30826
G1 X-11.981 Y-3.576 E27.31405
G1 X-11.814 Y-3.661 E27.33275
G1 X-11.544 Y-3.784 E27.36235
G1 X-11.354 Y-3.86 E27.38277
G1 X-11.151 Y-3.923 E27.40398
G1 X-11.025 Y-3.954 E27.41693
G1 X-2.174 Y4.896 E28.66583
G1 X-2.156 Y4.901 E28.66769
G1 X-1.977 Y4.941 E28.68599
G1 X-1.854 Y4.966 E28.69852
G1 X-1.739 Y4.985 E28.71015
G1 X-1.597 Y5.005 E28.72445
G1 X-1.423 Y5.023 E28.74191
G1 X-1.197 Y5.04 E28.76452
G1 X-1.045 Y5.044 E28.77969
G1 X-.881 Y5.044 E28.79606
G1 X-.646 Y5.036 E28.81952
G1 X-.622 Y5.033 E28.82193
G1 X-9.745 Y-4.088 E30.10915
G1 X-9.68 Y-4.084 E30.11565
G1 X-9.487 Y-4.063 E30.13502
G1 X-9.335 Y-4.043 E30.15031
G1 X-9.103 Y-3.995 E30.17395
G1 X-8.83 Y-3.924 E30.2021
G1 X-8.611 Y-3.857 E30.22495
G1 X-8.512 Y-3.818 E30.23557
G1 X-7.875 Y-3.609 E30.30246
G1 X-7.846 Y-3.604 E30.3054
G1 X0.565 Y4.808 E31.49235
G1 X0.568 Y4.808
G1 X0.765 Y4.741 E31.51311
G1 X0.857 Y4.707 E31.5229
G1 X0.98 Y4.657 E31.53615
G1 X1.109 Y4.601 E31.55018
G1 X1.271 Y4.524 E31.56808
G1 X1.458 Y4.427 E31.5891
G1 X1.553 Y4.381 E31.59963
G1 X-6.282 Y-3.454 E32.70523
G1 X-5.841 Y-3.482 E32.74933
G1 X-5.17 Y-3.613 E32.81754
G1 X-5.062 Y-3.647 E32.82884
G1 X2.564 Y3.978 E33.90488
G1 X2.638 Y3.954 E33.91264
G1 X3.307 Y3.819 E33.98074
G1 X3.785 Y3.785 E34.02856
G1 X-4.058 Y-4.058 E35.13529
G1 X-3.71 Y-4.232 E35.17411
G1 X-3.539 Y-4.337 E35.19413
G1 X-3.455 Y-4.386 E35.20384
G1 X-3.19 Y-4.528 E35.23384
G1 X-3.138 Y-4.552 E35.23955
G1 X5.347 Y3.932 E36.4368
G1 X5.992 Y4.136 E36.5043
G1 X6.6 Y4.42 E36.57126
G1 X6.664 Y4.454 E36.57849
G1 X6.814 Y4.529 E36.59523
G1 X6.964 Y4.599 E36.61174
G1 X7.095 Y4.658 E36.62608
G1 X7.208 Y4.703 E36.63822
G1 X7.31 Y4.741 E36.64908
G1 X7.508 Y4.809 E36.66997
G1 X7.69 Y4.862 E36.68888
G1 X-2.089 Y-4.917 E38.0688
G1 X-1.998 Y-4.938 E38.07812
G1 X-1.898 Y-4.957 E38.08828
G1 X-1.67 Y-4.995 E38.11134
G1 X-1.577 Y-5.008 E38.12071
G1 X-1.337 Y-5.031 E38.14477
G1 X-1.1 Y-5.046 E38.16847
G1 X-.946 Y-5.048 E38.18383
G1 X-.801 Y-5.044 E38.19831
G1 X9.281 Y5.038 E39.62099
G1 X9.352 Y5.036 E39.62807
G1 X9.519 Y5.021 E39.6448
G1 X9.69 Y5.004 E39.66195
G1 X9.804 Y4.988 E39.67344
G1 X9.925 Y4.968 E39.68567
G1 X10.054 Y4.943 E39.69878
G1 X10.233 Y4.901 E39.71713
G1 X10.339 Y4.874 E39.72804
G1 X10.488 Y4.831 E39.74352
G1 X1.015 Y-4.641 E41.08019
G1 X1.126 Y-4.595 E41.09218
G1 X1.223 Y-4.549 E41.10289
G1 X1.362 Y-4.478 E41.11847
G1 X1.482 Y-4.413 E41.13208
G1 X2.092 Y-4.133 E41.19905
G1 X2.742 Y-3.928 E41.26706
G1 X3.231 Y-3.839 E41.31666
G1 X11.482 Y4.411 E42.48089
G1 X11.631 Y4.326 E42.49801
G1 X11.762 Y4.246 E42.51332
G1 X11.857 Y4.185 E42.52459
G1 X11.963 Y4.111 E42.53749
G1 X12.059 Y4.041 E42.54934
G1 X12.232 Y3.906 E42.57124
G1 X12.317 Y3.832 E42.58248
G1 X4.671 Y-3.813 E43.66135
G1 X4.776 Y-3.821 E43.67185
G1 X5.446 Y-3.958 E43.74009
G1 X5.815 Y-4.083 E43.77896
G1 X13.011 Y3.111 E44.79425
G1 X13.075 Y3.027 E44.80479
G1 X13.203 Y2.849 E44.82667
G1 X13.318 Y2.672 E44.84773
G1 X13.376 Y2.577 E44.85884
G1 X13.435 Y2.476 E44.87051
G1 X13.5 Y2.353 E44.88439
G1 X13.557 Y2.243 E44.89675
G1 X6.793 Y-4.52 E45.85115
G1 X6.81 Y-4.53 E45.85312
G1 X7.067 Y-4.646 E45.88126
G1 X7.336 Y-4.751 E45.91007
G1 X7.583 Y-4.833 E45.93604
G1 X7.828 Y-4.899 E45.96136
G1 X13.935 Y1.207 E46.82305
G1 X13.956 Y1.125 E46.83149
G1 X13.977 Y1.033 E46.84091
G1 X14.002 Y0.9 E46.85441
G1 X14.045 Y0.613 E46.88337
G1 X14.06 Y0.49 E46.89573
G1 X14.071 Y0.357 E46.90905
G1 X14.079 Y0.222 E46.92254
G1 X14.084 Y0.036 E46.94111
G1 X14.084 Y-0.057 E46.95039
G1 X9.094 Y-5.047 E47.65453
G1 X9.263 Y-5.043 E47.6714
G1 X9.525 Y-5.023 E47.69762
G1 X9.637 Y-5.011 E47.70886
G1 X9.775 Y-4.992 E47.72276
G1 X10.059 Y-4.942 E47.75153
G1 X10.2 Y-4.91 E47.76596
G1 X10.316 Y-4.881 E47.77789
G1 X10.509 Y-4.826 E47.79791
G1 X10.728 Y-4.755 E47.82088
G1 X10.843 Y-4.712 E47.83314
G1 X13.751 Y-1.804 E48.24349
G1 X13.733 Y-1.852
G1 X13.702 Y-1.928 E48.25168
G1 X13.625 Y-2.103 E48.27075
G1 X13.551 Y-2.254 E48.28753
G1 X13.45 Y-2.448 E48.30936
G1 X13.378 Y-2.573 E48.32375
G1 X13.232 Y-2.805 E48.3511
G1 X13.158 Y-2.912 E48.36408
G1 X13.036 Y-3.078 E48.38464
G1 X12.899 Y-3.249 E48.4065
G1 X12.797 Y-3.365 E48.42191
G1 X12.698 Y-3.471 E48.43639
G1 X12.512 Y-3.659 E48.46277
G1 X12.405 Y-3.757 E48.47725
G1 X12.279 Y-3.867 E48.49394
G1 X12.175 Y-3.952 E48.50734
G1 X11.979 Y-4.099 E48.53179
G1 X11.856 Y-4.185 E48.54676
G1 X11.732 Y-4.266 E48.56154
G1 X11.642 Y-4.322 E48.57212
G1 X11.527 Y-4.389 E48.5854
G1 X11.363 Y-4.477 E48.60397
G1 X11.233 Y-4.545 E48.61861
G1 X11.125 Y-4.596 E48.63053
G1 X10.859 Y-4.707 E48.65929
G1 X10.843 Y-4.712 E48.66096
G0 F3600 X-11.991 Y3.564
G1 F1125 X-11.859 Y3.638 E48.67606
G1 X-11.689 Y3.725 E48.69511
G1 X-11.474 Y3.812 E48.71826
G1 X-11.211 Y3.903 E48.74602
G1 X-11.034 Y3.957 E48.76449
G1 X-10.825 Y4.005 E48.78589
G1 X-10.559 Y4.051 E48.81282
G1 X-10.335 Y4.08 E48.83536
G1 X-10.126 Y4.089 E48.85623
G1 X-10.053 Y4.088 E48.86352
G1 X-14.079 Y0.062 E49.43163
G1 X-14.08 Y0.019 E49.43592
G1 X-14.078 Y-.2 E49.45777
G1 X-14.06 Y-.386 E49.47642
G1 X-14.021 Y-.689 E49.5069
G1 X-13.996 Y-.832 E49.52139
G1 X-13.98 Y-.905 E49.52884
G1 X-13.939 Y-1.062 E49.54504
G1 X-13.905 Y-1.177 E49.557
G1 X-8.81 Y3.917 E50.27589
G1 X-8.764 Y3.903 E50.28069
G1 X-8.061 Y3.657 E50.355
G1 X-8.052 Y3.675 E50.35701
G1 X-7.733 Y3.58 E50.39022
G1 X-13.468 Y-2.155 E51.19949
G0 F3600 X-13.558 Y1.997
G1 F1125 X-11.991 Y3.564 E51.42062
G1 X-12.091 Y3.508 E51.43205
G1 X-12.299 Y3.379 E51.45647
G1 X-12.448 Y3.268 E51.47501
G1 X-12.667 Y3.092 E51.50305
G1 X-12.828 Y2.95 E51.52447
G1 X-12.968 Y2.802 E51.54479
G1 X-13.154 Y2.59 E51.57294
G1 X-13.291 Y2.419 E51.5948
G1 X-13.398 Y2.257 E51.61417
G1 X-13.544 Y2.023 E51.64169
G1 F3000 E49.14169
G0 F600 X-13.544 Y2.023 Z0.86
G0 F3600 X-11.279 Y4.091
;TIME_ELAPSED:28.974078
;LAYER:-4
;TYPE:SUPPORT-INTERFACE
G1 F3000 E51.6683
G1 F1500 X-11.085 Y4.151 E51.67505
G1 X-10.858 Y4.201 E51.68278
G1 X-10.58 Y4.25 E51.69217
G1 X-10.368 Y4.277 E51.69928
G1 X-10.136 Y4.288 E51.70701
G1 X-9.846 Y4.288 E51.71665
G1 X-9.599 Y4.276 E51.72488
G1 X-9.4 Y4.25 E51.73155
G1 X-9.113 Y4.2 E51.74124
G1 X-8.94 Y4.163 E51.74713
G1 X-8.874 Y4.145 E51.7494
G1 X-8.708 Y4.095 E51.75517
G1 X-8.434 Y3.999 E51.76482
G1 X-11.544 Y3.999 E51.86826
G1 X-11.549 Y3.997 E51.86844
G1 X-11.766 Y3.909 E51.87623
G1 X-11.954 Y3.814 E51.88324
G1 X-12.196 Y3.679 E51.89245
G1 X-12.326 Y3.599 E51.89753
G1 X12.854 Y3.6 E52.73502
G1 X13.018 Y3.417 E52.74319
G1 X13.153 Y3.254 E52.75023
G1 X13.194 Y3.2 E52.75249
G1 X-12.849 Y3.199 E53.61868
G1 X-12.96 Y3.101 E53.62361
G1 X-13.115 Y2.938 E53.63109
G1 X-13.237 Y2.799 E53.63724
G1 X13.474 Y2.8 E54.52565
G1 X13.487 Y2.78 E54.52644
G1 X13.547 Y2.683 E54.53024
G1 X13.615 Y2.565 E54.53477
G1 X13.678 Y2.448 E54.53919
G1 X13.702 Y2.4 E54.54097
G1 X-13.546 Y2.399 E55.44724
G1 X-13.566 Y2.369 E55.44844
G1 X-13.723 Y2.115 E55.45837
G1 X-13.788 Y1.999 E55.4628
G1 X13.886 Y2 E56.38324
G1 X13.922 Y1.916 E56.38628
G1 X13.983 Y1.753 E56.39207
G1 X14.031 Y1.612 E56.39702
G1 X14.034 Y1.6 E56.39743
G1 X-13.969 Y1.599 E57.32881
G1 X-14.019 Y1.473 E57.33332
G1 X-14.101 Y1.238 E57.3416
G1 X-14.112 Y1.199 E57.34295
G1 X14.144 Y1.2 E58.28275
G1 X14.151 Y1.173 E58.28368
G1 X14.173 Y1.076 E58.28698
G1 X14.203 Y0.925 E58.2921
G1 X14.219 Y0.828 E58.29537
G1 X14.222 Y0.8 E58.29631
G1 X-14.206 Y0.799 E59.24183
G1 X-14.21 Y0.778 E59.24254
G1 X-14.246 Y0.569 E59.24959
G1 X-14.263 Y0.399 E59.25528
G1 X14.269 Y0.4 E60.20425
G1 X14.271 Y0.379 E60.20496
G1 X14.28 Y0.221 E60.21022
G1 X14.285 Y0.042 E60.21618
G1 X14.285 Y0.00 E60.21757
G1 X-14.28 Y0.00 E61.16765
G1 X-14.279 Y-.205 E61.17447
G1 X-14.262 Y-.4 E61.18098
G1 X14.269 Y-.399 E62.12992
G1 X14.259 Y-.523 E62.13406
G1 X14.245 Y-.648 E62.13824
G1 X14.227 Y-.782 E62.14274
G1 X14.225 Y-.799 E62.14331
G1 X-14.204 Y-.8 E63.08886
G1 X-14.179 Y-.941 E63.09362
G1 X-14.134 Y-1.111 E63.09947
G1 X-14.106 Y-1.2 E63.10258
G1 X14.146 Y-1.199 E64.04224
G1 X14.138 Y-1.23 E64.04331
G1 X14.071 Y-1.479 E64.05188
G1 X14.035 Y-1.599 E64.05605
G1 X-13.972 Y-1.6 E64.98757
G1 X-13.966 Y-1.619 E64.98823
G1 X-13.883 Y-1.802 E64.99491
G1 X-13.783 Y-2 E65.00229
G1 X13.89 Y-1.999 E65.9227
G1 X13.888 Y-2.004 E65.92288
G1 X13.804 Y-2.195 E65.92982
G1 X13.734 Y-2.34 E65.93517
G1 X13.703 Y-2.399 E65.93739
G1 X-13.545 Y-2.4 E66.84366
G1 X-13.518 Y-2.44 E66.84527
G1 X-13.369 Y-2.644 E66.85367
G1 X-13.241 Y-2.8 E66.86038
G1 X13.473 Y-2.799 E67.74889
G1 X13.394 Y-2.924 E67.75381
G1 X13.327 Y-3.021 E67.75773
G1 X13.198 Y-3.196 E67.76496
G1 X13.196 Y-3.199
G1 X-12.848 Y-3.2 E68.63119
G1 X-12.675 Y-3.35 E68.6388
G1 X-12.509 Y-3.473 E68.64568
G1 X-12.32 Y-3.6 E68.65325
G1 X12.854 Y-3.599 E69.49054
G1 X12.85 Y-3.603 E69.49073
G1 X12.654 Y-3.801 E69.5
G1 X12.541 Y-3.904 E69.50508
G1 X12.432 Y-3.999 E69.50989
G1 X4.476 Y-3.999 E69.77451
G1 X4.749 Y-4.019 E69.78361
G1 X5.394 Y-4.152 E69.80552
G1 X6.015 Y-4.362 E69.82732
G1 X6.096 Y-4.4 E69.8303
G1 X11.895 Y-4.399 E70.02317
G1 X11.838 Y-4.436 E70.02543
G1 X11.748 Y-4.492 E70.02896
G1 X11.624 Y-4.564 E70.03373
G1 X11.46 Y-4.653 E70.03993
G1 X11.313 Y-4.728 E70.04542
G1 X11.206 Y-4.778 E70.04935
G1 X11.156 Y-4.799 E70.05115
G1 X6.922 Y-4.8 E70.19198
G1 X6.994 Y-4.832 E70.1946
G1 X7.273 Y-4.941 E70.20456
G1 X7.382 Y-4.978 E70.20839
G1 X7.523 Y-5.022 E70.2133
G1 X7.809 Y-5.101 E70.22317
G1 X7.954 Y-5.133 E70.22811
G1 X8.068 Y-5.155 E70.23197
G1 X8.29 Y-5.192 E70.23946
G1 X8.343 Y-5.199 E70.24123
G1 X9.735 Y-5.199 E70.28753
G1 X9.66 Y-5.209
G1 X9.403 Y-5.234 E70.29612
G1 X9.226 Y-5.245 E70.30202
G1 X9.056 Y-5.248 E70.30767
G1 X8.909 Y-5.247 E70.31256
G1 X8.648 Y-5.231 E70.32126
G1 X8.403 Y-5.207 E70.32945
G1 X8.343 Y-5.199 E70.33146
G0 F3600 X4.093 Y-3.971
G1 F1500 X3.552 Y-4 E70.34948
G1 X-4.631 Y-4 E70.62165
G1 X-4.595 Y-4.012 E70.62291
G1 X-3.822 Y-4.4 E70.65168
G1 X1.992 Y-4.4 E70.84505
G1 X1.57 Y-4.594 E70.8605
G1 X1.458 Y-4.655 E70.86474
G1 X1.318 Y-4.726 E70.86996
G1 X1.205 Y-4.779 E70.87411
G1 X1.155 Y-4.8 E70.87592
G1 X-3.077 Y-4.8 E71.01667
G1 X-3.005 Y-4.832 E71.01929
G1 X-2.726 Y-4.941 E71.02926
G1 X-2.617 Y-4.978 E71.03309
G1 X-2.476 Y-5.023 E71.03801
G1 X-2.19 Y-5.102 E71.04788
G1 X-2.045 Y-5.134 E71.05282
G1 X-1.931 Y-5.156 E71.05668
G1 X-1.709 Y-5.193 E71.06416
G1 X-1.656 Y-5.2 E71.06594
G1 X-.264 Y-5.2 E71.11224
G1 X-.339 Y-5.21
G1 X-.596 Y-5.235 E71.12083
G1 X-.773 Y-5.246 E71.12673
G1 X-.943 Y-5.249 E71.13238
G1 X-1.09 Y-5.248 E71.13727
G1 X-1.351 Y-5.232 E71.14597
G1 X-1.596 Y-5.208 E71.15416
G1 X-1.656 Y-5.2 E71.15617
G0 F3600 X-5.222 Y-3.806
G1 F1500 X-5.867 Y-3.681 E71.17802
G1 X-6.524 Y-3.639 E71.19992
G1 X-7.18 Y-3.679 E71.22178
G1 X-7.826 Y-3.803 E71.24365
G1 X-8.429 Y-4 E71.26475
G1 X-11.543 Y-4 E71.36833
G1 X-11.439 Y-4.042 E71.37206
G1 X-11.405 Y-4.055 E71.37327
G1 X-11.219 Y-4.111 E71.37973
G1 X-10.927 Y-4.187 E71.38976
G1 X-10.73 Y-4.229 E71.39646
G1 X-10.646 Y-4.244 E71.3993
G1 X-10.534 Y-4.259 E71.40306
G1 X-10.303 Y-4.283 E71.41078
G1 X-10.146 Y-4.295 E71.41602
G1 X-9.928 Y-4.297 E71.42327
G1 X-9.838 Y-4.295 E71.42627
G1 X-9.66 Y-4.282 E71.4322
G1 X-9.458 Y-4.26 E71.43896
G1 X-9.314 Y-4.241 E71.44379
G1 X-9.242 Y-4.228 E71.44622
