;FLAVOR:Marlin
;TIME:626
;Filament used: 0.12m
;Layer height: 0.1
;MINX:-13.332
;MINY:-4.297
;MINZ:0.24
;MAXX:13.336
;MAXY:4.299
;MAXZ:11.64
;Generated with Cura_SteamEngine 4.13.1
M140 S60
M105
M190 S60
M104 S205
M105
M109 S205
M82 ;absolute extrusion mode
G28 ;Home
G1 Z15.0 F6000 ;Move the platform down 15mm
;Prime the extruder
G92 E0
G1 F200 E3
G92 E0
G92 E0
G92 E0
G1 F1800 E-5
;LAYER_COUNT:109
;LAYER:-7
M106 S51
G0 F2100 X1.693 Y3.248 Z0.24
;TYPE:SUPPORT-INTERFACE
G1 F1800 E0.01123
G1 F787.5 X1.042 Y3.622 E0.05617
G1 X0.563 Y3.85 E0.08793
G1 X0.058 Y4.017 E0.11978
G1 X-.674 Y4.13 E0.16412
G1 X-1.241 Y4.13 E0.19806
G1 X-1.751 Y4.071 E0.2288
G1 X-2.479 Y3.852 E0.27431
G1 X-2.996 Y3.604 E0.30864
G1 X-3.676 Y3.17 E0.35694
G1 X-3.961 Y3.01 E0.37651
G1 X-4.573 Y2.736 E0.41665
G1 X-5.215 Y2.543 E0.45678
G1 X-5.876 Y2.432 E0.49691
G1 X-6.546 Y2.404 E0.53706
G1 X-7.213 Y2.463 E0.57715
G1 X-7.869 Y2.604 E0.61732
G1 X-8.564 Y2.856 E0.66158
G1 X-9.064 Y3.046 E0.6936
G1 X-9.566 Y3.164 E0.72447
G1 X-10.111 Y3.18 E0.75711
G1 X-10.603 Y3.132 E0.78671
G1 X-11.18 Y2.951 E0.82291
G1 X-11.625 Y2.742 E0.85235
G1 X-12.076 Y2.404 E0.88609
G1 X-12.469 Y2.011 E0.91936
G1 X-12.752 Y1.577 E0.95038
G1 X-13.003 Y1.054 E0.98511
G1 X-13.125 Y0.546 E1.01639
G1 X-13.181 Y0.035 E1.04716
G1 X-13.127 Y-.534 E1.08138
G1 X-13.013 Y-1.02 E1.11127
G1 X-12.773 Y-1.541 E1.14561
G1 X-12.481 Y-1.993 E1.17783
G1 X-12.102 Y-2.38 E1.21025
G1 X-11.707 Y-2.692 E1.24039
G1 X-11.196 Y-2.945 E1.27453
G1 X-10.642 Y-3.126 E1.30942
G1 X-10.067 Y-3.195 E1.34409
G1 X-9.475 Y-3.148 E1.37964
G1 X-8.99 Y-3.03 E1.40953
G1 X-8.609 Y-2.867 E1.43434
G1 X-7.991 Y-2.632 E1.47392
G1 X-7.34 Y-2.474 E1.51403
G1 X-6.674 Y-2.401 E1.55414
G1 X-6.004 Y-2.411 E1.59425
G1 X-5.341 Y-2.506 E1.63435
G1 X-4.695 Y-2.684 E1.67447
G1 X-4.074 Y-2.943 E1.71475
G1 X-3.406 Y-3.337 E1.76118
G1 X-2.917 Y-3.658 E1.7962
G1 X-2.338 Y-3.905 E1.83389
G1 X-1.829 Y-4.05 E1.86557
G1 X-1.331 Y-4.129 E1.89576
G1 X-.764 Y-4.138 E1.92971
G1 X-.668 Y-4.127 E1.93549
G1 X-.166 Y-4.058 E1.96583
G1 X0.266 Y-3.959 E1.99236
G1 X0.752 Y-3.768 E2.02362
G1 X1.455 Y-3.379 E2.07173
G1 X1.699 Y-3.253 E2.08817
G1 X2.318 Y-2.996 E2.12829
G1 X2.964 Y-2.819 E2.16839
G1 X3.628 Y-2.724 E2.20855
G1 X4.298 Y-2.715 E2.24866
G1 X4.964 Y-2.79 E2.28879
G1 X5.615 Y-2.948 E2.32889
G1 X6.242 Y-3.187 E2.36907
G1 X6.89 Y-3.543 E2.41333
G1 X7.296 Y-3.756 E2.44078
G1 X7.793 Y-3.954 E2.47281
G1 X8.601 Y-4.12 E2.52219
G1 X9.111 Y-4.145 E2.55276
G1 X9.332 Y-4.127 E2.56604
G1 X9.834 Y-4.058 E2.59637
G1 X10.266 Y-3.959 E2.62291
G1 X10.752 Y-3.768 E2.65417
G1 X11.274 Y-3.484 E2.68974
G1 X11.682 Y-3.191 E2.71982
G1 X12.247 Y-2.62 E2.76791
G1 X12.542 Y-2.203 E2.79849
G1 X12.803 Y-1.739 E2.83036
G1 X13.04 Y-1.067 E2.87302
G1 X13.142 Y-.558 E2.9041
G1 X13.186 Y0.031 E2.93946
G1 X13.108 Y0.757 E2.98318
G1 X12.986 Y1.249 E3.01352
G1 X12.789 Y1.761 E3.04637
G1 X12.612 Y2.09 E3.06873
G1 X12.339 Y2.509 E3.09867
G1 X11.787 Y3.096 E3.14691
G1 X11.375 Y3.418 E3.17822
G1 X10.928 Y3.688 E3.20948
G1 X10.228 Y3.965 E3.25455
G1 X9.679 Y4.09 E3.28826
G1 X9.079 Y4.147 E3.32434
G1 X8.399 Y4.09 E3.3652
G1 X7.86 Y3.97 E3.39825
G1 X7.383 Y3.8 E3.42857
G1 X6.816 Y3.488 E3.46732
G1 X6.233 Y3.176 E3.5069
G1 X5.606 Y2.938 E3.54705
G1 X4.955 Y2.781 E3.58715
G1 X4.288 Y2.708 E3.62732
G1 X3.618 Y2.718 E3.66743
G1 X2.956 Y2.814 E3.70748
G1 X2.309 Y2.992 E3.74765
G1 X1.693 Y3.248 E3.78759
G0 F2100 X1.2 Y3.532
G1 F787.5 X1.2 Y-3.52 E4.20978
G0 F2100 X0.00 Y-4.019
G1 F787.5 X0.00 Y4.026 E4.69142
G0 F2100 X-1.2 Y4.13
G1 F787.5 X-1.2 Y-4.132 E5.18605
G0 F2100 X-2.4 Y-3.879
G1 F787.5 X-2.4 Y3.875 E5.65027
G0 F2100 X-3.6 Y3.218
G1 F787.5 X-3.6 Y-3.223 E6.03588
G0 F2100 X-4.8 Y-2.656
G1 F787.5 X-4.8 Y2.667 E6.35456
G0 F2100 X-6 Y2.426
G1 F787.5 X-6 Y-2.412 E6.6442
G0 F2100 X-7.2 Y-2.458
G1 F787.5 X-7.2 Y2.462 E6.93876
G0 F2100 X-8.4 Y2.797
G1 F787.5 X-8.4 Y-2.787 E7.27306
G0 F2100 X-9.6 Y-3.157
G1 F787.5 X-9.6 Y3.165 E7.65155
G0 F2100 X-10.8 Y3.07
G1 F787.5 X-10.8 Y-3.075 E8.01944
G0 F2100 X-12 Y-2.461
G1 F787.5 X-12 Y2.46 E8.31405
G0 F2100 X2.4 Y2.967
G1 F787.5 X2.4 Y-2.973 E8.66967
G0 F2100 X3.6 Y-2.728
G1 F787.5 X3.6 Y2.721 E8.99589
G0 F2100 X4.8 Y2.764
G1 F787.5 X4.8 Y-2.772 E9.32732
G0 F2100 X6 Y-3.095
G1 F787.5 X6 Y3.087 E9.69742
G0 F2100 X7.2 Y3.699
G1 F787.5 X7.2 Y-3.706 E10.14075
G0 F2100 X8.4 Y-4.079
G1 F787.5 X8.4 Y4.09 E10.62981
G0 F2100 X9.6 Y4.098
G1 F787.5 X9.6 Y-4.09 E11.12001
G0 F2100 X10.8 Y-3.741
G1 F787.5 X10.8 Y3.739 E11.56783
G0 F2100 X12 Y2.87
G1 F787.5 X12 Y-2.869 E11.91141
G1 F1800 E6.91141
G0 F600 X12 Y-2.869 Z0.39
G0 F2100 X12.541 Y-2.202
;TIME_ELAPSED:18.687365
;LAYER:-6
;TYPE:SUPPORT
G1 F1800 E11.92264
G1 F787.5 X12.403 Y-2.42 E11.93229
G1 X12.341 Y-2.505 E11.93623
G1 X12.257 Y-2.607 E11.94117
G1 X11.931 Y-2.964 E11.95926
G1 X11.819 Y-3.075 E11.96516
G1 X11.749 Y-3.136 E11.96864
G1 X11.681 Y-3.19 E11.97188
G1 X11.531 Y-3.303 E11.97891
G1 X11.273 Y-3.483 E11.99068
G1 X11.133 Y-3.575 E11.99695
G1 X11.129 Y-3.577
G1 X12.59 Y-2.117 E12.07424
G0 F2100 X11.129 Y-3.577
G1 F787.5 X11.015 Y-3.648 E12.07926
G1 X10.945 Y-3.68 E12.08214
G1 X10.751 Y-3.768 E12.09011
G1 X10.441 Y-3.893 E12.10262
G1 X10.265 Y-3.959 E12.10965
G1 X10.16 Y-3.993 E12.11378
G1 X10.075 Y-4.014 E12.11706
G1 X9.833 Y-4.058 E12.12626
G1 X9.468 Y-4.107 E12.14004
G1 X13.152 Y-.423 E12.33499
G1 X13.181 Y-0.067 E12.34835
G1 X13.184 Y0.031 E12.35202
G1 X13.181 Y0.154 E12.35662
G1 X13.175 Y0.242 E12.35992
G1 X13.155 Y0.424 E12.36677
G1 X13.119 Y0.674 E12.37623
G1 X8.363 Y-4.081 E12.62787
G1 X8.169 Y-4.05 E12.63522
G1 X8.071 Y-4.031 E12.63896
G1 X7.954 Y-4.004 E12.64345
G1 X7.845 Y-3.973 E12.64769
G1 X7.661 Y-3.905 E12.65503
G1 X7.481 Y-3.831 E12.66231
G1 X12.87 Y1.557 E12.94745
G1 X12.851 Y1.607 E12.94945
G1 X12.789 Y1.761 E12.95567
G1 X12.708 Y1.931 E12.96271
G1 X12.611 Y2.089 E12.96965
G1 X12.478 Y2.295 E12.97882
G1 X6.734 Y-3.447 E13.28272
G1 X6.681 Y-3.416 E13.28502
G1 X6.673 Y-3.423 E13.28542
G1 X6.241 Y-3.186 E13.30386
G1 X5.968 Y-3.082 E13.31479
G1 X11.969 Y2.918 E13.63231
G1 X11.786 Y3.095 E13.64184
G1 X11.704 Y3.172 E13.64605
G1 X11.578 Y3.279 E13.65223
G1 X11.468 Y3.356 E13.65726
G1 X11.374 Y3.418 E13.66147
G1 X11.351 Y3.431 E13.66246
G1 X5.097 Y-2.822 E13.99337
G1 X4.963 Y-2.789 E13.99854
G1 X4.297 Y-2.714 E14.02362
G1 X4.07 Y-2.717 E14.03211
G1 X10.617 Y3.828 E14.3785
G1 X10.562 Y3.85 E14.38072
G1 X10.226 Y3.964 E14.39399
G1 X10.057 Y4.017 E14.40062
G1 X9.987 Y4.034 E14.40332
G1 X9.828 Y4.07 E14.40942
G1 X9.738 Y4.082 E14.41281
G1 X2.79 Y-2.865 E14.78045
G1 X2.317 Y-2.995 E14.79881
G1 X1.699 Y-3.251 E14.82384
G1 X1.462 Y-3.388 E14.83408
G1 X1.455 Y-3.378 E14.83454
G1 X1.071 Y-3.615 E14.85142
G1 X1.015 Y-3.647 E14.85383
G1 X0.946 Y-3.679 E14.85668
G1 X0.762 Y-3.762 E14.86423
G1 X8.642 Y4.116 E15.28116
G1 X8.398 Y4.09 E15.29034
G1 X8.236 Y4.068 E15.29646
G1 X8.091 Y4.036 E15.30202
G1 X7.859 Y3.97 E15.31104
G1 X7.52 Y3.851 E15.32449
G1 X7.319 Y3.775 E15.33253
G1 X7.22 Y3.727 E15.33664
G1 X7.144 Y3.686 E15.33987
G1 X7.011 Y3.609 E15.34563
G1 X6.989 Y3.594 E15.34662
G1 X-.739 Y-4.133 E15.75553
G1 X-.753 Y-4.135 E15.75606
G1 X-.888 Y-4.144 E15.76113
G1 X-1.074 Y-4.145 E15.76809
G1 X-1.226 Y-4.139 E15.77378
G1 X-1.368 Y-4.123 E15.77912
G1 X-1.792 Y-4.055 E15.79519
G1 X5.072 Y2.809 E16.15841
G1 X4.954 Y2.781 E16.16295
G1 X4.287 Y2.707 E16.18806
G1 X3.845 Y2.713 E16.2046
G1 X-2.646 Y-3.778 E16.54808
G1 X-2.703 Y-3.754 E16.5504
G1 X-2.796 Y-3.714 E16.55418
G1 X-2.917 Y-3.657 E16.55919
G1 X-2.999 Y-3.609 E16.56274
G1 X-3.158 Y-3.507 E16.56981
G1 X-3.365 Y-3.365 E16.5792
G1 X2.843 Y2.843 E16.90771
G1 X2.309 Y2.991 E16.92845
G1 X1.991 Y3.122 E16.94131
G1 X-4.073 Y-2.942 E17.2622
G1 X-4.693 Y-2.684 E17.28733
G1 X-4.891 Y-2.629 E17.29502
G1 X1.238 Y3.5 E17.61934
G1 X1.041 Y3.621 E17.62799
G1 X0.928 Y3.687 E17.63289
G1 X0.8 Y3.753 E17.63828
G1 X0.685 Y3.802 E17.64296
G1 X0.562 Y3.849 E17.64788
G1 X0.482 Y3.876 E17.65104
G1 X-5.83 Y-2.435 E17.98502
G1 X-6.003 Y-2.411 E17.99156
G1 X-6.672 Y-2.4 E18.0166
G1 X-6.957 Y-2.431 E18.02732
G1 X-.424 Y4.101 E18.373
G1 X-.673 Y4.128 E18.38237
G1 X-.816 Y4.14 E18.38774
G1 X-.962 Y4.148 E18.39321
G1 X-1.106 Y4.141 E18.39861
G1 X-1.24 Y4.128 E18.40364
G1 X-1.564 Y4.092 E18.41584
G1 X-8.471 Y-2.814 E18.78131
G1 X-8.608 Y-2.866 E18.78679
G1 X-8.77 Y-2.94 E18.79346
G1 X-8.989 Y-3.029 E18.8023
G1 X-9.059 Y-3.054 E18.80508
G1 X-9.18 Y-3.093 E18.80984
G1 X-9.335 Y-3.125 E18.81576
G1 X-9.474 Y-3.148 E18.82103
G1 X-9.69 Y-3.176 E18.82918
G1 X-9.827 Y-3.189 E18.83433
G1 X-9.985 Y-3.197 E18.84025
G1 X-3.51 Y3.277 E19.18286
G1 X-3.674 Y3.169 E19.19021
G1 X-3.683 Y3.178 E19.19069
G1 X-3.96 Y3.01 E19.20281
G1 X-4.572 Y2.736 E19.2279
G1 X-5.214 Y2.542 E19.25299
G1 X-5.41 Y2.509 E19.26043
G1 X-10.959 Y-3.039 E19.55404
G1 X-10.987 Y-3.029 E19.55515
G1 X-11.195 Y-2.945 E19.56354
G1 X-11.412 Y-2.846 E19.57247
G1 X-11.58 Y-2.761 E19.57951
G1 X-11.728 Y-2.677 E19.58588
G1 X-6.639 Y2.411 E19.85515
G1 X-7.211 Y2.462 E19.87663
G1 X-7.629 Y2.552 E19.89263
G1 X-12.334 Y-2.151 E20.14155
G1 X-12.426 Y-2.054 E20.14655
G1 X-12.545 Y-1.914 E20.15343
G1 X-12.606 Y-1.827 E20.15741
G1 X-12.669 Y-1.724 E20.16192
G1 X-12.772 Y-1.54 E20.16981
G1 X-12.8 Y-1.486 E20.17209
G1 X-8.485 Y2.827 E20.40037
G1 X-8.563 Y2.856 E20.40349
G1 X-8.618 Y2.88 E20.40573
G1 X-8.797 Y2.952 E20.41295
G1 X-9.063 Y3.046 E20.42351
G1 X-9.225 Y3.095 E20.42984
G1 X-9.325 Y3.119 E20.43369
G1 X-13.104 Y-.659 E20.63363
G1 X-13.125 Y-.534 E20.63838
G1 X-13.158 Y-.282 E20.64788
G1 X-13.175 Y-0.088 E20.65517
G1 X-13.18 Y0.035 E20.65978
G1 X-13.181 Y0.126 E20.66318
G1 X-13.172 Y0.219 E20.66668
G1 X-13.159 Y0.339 E20.6712
G1 X-13.143 Y0.432 E20.67473
G1 X-10.412 Y3.163 E20.81924
G1 X-10.497 Y3.154 E20.82244
G1 X-10.602 Y3.132 E20.82645
G1 X-10.733 Y3.099 E20.83151
G1 X-10.926 Y3.04 E20.83906
G1 X-11.179 Y2.951 E20.8491
G1 X-11.344 Y2.885 E20.85575
G1 X-11.46 Y2.834 E20.86049
G1 X-11.519 Y2.805 E20.86295
G1 X-11.624 Y2.742 E20.86753
G1 X-11.726 Y2.672 E20.87216
G1 X-11.897 Y2.547 E20.88008
G1 X-12.075 Y2.403 E20.88865
G1 X-12.236 Y2.26 E20.89671
G1 X-12.328 Y2.171 E20.9015
G1 X-12.418 Y2.073 E20.90648
G1 X-12.521 Y1.937 E20.91286
G1 X-12.628 Y1.775 E20.92012
G1 X-12.751 Y1.577 E20.92885
G1 X-12.865 Y1.371 E20.93766
G1 X-12.931 Y1.238 E20.94321
G1 X-12.976 Y1.134 E20.94745
G1 X-13.002 Y1.054 E20.9506
G1 X-13.03 Y0.958 E20.95434
G1 X-13.072 Y0.784 E20.96104
G1 X-13.123 Y0.545 E20.97018
G1 F1800 E15.97018
G0 F600 X-13.123 Y0.545 Z0.49
G0 F2100 X-12.59 Y2.099
;TIME_ELAPSED:37.627057
;LAYER:-5
;TYPE:SUPPORT-INTERFACE
G1 F1800 E20.98141
G1 F1050 X12.782 Y2.1 E21.29786
G1 X12.845 Y1.997 E21.29937
G1 X12.93 Y1.812 E21.30191
G1 X12.934 Y1.8 E21.30206
G1 X-12.79 Y1.799 E21.62291
G1 X-12.886 Y1.643 E21.62519
G1 X-12.967 Y1.499 E21.62725
G1 X13.051 Y1.5 E21.95176
G1 X13.126 Y1.301 E21.95442
G1 X13.16 Y1.2 E21.95575
G1 X-13.112 Y1.199 E22.28342
G1 X-13.12 Y1.18 E22.28368
G1 X-13.175 Y0.999 E22.28604
G1 X-13.2 Y0.899 E22.28733
G1 X13.236 Y0.9 E22.61705
G1 X13.256 Y0.781 E22.61856
G1 X13.282 Y0.6 E22.62084
G1 X-13.267 Y0.599 E22.95197
G1 X-13.274 Y0.564 E22.95242
G1 X-13.308 Y0.364 E22.95495
G1 X-13.316 Y0.299 E22.95576
G1 X13.32 Y0.3 E23.28798
G1 X13.324 Y0.263 E23.28845
G1 X13.332 Y0.152 E23.28983
G1 X13.336 Y0.027 E23.29139
G1 X13.335 Y0.00 E23.29173
G1 X-13.329 Y0.00 E23.6243
G1 X-13.325 Y-.106 E23.62562
G1 X-13.309 Y-.288 E23.6279
G1 X-13.307 Y-.3 E23.62805
G1 X13.314 Y-.299 E23.96008
G1 X13.292 Y-.565 E23.96341
G1 X13.289 Y-.599 E23.96384
G1 X-13.266 Y-.6 E24.29505
G1 X-13.238 Y-.769 E24.29718
G1 X-13.216 Y-.872 E24.2985
G1 X-13.209 Y-.9 E24.29886
G1 X13.239 Y-.899 E24.62873
G1 X13.22 Y-.98 E24.62977
G1 X13.182 Y-1.115 E24.63152
G1 X13.156 Y-1.199 E24.63262
G1 X-13.102 Y-1.2 E24.96012
G1 X-13.021 Y-1.381 E24.96259
G1 X-12.961 Y-1.5 E24.96426
G1 X13.059 Y-1.499 E25.28879
G1 X13.02 Y-1.612 E25.29028
G1 X12.942 Y-1.796 E25.29277
G1 X12.941 Y-1.799
G1 X-12.799 Y-1.8 E25.61382
G1 X-12.738 Y-1.899 E25.61527
G1 X-12.666 Y-2.004 E25.61686
G1 X-12.594 Y-2.091 E25.61826
G1 X-12.586 Y-2.1 E25.61841
G1 X12.775 Y-2.099 E25.93473
G1 X12.667 Y-2.287 E25.93744
G1 X12.598 Y-2.399 E25.93908
G1 X-12.296 Y-2.4 E26.24957
G1 X-12.201 Y-2.492 E26.25122
G1 X-12.051 Y-2.624 E26.25371
G1 X-11.956 Y-2.7 E26.25523
G1 X-7.64 Y-2.7 E26.30906
G1 X-7.314 Y-2.621 E26.31324
G1 X-6.667 Y-2.55 E26.32136
G1 X-6.016 Y-2.56 E26.32948
G1 X-5.371 Y-2.652 E26.33761
G0 F2100 X-5.197 Y-2.7
G1 F1050 X12.376 Y-2.699 E26.55679
G1 X12.373 Y-2.702
G1 X12.102 Y-2.999 E26.5618
G1 X5.195 Y-2.999 E26.64795
G1 X5.571 Y-3.09 E26.65277
G1 X6.117 Y-3.299 E26.66007
G1 X11.786 Y-3.299 E26.73077
G1 X11.614 Y-3.429 E26.73346
G1 X11.371 Y-3.599 E26.73716
G1 X6.681 Y-3.599 E26.79566
G1 X6.699 Y-3.609 E26.79591
G1 X6.704 Y-3.604 E26.796
G1 X6.925 Y-3.739 E26.79923
G1 X7.006 Y-3.786 E26.8004
G1 X7.141 Y-3.851 E26.80227
G1 X7.24 Y-3.894 E26.80362
G1 X7.253 Y-3.899 E26.80379
G1 X10.824 Y-3.899 E26.84833
G1 X10.812 Y-3.904 E26.84849
G1 X10.491 Y-4.034 E26.85281
G1 X10.323 Y-4.097 E26.85505
G1 X10.205 Y-4.135 E26.85659
G1 X10.099 Y-4.161 E26.85796
G1 X10.009 Y-4.179 E26.8591
G1 X9.894 Y-4.199 E26.86056
G1 X8.16 Y-4.199 E26.88218
G1 X8.654 Y-4.278 E26.88842
G1 X8.796 Y-4.29 E26.8902
G1 X8.919 Y-4.296 E26.89174
G1 X9.12 Y-4.294 E26.89424
G1 X9.264 Y-4.285 E26.89604
G1 X9.865 Y-4.204 E26.90361
G0 F2100 X4.938 Y-2.937
G1 F1050 X4.29 Y-2.864 E26.91174
G1 X3.639 Y-2.874 E26.91986
G1 X2.994 Y-2.966 E26.92799
G1 X2.871 Y-3 E26.92958
G1 X-4.325 Y-3 E27.01933
G1 X-4.142 Y-3.077 E27.02181
G1 X-3.764 Y-3.3 E27.02728
G1 X1.977 Y-3.3 E27.09889
G1 X1.765 Y-3.388 E27.10175
G1 X1.415 Y-3.589 E27.10678
G1 X1.41 Y-3.582 E27.10689
G1 X1.381 Y-3.6 E27.10732
G1 X-3.29 Y-3.6 E27.16558
G1 X-3.24 Y-3.635 E27.16634
G1 X-3.074 Y-3.741 E27.16879
G1 X-2.993 Y-3.787 E27.16996
G1 X-2.858 Y-3.852 E27.17182
G1 X-2.759 Y-3.895 E27.17317
G1 X-2.746 Y-3.9 E27.17334
G1 X0.823 Y-3.9 E27.21786
G1 X0.811 Y-3.905 E27.21802
G1 X0.49 Y-4.035 E27.22234
G1 X0.322 Y-4.098 E27.22458
G1 X0.204 Y-4.136 E27.22613
G1 X0.098 Y-4.162 E27.22749
G1 X0.008 Y-4.18 E27.22863
G1 X-.105 Y-4.2 E27.23006
G1 X-1.839 Y-4.2 E27.25169
G1 X-1.345 Y-4.279 E27.25793
G1 X-1.203 Y-4.291 E27.25971
G1 X-1.08 Y-4.297 E27.26124
G1 X-.879 Y-4.295 E27.26375
G1 X-.735 Y-4.286 E27.26555
G1 X-.134 Y-4.205 E27.27311
G0 F2100 X-5.412 Y-2.859
G0 X-6.119 Y-2.805
G0 X-7.64 Y-2.7
G1 F1050 X-7.947 Y-2.774 E27.27705
G1 X-8.54 Y-3 E27.28497
G1 X-11.435 Y-3 E27.32108
G1 X-11.247 Y-3.085 E27.32365
G1 X-11.044 Y-3.168 E27.32638
G1 X-10.964 Y-3.197 E27.32745
G1 X-10.833 Y-3.239 E27.32916
G1 X-10.671 Y-3.272 E27.33122
G1 X-10.523 Y-3.296 E27.33309
G1 X-10.492 Y-3.3 E27.33348
G1 X-9.485 Y-3.3 E27.34604
G0 F2100 X-9.671 Y-3.324
G1 F1050 X-9.81 Y-3.338 E27.34779
G1 X-9.989 Y-3.347 E27.35002
G1 X-10.168 Y-3.337 E27.35226
G1 X-10.307 Y-3.324 E27.354
G1 X-10.492 Y-3.3 E27.35633
G0 F2100 X-12.587 Y2.102
G1 F1050 X-12.531 Y2.173 E27.35745
G1 X-12.441 Y2.27 E27.3591
G1 X-12.345 Y2.364 E27.36078
G1 X-12.306 Y2.399 E27.36143
G1 X12.588 Y2.4 E27.67192
G1 X12.451 Y2.609 E27.67504
G1 X12.412 Y2.662 E27.67586
G1 X12.379 Y2.7 E27.67649
G1 X-5.216 Y2.699 E27.89594
G1 X-5.249 Y2.689 E27.89637
G1 X-5.891 Y2.581 E27.90449
G1 X-6.542 Y2.554 E27.91262
G1 X-7.19 Y2.61 E27.92073
G0 F2100 X-7.602 Y2.699
G1 F1050 X-11.944 Y2.699 E27.97489
G1 X-11.816 Y2.793 E27.97687
G1 X-11.712 Y2.863 E27.97843
G1 X-11.587 Y2.938 E27.98025
G1 X-11.523 Y2.97 E27.98114
G1 X-11.459 Y2.999 E27.98202
G1 X-8.519 Y2.999 E28.01869
G1 X-8.568 Y3.022 E28.01936
