;FLAVOR:Marlin
;TIME:233
;Filament used: 0.0961488m
;Layer height: 0.15
;MINX:-10.839
;MINY:-4.548
;MINZ:0.3
;MAXX:10.838
;MAXY:4.532
;MAXZ:13.95
;Generated with Cura_SteamEngine 4.13.1
M140 S60
M105
M190 S60
M104 S200
M105
M109 S200
M82 ;absolute extrusion mode
G28 ;Home
G1 Z15.0 F6000 ;Move the platform down 15mm
;Prime the extruder
G92 E0
G1 F200 E3
G92 E0
G92 E0
G92 E0
G1 F1500 E-6.5
;LAYER_COUNT:92
;LAYER:0
M107
G0 F1800 X2.709 Y-2.804 Z0.3
;TYPE:SKIRT
G1 F1500 E0
G1 F1800 X3.146 Y-3.287 E0.0325
G1 X3.533 Y-3.617 E0.05787
G1 X3.952 Y-3.902 E0.08315
G1 X4.401 Y-4.139 E0.10848
G1 X4.885 Y-4.328 E0.1344
G1 X5.375 Y-4.457 E0.15968
G1 X5.889 Y-4.532 E0.1856
G1 X6.69 Y-4.532 E0.22556
G1 X7.204 Y-4.457 E0.25148
G1 X7.695 Y-4.328 E0.2768
G1 X8.181 Y-4.137 E0.30285
G1 X8.624 Y-3.904 E0.32783
G1 X9.044 Y-3.619 E0.35315
G1 X9.431 Y-3.29 E0.37849
G1 X9.781 Y-2.916 E0.40405
G1 X10.088 Y-2.502 E0.42976
G1 X10.341 Y-2.069 E0.45478
G1 X10.549 Y-1.598 E0.48047
G1 X10.701 Y-1.11 E0.50597
G1 X10.797 Y-.612 E0.53127
G1 X10.838 Y-.106 E0.5566
G1 X10.82 Y0.412 E0.58246
G1 X10.747 Y0.909 E0.60752
G1 X10.616 Y1.407 E0.63321
G1 X10.432 Y1.88 E0.65853
G1 X10.192 Y2.336 E0.68424
G1 X9.911 Y2.752 E0.70928
G1 X9.576 Y3.145 E0.73505
G1 X9.202 Y3.493 E0.76053
G1 X8.791 Y3.798 E0.78607
G1 X8.184 Y4.136 E0.82073
G1 X7.695 Y4.328 E0.84694
G1 X7.204 Y4.457 E0.87227
G1 X6.69 Y4.532 E0.89818
G1 X5.889 Y4.532 E0.93814
G1 X5.375 Y4.457 E0.96406
G1 X4.885 Y4.328 E0.98934
G1 X4.401 Y4.139 E1.01526
G1 X3.952 Y3.902 E1.04059
G1 X3.533 Y3.617 E1.06587
G1 X3.146 Y3.287 E1.09124
G1 X2.797 Y2.915 E1.11669
G1 X2.709 Y2.804 E1.12376
G1 X2.272 Y3.287 E1.15626
G1 X1.885 Y3.617 E1.18163
G1 X1.466 Y3.902 E1.20691
G1 X1.017 Y4.139 E1.23224
G1 X0.533 Y4.328 E1.25816
G1 X0.042 Y4.457 E1.28349
G1 X-.472 Y4.532 E1.30941
G1 X-1.272 Y4.532 E1.34932
G1 X-1.786 Y4.457 E1.37523
G1 X-2.277 Y4.328 E1.40056
G1 X-2.766 Y4.136 E1.42677
G1 X-3.208 Y3.902 E1.45172
G1 X-3.626 Y3.619 E1.47691
G1 X-4.015 Y3.287 E1.50242
G1 X-4.364 Y2.915 E1.52787
G1 X-4.671 Y2.5 E1.55362
G1 X-4.712 Y2.435 E1.55746
G1 X-5.178 Y2.85 E1.58859
G1 X-5.702 Y3.173 E1.6193
G1 X-6.251 Y3.392 E1.64879
G1 X-6.843 Y3.52 E1.679
G1 X-7.442 Y3.545 E1.70891
G1 X-8.045 Y3.467 E1.73925
G1 X-8.61 Y3.294 E1.76873
G1 X-9.155 Y3.019 E1.79918
G1 X-9.638 Y2.661 E1.82918
G1 X-10.053 Y2.227 E1.85914
G1 X-10.391 Y1.727 E1.88925
G1 X-10.639 Y1.176 E1.91939
G1 X-10.788 Y0.597 E1.94922
G1 X-10.839 Y-0.008 E1.97951
G1 X-10.788 Y-.596 E2.00896
G1 X-10.637 Y-1.181 E2.0391
G1 X-10.386 Y-1.735 E2.06944
G1 X-10.048 Y-2.233 E2.09947
G1 X-9.634 Y-2.663 E2.12925
G1 X-9.142 Y-3.026 E2.15975
G1 X-8.611 Y-3.292 E2.18938
G1 X-8.046 Y-3.465 E2.21886
G1 X-7.444 Y-3.544 E2.24915
G1 X-6.822 Y-3.516 E2.28022
G1 X-6.252 Y-3.391 E2.30933
G1 X-5.696 Y-3.168 E2.33922
G1 X-5.182 Y-2.852 E2.36932
G1 X-4.729 Y-2.454 E2.3994
G1 X-4.712 Y-2.435 E2.40068
G1 X-4.364 Y-2.915 E2.43025
G1 X-4.015 Y-3.287 E2.4557
G1 X-3.628 Y-3.617 E2.48108
G1 X-3.207 Y-3.903 E2.50647
G1 X-2.481 Y-4.256 E2.54674
G1 X-1.98 Y-4.413 E2.57294
G1 X-1.479 Y-4.509 E2.59839
G1 X-.966 Y-4.548 E2.62405
G1 X-.778 Y-4.548 E2.63343
G1 X-.265 Y-4.509 E2.6591
G1 X0.236 Y-4.413 E2.68455
G1 X0.731 Y-4.258 E2.71043
G1 X1.195 Y-4.052 E2.73576
G1 X1.632 Y-3.797 E2.761
G1 X2.04 Y-3.495 E2.78632
G1 X2.413 Y-3.147 E2.81177
G1 X2.709 Y-2.804 E2.83438
G0 X2.994 Y-2.522
G1 X3.412 Y-2.989 E2.86565
G1 X4.016 Y-3.47 E2.90417
G1 X4.556 Y-3.77 E2.93499
G1 X5.292 Y-4.028 E2.9739
G1 X5.91 Y-4.132 E3.00516
G1 X6.669 Y-4.132 E3.04303
G1 X7.288 Y-4.028 E3.07434
G1 X8.026 Y-3.769 E3.11336
G1 X8.562 Y-3.471 E3.14396
G1 X9.165 Y-2.991 E3.18241
G1 X9.583 Y-2.524 E3.21368
G1 X9.992 Y-1.874 E3.25199
G1 X10.232 Y-1.295 E3.28326
G1 X10.403 Y-.545 E3.32164
G1 X10.439 Y0.081 E3.35293
G1 X10.353 Y0.842 E3.39113
G1 X10.18 Y1.444 E3.42238
G1 X9.843 Y2.142 E3.46105
G1 X9.484 Y2.648 E3.492
G1 X8.936 Y3.195 E3.53063
G1 X8.432 Y3.552 E3.56145
G1 X7.743 Y3.887 E3.59967
G1 X7.137 Y4.062 E3.63114
G1 X6.363 Y4.148 E3.66999
G1 X5.748 Y4.114 E3.70072
G1 X4.995 Y3.943 E3.73924
G1 X4.415 Y3.702 E3.77058
G1 X3.764 Y3.291 E3.80899
G1 X3.301 Y2.878 E3.83994
G1 X2.816 Y2.27 E3.87874
G1 X2.709 Y2.093 E3.88906
G1 X2.424 Y2.521 E3.91472
G1 X2.006 Y2.989 E3.94602
G1 X1.402 Y3.47 E3.98454
G1 X0.862 Y3.77 E4.01536
G1 X0.126 Y4.028 E4.05427
G1 X-.493 Y4.132 E4.08559
G1 X-1.251 Y4.132 E4.1234
G1 X-1.87 Y4.028 E4.15472
G1 X-2.61 Y3.767 E4.19387
G1 X-3.142 Y3.472 E4.22422
G1 X-3.749 Y2.989 E4.26292
G1 X-4.167 Y2.522 E4.29419
G1 X-4.575 Y1.872 E4.33247
G1 X-4.651 Y1.713 E4.34127
G1 X-5.007 Y2.167 E4.37005
G1 X-5.403 Y2.519 E4.39648
G1 X-5.865 Y2.808 E4.42367
G1 X-6.353 Y3.005 E4.44993
G1 X-6.877 Y3.121 E4.4767
G1 X-7.408 Y3.146 E4.50322
G1 X-7.943 Y3.08 E4.53012
G1 X-8.447 Y2.929 E4.55636
G1 X-8.93 Y2.688 E4.58329
G1 X-9.361 Y2.372 E4.60996
G1 X-9.731 Y1.99 E4.63649
G1 X-10.033 Y1.547 E4.66324
G1 X-10.256 Y1.059 E4.69001
G1 X-10.392 Y0.547 E4.71644
G1 X-10.44 Y0.01 E4.74333
G1 X-10.397 Y-.513 E4.76951
G1 X-10.266 Y-1.032 E4.79622
G1 X-10.046 Y-1.524 E4.82311
G1 X-9.748 Y-1.968 E4.84979
G1 X-9.383 Y-2.352 E4.87622
G1 X-8.948 Y-2.676 E4.90328
G1 X-8.478 Y-2.914 E4.92956
G1 X-7.976 Y-3.072 E4.95582
G1 X-7.444 Y-3.144 E4.9826
G1 X-6.892 Y-3.122 E5.01016
G1 X-6.385 Y-3.013 E5.03603
G1 X-5.89 Y-2.818 E5.06258
G1 X-5.433 Y-2.541 E5.08924
G1 X-5.029 Y-2.189 E5.11597
G1 X-4.694 Y-1.779 E5.14239
G1 X-4.645 Y-1.727 E5.14595
G1 X-4.345 Y-2.27 E5.1769
G1 X-3.86 Y-2.878 E5.2157
G1 X-3.397 Y-3.291 E5.24666
G1 X-2.746 Y-3.701 E5.28504
G1 X-2.167 Y-3.943 E5.31635
G1 X-1.412 Y-4.114 E5.35497
G1 X-.799 Y-4.148 E5.3856
G1 X-0.025 Y-4.062 E5.42445
G1 X0.577 Y-3.889 E5.4557
G1 X1.271 Y-3.553 E5.49417
G1 X1.774 Y-3.196 E5.52494
G1 X2.322 Y-2.649 E5.56357
G1 X2.682 Y-2.141 E5.59463
G1 X2.709 Y-2.093 E5.59738
G1 X2.994 Y-2.522 E5.62308
G0 X3.648 Y-2.06
G1 X4.176 Y-2.598 E5.66068
G1 X4.803 Y-3.002 E5.6979
G1 X5.215 Y-3.174 E5.72017
G1 X5.882 Y-3.326 E5.7543
G1 X6.321 Y-3.349 E5.77623
G1 X7.003 Y-3.274 E5.81046
G1 X7.433 Y-3.15 E5.83279
G1 X8.043 Y-2.854 E5.86662
G1 X8.632 Y-2.394 E5.9039
G1 X9.109 Y-1.809 E5.94156
G1 X9.44 Y-1.139 E5.97884
G1 X9.614 Y-.41 E6.01623
G1 X9.64 Y0.034 E6.03842
G1 X9.564 Y0.71 E6.07236
G1 X9.323 Y1.421 E6.10982
G1 X8.931 Y2.06 E6.14722
G1 X8.403 Y2.598 E6.18482
G1 X7.777 Y3.001 E6.22197
G1 X7.365 Y3.174 E6.24426
G1 X6.696 Y3.326 E6.27849
G1 X5.952 Y3.333 E6.31561
G1 X5.215 Y3.174 E6.35322
G1 X4.535 Y2.853 E6.39074
G1 X3.945 Y2.392 E6.42809
G1 X3.47 Y1.808 E6.46565
G1 X3.139 Y1.138 E6.50293
G1 X3.015 Y0.709 E6.52521
G1 X2.941 Y0.032 E6.55919
G1 X3.015 Y-.709 E6.59634
G1 X3.256 Y-1.421 E6.63384
G1 X3.648 Y-2.06 E6.67124
G0 X3.975 Y-1.829
G1 X4.442 Y-2.299 E6.7043
G1 X4.998 Y-2.653 E6.73718
G1 X5.622 Y-2.874 E6.77021
G1 X6.28 Y-2.95 E6.80325
G1 X6.3 Y-2.95 E6.80425
G1 X6.936 Y-2.879 E6.83618
G1 X7.561 Y-2.662 E6.86919
G1 X8.119 Y-2.314 E6.902
G1 X8.589 Y-1.848 E6.93502
G1 X8.943 Y-1.291 E6.96794
G1 X9.163 Y-.668 E7.00091
G1 X9.241 Y-0.013 E7.03381
G1 X9.169 Y0.643 E7.06674
G1 X8.954 Y1.268 E7.09971
G1 X8.604 Y1.829 E7.1327
G1 X8.137 Y2.299 E7.16576
G1 X7.582 Y2.652 E7.19857
G1 X6.958 Y2.874 E7.23162
G1 X6.3 Y2.95 E7.26466
G1 X5.643 Y2.879 E7.29763
G1 X5.018 Y2.663 E7.33062
G1 X4.459 Y2.313 E7.36353
G1 X3.989 Y1.847 E7.39655
G1 X3.635 Y1.289 E7.42951
G1 X3.415 Y0.665 E7.46252
G1 X3.34 Y0.011 E7.49537
G1 X3.41 Y-.643 E7.52818
G1 X3.625 Y-1.268 E7.56116
G1 X3.975 Y-1.829 E7.59414
G1 F1500 E1.09414
G0 F1800 X2.024 Y-2.382
G1 F1500 E7.59414
G1 F1800 X2.332 Y-1.947 E7.62074
G1 X2.647 Y-1.296 E7.65682
G1 X2.709 Y-1.105 E7.66683
G1 X2.886 Y-1.574 E7.69184
G1 X3.143 Y-2.039 E7.71835
G1 X3.599 Y-2.611 E7.75485
G1 X3.996 Y-2.965 E7.78138
G1 X4.609 Y-3.352 E7.81755
G1 X5.105 Y-3.558 E7.84435
G1 X5.815 Y-3.72 E7.88068
G1 X6.342 Y-3.749 E7.90701
G1 X7.07 Y-3.668 E7.94355
G1 X7.588 Y-3.519 E7.97044
G1 X8.237 Y-3.204 E8.00644
G1 X8.668 Y-2.898 E8.03281
G1 X9.185 Y-2.382 E8.06925
G1 X9.493 Y-1.948 E8.0958
G1 X9.81 Y-1.292 E8.13215
G1 X9.957 Y-.782 E8.15863
G1 X10.039 Y-0.059 E8.19493
G1 X10.009 Y0.473 E8.22151
G1 X9.847 Y1.185 E8.25794
G1 X9.643 Y1.678 E8.28456
G1 X9.258 Y2.291 E8.32068
G1 X8.901 Y2.69 E8.34739
G1 X8.329 Y3.145 E8.38385
G1 X7.873 Y3.399 E8.40989
G1 X7.178 Y3.643 E8.44664
G1 X6.648 Y3.733 E8.47346
G1 X5.931 Y3.733 E8.50923
G1 X5.402 Y3.643 E8.536
G1 X4.71 Y3.401 E8.57258
G1 X4.248 Y3.144 E8.59895
G1 X3.678 Y2.69 E8.63531
G1 X3.321 Y2.291 E8.66202
G1 X2.936 Y1.678 E8.69813
G1 X2.732 Y1.185 E8.72475
G1 X2.709 Y1.105 E8.72891
G1 X2.527 Y1.581 E8.75433
G1 X2.274 Y2.039 E8.78043
G1 X1.819 Y2.611 E8.8169
G1 X1.422 Y2.965 E8.84344
G1 X0.809 Y3.352 E8.8796
G1 X0.313 Y3.558 E8.9064
G1 X-.399 Y3.72 E8.94283
G1 X-.924 Y3.749 E8.96906
G1 X-1.652 Y3.668 E9.0056
G1 X-2.17 Y3.519 E9.0325
G1 X-2.819 Y3.203 E9.06851
G1 X-3.252 Y2.896 E9.09499
G1 X-3.768 Y2.381 E9.13136
G1 X-4.075 Y1.948 E9.15784
G1 X-4.392 Y1.291 E9.19424
G1 X-4.54 Y0.776 E9.22097
G1 X-4.589 Y0.5 E9.23495
G1 X-4.772 Y1.101 E9.2663
G1 X-4.996 Y1.513 E9.28969
G1 X-5.285 Y1.879 E9.31296
G1 X-5.627 Y2.188 E9.33596
G1 X-6.029 Y2.443 E9.35971
G1 X-6.454 Y2.618 E9.38264
G1 X-6.91 Y2.722 E9.40597
G1 X-7.375 Y2.747 E9.4292
G1 X-7.842 Y2.693 E9.45266
G1 X-8.283 Y2.564 E9.47558
G1 X-8.706 Y2.357 E9.49908
G1 X-9.085 Y2.083 E9.52241
G1 X-9.409 Y1.752 E9.54552
G1 X-9.676 Y1.367 E9.56889
G1 X-9.874 Y0.943 E9.59224
G1 X-9.995 Y0.496 E9.61534
G1 X-10.04 Y0.028 E9.6388
G1 X-10.006 Y-.429 E9.66166
G1 X-9.894 Y-.883 E9.68499
G1 X-9.706 Y-1.314 E9.70845
G1 X-9.448 Y-1.704 E9.73178
G1 X-9.131 Y-2.041 E9.75486
G1 X-8.754 Y-2.326 E9.77844
G1 X-8.345 Y-2.537 E9.8014
G1 X-7.906 Y-2.678 E9.8244
G1 X-7.444 Y-2.744 E9.84769
G1 X-6.962 Y-2.729 E9.87174
G1 X-6.518 Y-2.636 E9.89438
G1 X-6.084 Y-2.468 E9.91759
G1 X-5.685 Y-2.23 E9.94077
G1 X-5.329 Y-1.925 E9.96416
G1 X-5.034 Y-1.568 E9.98727
G1 X-4.8 Y-1.161 E10.01069
G1 X-4.641 Y-.728 E10.0337
G1 X-4.589 Y-.488 E10.04595
G1 X-4.429 Y-1.185 E10.08163
G1 X-4.225 Y-1.678 E10.10825
G1 X-3.84 Y-2.291 E10.14436
G1 X-3.483 Y-2.69 E10.17107
G1 X-2.913 Y-3.144 E10.20743
G1 X-2.455 Y-3.399 E10.23358
G1 X-1.76 Y-3.643 E10.27033
G1 X-1.23 Y-3.733 E10.29715
G1 X-.82 Y-3.749 E10.31762
G1 X-0.092 Y-3.668 E10.35416
G1 X0.423 Y-3.52 E10.3809
G1 X1.077 Y-3.203 E10.41716
G1 X1.507 Y-2.898 E10.44346
G1 X2.024 Y-2.382 E10.4799
G0 X1.726 Y-2.115
G1 X2.132 Y-1.483 E10.51738
G1 X2.387 Y-.778 E10.55478
G1 X2.477 Y-0.032 E10.59227
G1 X2.403 Y0.709 E10.62942
G1 X2.278 Y1.143 E10.65195
G1 X1.983 Y1.752 E10.68571
G1 X1.521 Y2.344 E10.72318
G1 X0.938 Y2.818 E10.76066
G1 X0.269 Y3.151 E10.79795
G1 X-.466 Y3.326 E10.83564
G1 X-1.209 Y3.333 E10.87271
G1 X-1.947 Y3.174 E10.91037
G1 X-2.625 Y2.853 E10.9478
G1 X-3.216 Y2.392 E10.98519
G1 X-3.691 Y1.808 E11.02275
G1 X-4.022 Y1.138 E11.06003
G1 X-4.146 Y0.71 E11.08226
G1 X-4.222 Y0.036 E11.1161
G1 X-4.146 Y-.71 E11.15351
G1 X-3.905 Y-1.421 E11.19097
G1 X-3.513 Y-2.06 E11.22837
G1 X-2.985 Y-2.598 E11.26598
G1 X-2.358 Y-3.002 E11.30319
G1 X-1.947 Y-3.174 E11.32542
G1 X-1.278 Y-3.326 E11.35964
G1 X-.841 Y-3.349 E11.38148
G1 X-.159 Y-3.274 E11.41571
G1 X0.552 Y-3.033 E11.45316
G1 X1.189 Y-2.64 E11.4905
G1 X1.726 Y-2.115 E11.52797
G0 X1.428 Y-1.848
G1 X1.782 Y-1.289 E11.56098
G1 X2.002 Y-.668 E11.59385
G1 X2.078 Y-0.011 E11.62685
G1 X2.008 Y0.643 E11.65966
G1 X1.79 Y1.27 E11.69278
G1 X1.443 Y1.829 E11.7256
G1 X0.976 Y2.299 E11.75866
G1 X0.42 Y2.653 E11.79154
G1 X-.204 Y2.874 E11.82457
G1 X-.862 Y2.95 E11.85761
G1 X-1.518 Y2.879 E11.89053
G1 X-2.145 Y2.661 E11.92365
G1 X-2.702 Y2.313 E11.95642
G1 X-3.172 Y1.847 E11.98944
G1 X-3.526 Y1.289 E12.02241
G1 X-3.746 Y0.665 E12.05542
G1 X-3.823 Y0.013 E12.08817
G1 X-3.751 Y-.643 E12.1211
G1 X-3.536 Y-1.268 E12.15407
G1 X-3.186 Y-1.829 E12.18706
G1 X-2.719 Y-2.299 E12.22011
G1 X-2.164 Y-2.652 E12.25293
G1 X-1.54 Y-2.874 E12.28597
G1 X-.882 Y-2.95 E12.31902
G1 X-.862 Y-2.95 E12.32002
G1 X-.226 Y-2.879 E12.35194
G1 X0.398 Y-2.664 E12.38487
G1 X0.958 Y-2.314 E12.41782
G1 X1.428 Y-1.848 E12.45084
G1 F1500 E5.95084
G0 F1800 X1.55 Y-1.958
G0 X0.786 Y-2.637
G0 X0.157 Y-2.941
G0 X-.524 Y-3.096
G0 X-1.564 Y-3.038
G0 X-2.225 Y-2.806
G0 X-2.912 Y-2.319
G0 X-5.032 Y-.643
G1 F1500 E12.45084
G1 F1800 X-4.955 Y-.248 E12.47092
G1 X-4.946 Y0.151 E12.49083
G1 X-5.006 Y0.542 E12.51056
G1 X-5.129 Y0.921 E12.53044
G1 X-5.317 Y1.275 E12.55044
G1 X-5.562 Y1.59 E12.57035
G1 X-5.852 Y1.857 E12.59001
G1 X-6.193 Y2.078 E12.61029
G1 X-6.556 Y2.231 E12.62994
G1 X-6.944 Y2.324 E12.64985
G1 X-7.341 Y2.349 E12.66969
G1 X-7.74 Y2.306 E12.68971
G1 X-8.119 Y2.199 E12.70936
G1 X-8.481 Y2.026 E12.72938
G1 X-8.808 Y1.794 E12.74938
G1 X-9.088 Y1.514 E12.76914
G1 X-9.319 Y1.187 E12.78911
G1 X-9.491 Y0.826 E12.80906
G1 X-9.598 Y0.445 E12.8288
G1 X-9.64 Y0.045 E12.84887
G1 X-9.615 Y-.346 E12.86842
G1 X-9.523 Y-.735 E12.88836
G1 X-9.366 Y-1.103 E12.90832
G1 X-9.148 Y-1.439 E12.9283
G1 X-8.88 Y-1.73 E12.94804
G1 X-8.56 Y-1.977 E12.96821
G1 X-8.212 Y-2.16 E12.98782
G1 X-7.837 Y-2.284 E13.00753
G1 X-7.444 Y-2.344 E13.02736
G1 X-7.137 Y-2.344 E13.04268
G1 X-6.651 Y-2.259 E13.06729
G1 X-6.278 Y-2.119 E13.08717
G1 X-5.936 Y-1.919 E13.10694
G1 X-5.629 Y-1.66 E13.12697
G1 X-5.374 Y-1.358 E13.14669
G1 X-5.171 Y-1.013 E13.16666
G1 X-5.032 Y-.643 E13.18638
G0 X-5.423 Y-.558
G1 X-5.354 Y-.231 E13.20306
G1 X-5.343 Y0.099 E13.21953
G1 X-5.389 Y0.427 E13.23605
G1 X-5.486 Y0.741 E13.25245
G1 X-5.638 Y1.036 E13.26901
G1 X-5.839 Y1.302 E13.28564
G1 X-6.077 Y1.526 E13.30195
G1 X-6.356 Y1.713 E13.3187
G1 X-6.657 Y1.844 E13.33508
G1 X-6.977 Y1.925 E13.35155
G1 X-7.308 Y1.95 E13.36811
G1 X-7.639 Y1.919 E13.38469
G1 X-7.956 Y1.834 E13.40107
G1 X-8.256 Y1.695 E13.41756
G1 X-8.531 Y1.505 E13.43424
G1 X-8.766 Y1.277 E13.45058
G1 X-8.962 Y1.007 E13.46722
G1 X-9.108 Y0.709 E13.48378
G1 X-9.201 Y0.394 E13.50016
G1 X-9.241 Y0.063 E13.5168
G1 X-9.224 Y-.263 E13.53308
G1 X-9.152 Y-.586 E13.54959
G1 X-9.026 Y-.892 E13.5661
G1 X-8.848 Y-1.174 E13.58274
G1 X-8.629 Y-1.419 E13.59913
G1 X-8.366 Y-1.627 E13.61586
G1 X-8.079 Y-1.783 E13.63216
G1 X-7.767 Y-1.89 E13.64862
G1 X-7.444 Y-1.944 E13.66495
G1 X-7.137 Y-1.944 E13.68027
G1 X-6.784 Y-1.882 E13.69815
G1 X-6.472 Y-1.769 E13.71471
G1 X-6.187 Y-1.608 E13.73104
G1 X-5.929 Y-1.395 E13.74773
G1 X-5.714 Y-1.147 E13.7641
G1 X-5.542 Y-.864 E13.78063
G1 X-5.423 Y-.558 E13.79701
;MESH:Connector_FPX.STL
G0 X-6.286 Y-.743
;TYPE:WALL-OUTER
G1 X-6.098 Y-.368 E13.81793
G1 X-6.043 Y0.056 E13.83926
G1 X-6.131 Y0.462 E13.85999
G1 X-6.354 Y0.826 E13.88129
G1 X-6.685 Y1.093 E13.9025
G1 X-7.084 Y1.232 E13.92358
G1 X-7.498 Y1.232 E13.94424
G1 X-7.897 Y1.093 E13.96532
G1 X-8.229 Y0.825 E13.9866
G1 X-8.451 Y0.467 E14.00762
G1 X-8.539 Y0.057 E14.02854
G1 X-8.485 Y-.37 E14.05001
G1 X-8.296 Y-.743 E14.07088
G1 X-7.988 Y-1.036 E14.09208
G1 X-7.602 Y-1.21 E14.11321
G1 X-7.291 Y-1.25 E14.12885
G1 X-6.98 Y-1.21 E14.1445
G1 X-6.594 Y-1.036 E14.16562
G1 X-6.286 Y-.743 E14.18683
G0 X-6.197 Y-.565
G0 X-6.612 Y-.501
;TYPE:WALL-INNER
G1 X-6.486 Y-.249 E14.20088
G1 X-6.449 Y0.039 E14.21537
G1 X-6.508 Y0.311 E14.22926
G1 X-6.659 Y0.559 E14.24374
G1 X-6.88 Y0.737 E14.2579
G1 X-7.153 Y0.832 E14.27232
G1 X-7.429 Y0.832 E14.28609
G1 X-7.702 Y0.737 E14.30051
G1 X-7.924 Y0.558 E14.31474
G1 X-8.075 Y0.315 E14.32901
G1 X-8.134 Y0.04 E14.34304
G1 X-8.097 Y-.251 E14.35768
G1 X-7.97 Y-.5 E14.37162
G1 X-7.761 Y-.699 E14.38602
G1 X-7.492 Y-.821 E14.40076
G1 X-7.09 Y-.821 E14.42081
G1 X-6.821 Y-.699 E14.43555
G1 X-6.612 Y-.501 E14.44991
G0 X-6.93 Y-.264
;TYPE:SKIN
G1 X-6.844 Y0.021 E14.46476
G1 X-6.874 Y0.164 E14.47205
G1 X-6.957 Y0.299 E14.47996
G1 X-7.072 Y0.391 E14.48731
G1 X-7.219 Y0.442 E14.49507
G1 X-7.507 Y0.392 E14.50965
G1 X-7.627 Y0.296 E14.51732
G1 X-7.707 Y0.166 E14.52494
G1 X-7.738 Y0.021 E14.53233
G1 X-7.719 Y-.136 E14.54022
G1 X-7.655 Y-.261 E14.54723
G1 X-7.539 Y-.371 E14.55521
G1 X-7.407 Y-.431 E14.56244
G1 X-7.175 Y-.431 E14.57401
G1 X-6.93 Y-.264 E14.58881
G0 X-7.138 Y0.214
G1 X-7.505 Y-.152 E14.61467
G1 F1500 E8.11467
G0 F1800 X-6.505 Y-.244
G0 X-5.245 Y-.515
G0 X-3.986 Y-0.05
G0 X-3.101 Y0.00
G0 X-2.511 Y-.741
G1 F1500 E14.61467
G0 F1800 X-2.42 Y-.7
;TYPE:WALL-OUTER
