;FLAVOR:Marlin
;TIME:529
;Filament used: 0.364671m
;Layer height: 0.2
;MINX:-13.814
;MINY:-7.816
;MINZ:0.36
;MAXX:14.294
;MAXY:7.818
;MAXZ:7.21
;Generated with Cura_SteamEngine 4.13.1
M140 S100
M105
M190 S100
M104 S235
M105
M109 S235
M82 ;absolute extrusion mode
G28 ;Home
G1 Z15.0 F6000 ;Move the platform down 15mm
;Prime the extruder
G92 E0
G1 F200 E3
G92 E0
G92 E0
G92 E0
G1 F1500 E-4
;LAYER_COUNT:30
;LAYER:-6
M107
G0 F3600 X2.364 Y4.485 Z0.36
;TYPE:SUPPORT-INTERFACE
G1 F1500 E0
G1 F900 X1.769 Y4.765 E0.07874
G1 X1.272 Y4.978 E0.14348
G1 X1.103 Y5.026 E0.16452
G1 X0.475 Y5.148 E0.24112
G1 X0.352 Y5.193 E0.2568
G1 X-.29 Y5.425 E0.33854
G1 X-.896 Y5.736 E0.42009
G1 X-1.061 Y5.831 E0.44289
G1 X-1.746 Y6.322 E0.5438
G1 X-2.313 Y6.668 E0.62334
G1 X-2.957 Y6.985 E0.70928
G1 X-3.583 Y7.225 E0.78956
G1 X-4.284 Y7.424 E0.87681
G1 X-4.966 Y7.548 E0.95981
G1 X-5.628 Y7.609 E1.03941
G1 X-6.161 Y7.615 E1.10323
G1 X-7.004 Y7.551 E1.20446
G1 X-7.693 Y7.427 E1.28829
G1 X-8.385 Y7.235 E1.37427
G1 X-9.012 Y6.996 E1.45462
G1 X-9.626 Y6.698 E1.53634
G1 X-10.256 Y6.318 E1.62443
G1 X-10.788 Y5.923 E1.70377
G1 X-11.314 Y5.456 E1.78799
G1 X-11.798 Y4.937 E1.87296
G1 X-12.2 Y4.42 E1.95138
G1 X-12.593 Y3.813 E2.03796
G1 X-12.899 Y3.225 E2.11733
G1 X-13.171 Y2.563 E2.20303
G1 X-13.369 Y1.92 E2.28358
G1 X-13.522 Y1.19 E2.37289
G1 X-13.595 Y0.543 E2.45085
G1 X-13.614 Y-.143 E2.53302
G1 X-13.567 Y-.855 E2.61846
G1 X-13.461 Y-1.521 E2.69921
G1 X-13.291 Y-2.197 E2.78267
G1 X-13.057 Y-2.86 E2.86686
G1 X-12.78 Y-3.465 E2.94653
G1 X-12.402 Y-4.127 E3.03781
G1 X-12.026 Y-4.655 E3.11542
G1 X-11.557 Y-5.206 E3.20206
G1 X-11.061 Y-5.689 E3.28495
G1 X-10.548 Y-6.108 E3.36426
G1 X-9.937 Y-6.519 E3.45243
G1 X-9.352 Y-6.838 E3.53222
G1 X-8.706 Y-7.118 E3.61652
G1 X-8.077 Y-7.326 E3.69584
G1 X-7.399 Y-7.486 E3.77926
G1 X-6.69 Y-7.585 E3.86497
G1 X-6.005 Y-7.616 E3.94708
G1 X-5.343 Y-7.587 E4.02642
G1 X-4.828 Y-7.524 E4.08854
G1 X-3.952 Y-7.336 E4.19582
G1 X-3.296 Y-7.12 E4.27851
G1 X-2.654 Y-6.843 E4.36223
G1 X-2.433 Y-6.73 E4.39196
G1 X-1.824 Y-6.452 E4.47211
G1 X-1.171 Y-6.25 E4.55396
G1 X-.501 Y-6.132 E4.63541
G1 X0.089 Y-6.099 E4.70617
G1 X0.519 Y-6.098 E4.75766
G1 X1.091 Y-6.045 E4.82644
G1 X1.581 Y-5.928 E4.88676
G1 X2.078 Y-5.731 E4.95077
G1 X2.534 Y-5.465 E5.01398
G1 X2.66 Y-5.375 E5.03252
G1 X3.198 Y-4.961 E5.11381
G1 X3.339 Y-4.89 E5.13271
G1 X3.943 Y-4.571 E5.2145
G1 X4.582 Y-4.331 E5.29623
G1 X5.252 Y-4.174 E5.37862
G1 X6.137 Y-4.099 E5.48497
G1 X10.019 Y-4.098 E5.94979
G1 X10.614 Y-4.046 E6.0213
G1 X11.276 Y-3.889 E6.10277
G1 X11.901 Y-3.626 E6.18396
G1 X12.464 Y-3.27 E6.26371
G1 X12.993 Y-2.794 E6.34892
G1 X13.389 Y-2.298 E6.42492
G1 X13.731 Y-1.688 E6.50865
G1 X13.956 Y-1.06 E6.58853
G1 X14.078 Y-.385 E6.67066
G1 X14.085 Y0.306 E6.7534
G1 X13.983 Y0.958 E6.83242
G1 X13.833 Y1.444 E6.89332
G1 X13.555 Y2.034 E6.97142
G1 X13.173 Y2.589 E7.05209
G1 X12.826 Y2.963 E7.11318
G1 X12.321 Y3.373 E7.19106
G1 X11.739 Y3.707 E7.27141
G1 X11.101 Y3.944 E7.3529
G1 X10.448 Y4.069 E7.43251
G1 X9.957 Y4.101 E7.49142
G1 X4.351 Y4.101 E8.16267
G1 X3.683 Y4.143 E8.24281
G1 X3.012 Y4.272 E8.32462
G1 X2.364 Y4.485 E8.4063
G0 F3600 X1.6 Y4.838
G1 F900 X1.6 Y-5.92 E9.69442
G0 F3600 X0.00 Y-6.103
G1 F900 X0.00 Y5.321 E11.06229
G0 F3600 X-1.6 Y6.218
G1 F900 X-1.6 Y-6.382 E12.57097
G0 F3600 X-3.2 Y-7.078
G1 F900 X-3.2 Y7.079 E14.26608
G0 F3600 X-4.8 Y7.518
G1 F900 X-4.8 Y-7.517 E16.06632
G0 F3600 X-6.4 Y-7.599
G1 F900 X-6.4 Y7.596 E17.88571
G0 F3600 X-8 Y7.341
G1 F900 X-8 Y-7.345 E19.64416
G0 F3600 X-9.6 Y-6.703
G1 F900 X-9.6 Y6.71 E21.25019
G0 F3600 X-11.2 Y5.557
G1 F900 X-11.2 Y-5.554 E22.58058
G0 F3600 X-12.8 Y-3.422
G1 F900 X-12.8 Y3.415 E23.39922
G0 F3600 X3.2 Y4.236
G1 F900 X3.2 Y-4.959 E24.5002
G0 F3600 X4.8 Y-4.279
G1 F900 X4.8 Y4.101 E25.50359
G0 F3600 X6.4 Y4.101
G1 F900 X6.4 Y-4.098 E26.48531
G0 F3600 X8 Y-4.098
G1 F900 X8 Y4.101 E27.46703
G0 F3600 X9.6 Y4.101
G1 F900 X9.6 Y-4.098 E28.44875
G0 F3600 X11.2 Y-3.907
G1 F900 X11.2 Y3.908 E29.38449
G0 F3600 X12.8 Y2.985
G1 F900 X12.8 Y-2.967 E30.09716
G1 F1500 E26.09716
G0 F600 X12.8 Y-2.967 Z0.66
G0 F3600 X11.967 Y-3.589
;TIME_ELAPSED:20.064596
;LAYER:-5
;TYPE:SUPPORT
G1 F1500 E30.09716
G1 F900 X11.9 Y-3.626 E30.1048
G1 X11.737 Y-3.705 E30.12287
G1 X11.546 Y-3.789 E30.14369
G1 X11.392 Y-3.848 E30.16015
G1 X11.275 Y-3.889 E30.17252
G1 X11.1 Y-3.942 E30.19076
G1 X10.9 Y-3.991 E30.21131
G1 X10.738 Y-4.026 E30.22784
G1 X10.613 Y-4.046 E30.24048
G1 X10.447 Y-4.066 E30.25716
G1 X10.15 Y-4.092 E30.28691
G1 X10.045 Y-4.096 E30.29739
G1 X14.093 Y-0.048 E30.86861
G1 X14.093 Y0.078 E30.88118
G1 X14.084 Y0.305 E30.90385
G1 X14.077 Y0.387 E30.91206
G1 X14.055 Y0.567 E30.93015
G1 X14.023 Y0.765 E30.95017
G1 X13.982 Y0.957 E30.96976
G1 X13.958 Y1.049 E30.97924
G1 X13.917 Y1.189 E30.9938
G1 X8.629 Y-4.098 E31.73992
G1 X7.215 Y-4.098 E31.88101
G1 X13.477 Y2.163 E32.76458
G1 X13.464 Y2.184 E32.76704
G1 X13.408 Y2.271 E32.77737
G1 X13.297 Y2.427 E32.79647
G1 X13.172 Y2.588 E32.81681
G1 X13.063 Y2.718 E32.83374
G1 X12.984 Y2.803 E32.84531
G1 X12.843 Y2.944 E32.86521
G1 X5.769 Y-4.129 E33.86336
G1 X5.251 Y-4.174 E33.91524
G1 X4.581 Y-4.331 E33.9839
G1 X3.942 Y-4.57 E34.05198
G1 X3.883 Y-4.601 E34.05863
G1 X12.035 Y3.55 E35.20889
G1 X11.985 Y3.58 E35.21471
G1 X11.899 Y3.628 E35.22454
G1 X11.737 Y3.706 E35.24248
G1 X11.549 Y3.79 E35.26302
G1 X11.392 Y3.851 E35.27983
G1 X11.274 Y3.891 E35.29226
G1 X11.1 Y3.944 E35.31041
G1 X11.032 Y3.961 E35.31741
G1 X1.016 Y-6.054 E36.7307
G1 X0.982 Y-6.06 E36.73415
G1 X0.803 Y-6.081 E36.75213
G1 X0.671 Y-6.09 E36.76533
G1 X0.519 Y-6.096 E36.78051
G1 X0.089 Y-6.098 E36.82341
G1 X-.472 Y-6.129 E36.87948
G1 X9.758 Y4.101 E38.32304
G1 X8.343 Y4.101 E38.46423
G1 X-2.546 Y-6.788 E40.00079
G1 X-2.653 Y-6.842 E40.01274
G1 X-3.009 Y-7.003 E40.05173
G1 X-3.203 Y-7.085 E40.07275
G1 X-3.691 Y-7.257 E40.12437
G1 X-3.862 Y-7.311 E40.14227
G1 X-4.381 Y-7.442 E40.19568
G1 X-4.586 Y-7.484 E40.21656
G1 X-4.668 Y-7.496 E40.22483
G1 X6.929 Y4.101 E41.86129
G1 X5.515 Y4.101 E42.00238
G1 X-6.194 Y-7.609 E43.65471
G1 X-6.453 Y-7.602 E43.68057
G1 X-6.523 Y-7.598 E43.68756
G1 X-6.689 Y-7.583 E43.70419
G1 X-7.203 Y-7.52 E43.75587
G1 X-7.399 Y-7.485 E43.77573
G1 X-7.469 Y-7.469 E43.7829
G1 X4.115 Y4.115 E45.41752
G1 X3.682 Y4.142 E45.46081
G1 X3.012 Y4.27 E45.52887
G1 X2.894 Y4.309 E45.54128
G1 X-8.578 Y-7.164 E47.16017
G1 X-8.64 Y-7.143 E47.1667
G1 X-9.118 Y-6.947 E47.21825
G1 X-9.211 Y-6.906 E47.22839
G1 X-9.35 Y-6.839 E47.24379
G1 X-9.557 Y-6.728 E47.26722
G1 X1.882 Y4.71 E48.88132
G1 X1.769 Y4.764 E48.89382
G1 X1.714 Y4.795 E48.90012
G1 X1.61 Y4.846 E48.91167
G1 X1.504 Y4.895 E48.92333
G1 X1.272 Y4.977 E48.94788
G1 X1.103 Y5.024 E48.96538
G1 X0.834 Y5.077 E48.99274
G1 X-10.434 Y-6.191 E50.58277
G1 X-10.547 Y-6.107 E50.59682
G1 X-10.893 Y-5.835 E50.64074
G1 X-11.011 Y-5.733 E50.6563
G1 X-11.206 Y-5.549 E50.68305
G1 X-.248 Y5.408 E52.22928
G1 X-.29 Y5.424 E52.23376
G1 X-.895 Y5.735 E52.30164
G1 X-1.052 Y5.839 E52.32043
G1 X-1.061 Y5.83 E52.3217
G1 X-1.166 Y5.905 E52.33457
G1 X-11.894 Y-4.823 E53.84841
G1 X-11.912 Y-4.801 E53.85124
G1 X-12.025 Y-4.654 E53.86975
G1 X-12.27 Y-4.319 E53.91116
G1 X-12.401 Y-4.126 E53.93443
G1 X-12.479 Y-3.994 E53.94973
G1 X-2.001 Y6.483 E55.42822
G1 X-2.312 Y6.667 E55.46428
G1 X-2.474 Y6.755 E55.48267
G1 X-2.549 Y6.791 E55.49097
G1 X-2.928 Y6.97 E55.53279
G1 X-12.969 Y-3.069 E56.94955
G1 X-12.999 Y-2.999 E56.95715
G1 X-13.056 Y-2.86 E56.97214
G1 X-13.205 Y-2.461 E57.01463
G1 X-13.237 Y-2.368 E57.02445
G1 X-13.29 Y-2.196 E57.04241
G1 X-13.337 Y-2.023 E57.06029
G1 X-3.972 Y7.341 E58.38173
G1 X-4.283 Y7.423 E58.41382
G1 X-4.414 Y7.452 E58.42721
G1 X-4.537 Y7.476 E58.43971
G1 X-5.023 Y7.556 E58.48886
G1 X-5.157 Y7.57 E58.5023
G1 X-13.567 Y-.839 E59.68897
G1 X-13.606 Y-.391 E59.73384
G1 X-13.613 Y-.142 E59.7587
G1 X-13.608 Y0.263 E59.79911
G1 X-13.605 Y0.381 E59.81089
G1 X-13.594 Y0.543 E59.82709
G1 X-13.594 Y0.547
G1 X-6.544 Y7.597 E60.82192
G1 X-6.606 Y7.592 E60.82813
G1 X-7.003 Y7.551 E60.86795
G1 X-7.193 Y7.524 E60.8871
G1 X-7.268 Y7.511 E60.89469
G1 X-7.692 Y7.426 E60.93784
G1 X-7.857 Y7.389 E60.95472
G1 X-7.966 Y7.358 E60.96602
G1 X-8.295 Y7.261 E61.00025
G1 X-13.257 Y2.298 E61.70051
G1 X-13.228 Y2.397
G1 X-13.169 Y2.563 E61.71809
G1 X-13.009 Y2.978 E61.76247
G1 X-12.956 Y3.102 E61.77592
G1 X-12.898 Y3.225 E61.78949
G1 X-12.722 Y3.579 E61.82894
G1 X-12.659 Y3.696 E61.8422
G1 X-12.592 Y3.812 E61.85557
G1 X-12.358 Y4.188 E61.89976
G1 X-12.273 Y4.316 E61.91509
G1 X-12.199 Y4.42 E61.92782
G1 X-11.906 Y4.806 E61.97618
G1 X-11.797 Y4.937 E61.99318
G1 X-11.515 Y5.25 E62.03522
G1 X-11.421 Y5.349 E62.04884
G1 X-11.313 Y5.456 E62.06401
G1 X-10.931 Y5.807 E62.11577
G1 X-10.787 Y5.922 E62.13416
G1 X-10.447 Y6.183 E62.17693
G1 X-10.299 Y6.289 E62.1951
G1 X-9.886 Y6.551 E62.2439
G1 X-9.763 Y6.624 E62.25817
G1 X-9.625 Y6.697 E62.27375
G1 X-9.171 Y6.926 E62.32448
G1 X-9.011 Y6.996 E62.34191
G1 X-8.662 Y7.136 E62.37943
G1 X-8.502 Y7.195 E62.39645
G1 X-8.384 Y7.235 E62.40888
G1 X-8.295 Y7.261 E62.41813
G0 F3600 X11.967 Y-3.589
G1 F900 X11.985 Y-3.579 E62.42018
G1 X12.175 Y-3.466 E62.44224
G1 X12.319 Y-3.37 E62.45951
G1 X12.463 Y-3.269 E62.47706
G1 X12.574 Y-3.182 E62.49113
G1 X12.702 Y-3.074 E62.50784
G1 X12.824 Y-2.962 E62.52437
G1 X12.992 Y-2.794 E62.54808
G1 X13.052 Y-2.728 E62.55698
G1 X13.172 Y-2.587 E62.57545
G1 X13.293 Y-2.431 E62.59515
G1 X13.388 Y-2.298 E62.61146
G1 X13.464 Y-2.182 E62.6253
G1 X13.546 Y-2.045 E62.64123
G1 X13.588 Y-1.967
G1 X11.967 Y-3.589 E62.87004
G1 F1500 E58.87004
G0 F600 X11.967 Y-3.589 Z0.86
G0 F3600 X5.321 Y-4.631
G0 X0.524 Y-6.298
;TIME_ELAPSED:42.984737
;LAYER:-4
;TYPE:SUPPORT-INTERFACE
G1 F1500 E62.87004
G1 F1200 X0.093 Y-6.299 E62.88437
G1 X-.477 Y-6.331 E62.90336
G1 X-.868 Y-6.4 E62.91657
G1 X-10.484 Y-6.4 E63.2364
G1 X-10.413 Y-6.448 E63.23925
G1 X-10.005 Y-6.711 E63.25539
G1 X-9.931 Y-6.755 E63.25826
G1 X-9.85 Y-6.8 E63.26134
G1 X-2.102 Y-6.8 E63.51904
G1 X-2.344 Y-6.91 E63.52788
G1 X-2.443 Y-6.962 E63.5316
G1 X-2.566 Y-7.023 E63.53616
G1 X-2.928 Y-7.187 E63.54938
G1 X-2.958 Y-7.2 E63.55047
G1 X-9.027 Y-7.2 E63.75233
G1 X-8.71 Y-7.331 E63.76373
G1 X-8.528 Y-7.393 E63.77013
G1 X-8.126 Y-7.519 E63.78414
G1 X-7.949 Y-7.569 E63.79026
G1 X-7.869 Y-7.588 E63.79299
G1 X-7.813 Y-7.6 E63.7949
G1 X-4.182 Y-7.6 E63.91567
G1 X-4.343 Y-7.64
G1 X-4.558 Y-7.684 E63.92296
G1 X-5.028 Y-7.757 E63.93878
G1 X-5.111 Y-7.767 E63.94156
G1 X-5.322 Y-7.787 E63.94861
G1 X-5.72 Y-7.811 E63.96188
G1 X-5.849 Y-7.816 E63.96617
G1 X-6.01 Y-7.816 E63.97152
G1 X-6.453 Y-7.803 E63.98626
G1 X-6.609 Y-7.793 E63.99146
G1 X-6.713 Y-7.783 E63.99494
G1 X-7.24 Y-7.718 E64.0126
G1 X-7.441 Y-7.68 E64.0194
G1 X-7.813 Y-7.6 E64.03206
G0 F3600 X0.524 Y-6.298
G1 F1200 X0.683 Y-6.29 E64.03735
G1 X0.816 Y-6.281 E64.04179
G1 X1.017 Y-6.258 E64.04852
G1 X1.125 Y-6.242 E64.05215
G1 X1.264 Y-6.217 E64.05685
G1 X1.404 Y-6.185 E64.06162
G1 X1.53 Y-6.151 E64.06596
G1 X1.644 Y-6.117 E64.06992
G1 X1.81 Y-6.061 E64.07575
G1 X1.898 Y-6.027 E64.07888
G1 X1.963 Y-6 E64.08123
G1 X-11.006 Y-6 E64.51258
G1 X-11.018 Y-5.991 E64.51307
G1 X-11.152 Y-5.877 E64.51893
G1 X-11.446 Y-5.6 E64.53236
G1 X2.689 Y-5.6 E65.00249
G1 X2.775 Y-5.538 E65.00602
G1 X3.126 Y-5.267 E65.02077
G1 X3.132 Y-5.279 E65.02121
G1 X3.245 Y-5.2 E65.0258
G1 X-11.828 Y-5.2 E65.52713
G1 X-12.013 Y-4.992 E65.53639
G1 X-12.066 Y-4.929 E65.53913
G1 X-12.166 Y-4.8 E65.54456
G1 X3.937 Y-4.8 E66.08014
G1 X4.024 Y-4.754 E66.08342
G1 X4.641 Y-4.523 E66.10533
G1 X5.164 Y-4.4 E66.1232
G1 X-12.457 Y-4.4 E66.70928
G1 X-12.57 Y-4.234 E66.71596
G1 X-12.708 Y-4 E66.72499
G1 X11.556 Y-3.999 E67.53201
G1 X11.635 Y-3.968 E67.53484
G1 X11.819 Y-3.887 E67.54152
G1 X11.985 Y-3.807 E67.54765
G1 X12.092 Y-3.748 E67.55172
G1 X12.269 Y-3.644 E67.55854
G1 X12.338 Y-3.599 E67.56128
G1 X-12.934 Y-3.6 E68.40183
G1 X-12.958 Y-3.554 E68.40356
G1 X-13.125 Y-3.208 E68.41634
G1 X-13.128 Y-3.2 E68.41662
G1 X12.862 Y-3.199 E69.28105
G1 X12.973 Y-3.097 E69.28607
G1 X13.129 Y-2.94 E69.29343
G1 X13.206 Y-2.857 E69.29719
G1 X13.256 Y-2.799 E69.29974
G1 X-13.292 Y-2.8 E70.18273
G1 X-13.392 Y-2.534 E70.19218
G1 X-13.427 Y-2.434 E70.19571
G1 X-13.437 Y-2.4 E70.19689
G1 X13.562 Y-2.399 E71.09488
G1 X13.628 Y-2.297 E71.09892
G1 X13.722 Y-2.14 E71.105
G1 X13.799 Y-1.999 E71.11035
G1 X-13.551 Y-2 E72.02001
G1 X-13.59 Y-1.858 E72.02491
G1 X-13.625 Y-1.717 E72.02974
G1 X-13.648 Y-1.6 E72.03371
G1 X13.986 Y-1.599 E72.95282
G1 X14.022 Y-1.507 E72.9561
G1 X14.093 Y-1.298 E72.96345
G1 X14.123 Y-1.199 E72.96689
G1 X-13.72 Y-1.2 E73.89295
G1 X-13.722 Y-1.192 E73.89322
G1 X-13.752 Y-.997 E73.89978
G1 X-13.765 Y-.875 E73.90386
G1 X-13.771 Y-.8 E73.90637
G1 X14.22 Y-.799 E74.83735
G1 X14.222 Y-.789 E74.83769
G1 X14.252 Y-.606 E74.84386
G1 X14.277 Y-.408 E74.8505
G1 X14.278 Y-.399 E74.8508
G1 X-13.806 Y-.4 E75.78488
G1 X-13.812 Y-.272 E75.78914
G1 X-13.814 Y-.145 E75.79336
G1 X-13.813 Y0.00 E75.79818
G1 X14.294 Y0.00 E76.73303
G1 X14.294 Y0.086 E76.73589
G1 X14.285 Y0.313 E76.74344
G1 X14.276 Y0.4 E76.74635
G1 X-13.806 Y0.399 E77.68036
G1 X-13.794 Y0.561 E77.68577
G1 X-13.771 Y0.799 E77.69372
G1 X14.219 Y0.8 E78.62467
G1 X14.176 Y1.008 E78.63174
G1 X14.151 Y1.105 E78.63507
G1 X14.122 Y1.2 E78.63837
G1 X-13.723 Y1.199 E79.5645
G1 X-13.648 Y1.599 E79.57803
G1 X13.986 Y1.6 E80.49715
G1 X13.965 Y1.654 E80.49907
G1 X13.911 Y1.777 E80.50354
G1 X13.827 Y1.949 E80.50991
G1 X13.799 Y2 E80.51184
G1 X-13.554 Y1.999 E81.42161
G1 X-13.437 Y2.399 E81.43547
G1 X13.562 Y2.4 E82.33346
G1 X13.457 Y2.548 E82.33949
G1 X13.326 Y2.717 E82.34661
G1 X13.255 Y2.8 E82.35024
G1 X-13.294 Y2.799 E83.23326
G1 X-13.194 Y3.055 E83.2424
G1 X-13.138 Y3.187 E83.24717
G1 X-13.133 Y3.199 E83.2476
G1 X12.862 Y3.2 E84.1122
G1 X12.832 Y3.228 E84.11357
G1 X12.692 Y3.347 E84.11968
G1 X12.587 Y3.43 E84.12413
G1 X12.442 Y3.532 E84.13003
G1 X12.339 Y3.6 E84.13413
G1 X-12.936 Y3.599 E84.97478
G1 X-12.905 Y3.661 E84.97709
G1 X-12.835 Y3.792 E84.98203
G1 X-12.76 Y3.921 E84.98699
G1 X-12.712 Y3.999 E84.99004
G1 X11.558 Y4 E85.79726
G1 X11.458 Y4.039 E85.80083
G1 X11.346 Y4.078 E85.80477
G1 X11.149 Y4.137 E85.81161
G1 X10.957 Y4.185 E85.8182
G1 X10.763 Y4.226 E85.82479
G1 X10.647 Y4.245 E85.8287
G1 X10.467 Y4.268 E85.83474
G1 X10.148 Y4.294 E85.84538
G1 X9.959 Y4.3 E85.85167
G1 X4.358 Y4.301 E86.03796
G1 X3.707 Y4.342 E86.05966
G1 X3.404 Y4.4 E86.06992
G1 X-12.46 Y4.399 E86.59756
G1 X-12.444 Y4.423 E86.59851
G1 X-12.36 Y4.539 E86.60328
G1 X-12.165 Y4.799 E86.61409
G1 X2.163 Y4.8 E87.09064
G1 X1.86 Y4.943 E87.10178
G1 X1.803 Y4.975 E87.10396
G1 X1.693 Y5.029 E87.10803
G1 X1.576 Y5.082 E87.1123
G1 X1.391 Y5.149 E87.11885
G1 X1.319 Y5.173 E87.12137
G1 X1.223 Y5.2 E87.12469
G1 X-11.829 Y5.199 E87.5588
G1 X-11.658 Y5.39 E87.56733
G1 X-11.564 Y5.491 E87.57192
G1 X-11.454 Y5.599 E87.57704
G1 X-.185 Y5.6 E87.95185
G1 X-.209 Y5.609 E87.95271
G1 X-.794 Y5.908 E87.97456
G1 X-.932 Y6 E87.98007
G1 X-11.013 Y5.999 E88.31537
G1 X-10.562 Y6.348 E88.33434
G1 X-10.49 Y6.399 E88.33727
G1 X-1.513 Y6.4 E88.63585
G1 X-1.702 Y6.535 E88.64357
G1 X-1.864 Y6.637 E88.64994
G1 X-2.142 Y6.8 E88.66066
G1 X-9.858 Y6.799 E88.91729
G1 X-9.724 Y6.872 E88.92237
G1 X-9.352 Y7.061 E88.93625
G1 X-9.261 Y7.105 E88.93961
G1 X-9.093 Y7.178 E88.9457
G1 X-9.041 Y7.199 E88.94757
G1 X-2.949 Y7.2 E89.15019
G1 X-3.019 Y7.23 E89.15272
G1 X-3.12 Y7.27 E89.15633
G1 X-3.522 Y7.416 E89.17056
G1 X-3.684 Y7.47 E89.17624
G1 X-3.792 Y7.503 E89.17999
G1 X-4.164 Y7.6 E89.19278
G1 X-7.833 Y7.599 E89.31481
G1 X-7.737 Y7.621
G1 X-7.307 Y7.708 E89.3294
G1 X-7.164 Y7.731 E89.33422
G1 X-7.024 Y7.75 E89.33892
G1 X-6.62 Y7.793 E89.35243
G1 X-6.484 Y7.804 E89.35697
G1 X-6.332 Y7.811 E89.36203
G1 X-5.905 Y7.818 E89.37624
G1 X-5.766 Y7.816 E89.38086
G1 X-5.608 Y7.808 E89.38612
G1 X-5.185 Y7.776 E89.40023
G1 X-5.006 Y7.757 E89.40622
G1 X-4.505 Y7.675 E89.4231
G1 X-4.369 Y7.649 E89.42771
G1 X-4.233 Y7.618 E89.43235
G1 X-4.164 Y7.6 E89.43472
G1 F1500 E85.43472
G0 F600 X-4.164 Y7.6 Z1.06
G0 F3600 X14 Y-1.562
;TIME_ELAPSED:83.878026
;LAYER:-3
;TYPE:SUPPORT-INTERFACE
G1 F1500 E89.43472
G1 F1200 X13.962 Y-1.659 E89.43818
