;FLAVOR:Marlin
;TIME:4148
;Filament used: 1.2808m
;Layer height: 0.1
;MINX:-28.767
;MINY:-13.274
;MINZ:0.2
;MAXX:29.75
;MAXY:13.274
;MAXZ:8
;Generated with Cura_SteamEngine 4.13.1
M140 S60
M105
M190 S60
M104 S205
M105
M109 S205
M82 ;absolute extrusion mode
G28 ;Home
G1 Z15.0 F6000 ;Move the platform down 15mm
;Prime the extruder
G92 E0
G1 F200 E3
G92 E0
G92 E0
G92 E0
G1 F2400 E-5
;LAYER_COUNT:79
;LAYER:0
M107
G0 F900 X-.595 Y-8.183 Z0.2
;TYPE:SKIRT
G1 F2400 E0.01123
G1 F900 X25.7 Y-8.182 E0.66716
G1 X26.268 Y-8.142 E0.68136
G1 X26.824 Y-8.023 E0.69554
G1 X27.358 Y-7.827 E0.70973
G1 X27.859 Y-7.558 E0.72392
G1 X28.318 Y-7.222 E0.73811
G1 X28.725 Y-6.825 E0.75229
G1 X29.073 Y-6.374 E0.7665
G1 X29.354 Y-5.88 E0.78068
G1 X29.562 Y-5.35 E0.79488
G1 X29.695 Y-4.797 E0.80907
G1 X29.75 Y-4.132 E0.82571
G1 X29.75 Y-1.823 E0.88331
G1 X29.71 Y-1.256 E0.89749
G1 X29.591 Y-.699 E0.9117
G1 X29.395 Y-.165 E0.92589
G1 X29.307 Y-0.001 E0.93053
G1 X29.378 Y0.128 E0.9342
G1 X29.58 Y0.66 E0.9484
G1 X29.704 Y1.216 E0.96261
G1 X29.75 Y1.823 E0.9778
G1 X29.75 Y4.132 E1.03539
G1 X29.71 Y4.699 E1.04957
G1 X29.591 Y5.256 E1.06378
G1 X29.395 Y5.79 E1.07797
G1 X29.126 Y6.291 E1.09216
G1 X28.79 Y6.75 E1.10634
G1 X28.393 Y7.157 E1.12053
G1 X27.942 Y7.505 E1.13474
G1 X27.448 Y7.785 E1.1489
G1 X26.919 Y7.994 E1.16309
G1 X26.365 Y8.127 E1.1773
G1 X25.702 Y8.182 E1.1939
G1 X18.393 Y8.185 E1.37622
G1 X-4.037 Y8.184 E1.93574
G1 X-7.884 Y10.877 E2.05288
G1 X-8.053 Y10.989 E2.05794
G1 X-8.84 Y11.483 E2.08112
G1 X-9.197 Y11.683 E2.09133
G1 X-10.036 Y12.098 E2.11467
G1 X-10.412 Y12.261 E2.1249
G1 X-11.291 Y12.59 E2.14831
G1 X-11.681 Y12.714 E2.15852
G1 X-12.586 Y12.952 E2.18186
G1 X-12.994 Y13.037 E2.19226
G1 X-13.921 Y13.181 E2.21566
G1 X-14.331 Y13.223 E2.22594
G1 X-15.264 Y13.272 E2.24925
G1 X-15.666 Y13.274 E2.25927
G1 X-16.601 Y13.23 E2.28262
G1 X-17.015 Y13.189 E2.293
G1 X-17.943 Y13.049 E2.31641
G1 X-18.349 Y12.966 E2.32675
G1 X-19.254 Y12.733 E2.35006
G1 X-19.642 Y12.612 E2.3602
G1 X-20.523 Y12.288 E2.38361
G1 X-20.9 Y12.127 E2.39384
G1 X-21.741 Y11.717 E2.41718
G1 X-22.112 Y11.512 E2.42775
G1 X-22.906 Y11.016 E2.45111
G1 X-23.234 Y10.787 E2.46109
G1 X-23.974 Y10.216 E2.4844
G1 X-24.283 Y9.953 E2.49452
G1 X-24.964 Y9.309 E2.5179
G1 X-25.251 Y9.008 E2.52828
G1 X-25.862 Y8.298 E2.55164
G1 X-26.111 Y7.977 E2.56178
G1 X-26.648 Y7.209 E2.58516
G1 X-26.869 Y6.855 E2.59557
G1 X-27.324 Y6.036 E2.61894
G1 X-27.504 Y5.671 E2.62909
G1 X-27.874 Y4.812 E2.65242
G1 X-28.021 Y4.414 E2.663
G1 X-28.299 Y3.521 E2.68633
G1 X-28.395 Y3.15 E2.69589
G1 X-28.537 Y2.476 E2.71308
G1 X-28.65 Y1.819 E2.7297
G1 X-28.72 Y1.149 E2.74651
G1 X-28.767 Y0.469 E2.76351
G1 X-28.767 Y-.467 E2.78686
G1 X-28.746 Y-.878 E2.79713
G1 X-28.651 Y-1.809 E2.82047
G1 X-28.588 Y-2.218 E2.83079
G1 X-28.398 Y-3.137 E2.8542
G1 X-28.299 Y-3.521 E2.8641
G1 X-28.021 Y-4.414 E2.88743
G1 X-27.874 Y-4.812 E2.89801
G1 X-27.504 Y-5.671 E2.92134
G1 X-27.324 Y-6.036 E2.93149
G1 X-26.869 Y-6.855 E2.95486
G1 X-26.648 Y-7.209 E2.96527
G1 X-26.111 Y-7.977 E2.98865
G1 X-25.862 Y-8.298 E2.99878
G1 X-25.251 Y-9.008 E3.02215
G1 X-24.964 Y-9.309 E3.03253
G1 X-24.283 Y-9.953 E3.05591
G1 X-23.974 Y-10.216 E3.06603
G1 X-23.234 Y-10.787 E3.08934
G1 X-22.906 Y-11.016 E3.09932
G1 X-22.112 Y-11.512 E3.12268
G1 X-21.741 Y-11.717 E3.13325
G1 X-20.9 Y-12.127 E3.15659
G1 X-20.523 Y-12.288 E3.16681
G1 X-19.642 Y-12.612 E3.19023
G1 X-19.254 Y-12.733 E3.20037
G1 X-18.349 Y-12.966 E3.22368
G1 X-17.943 Y-13.049 E3.23402
G1 X-17.015 Y-13.189 E3.25743
G1 X-16.601 Y-13.23 E3.26781
G1 X-15.666 Y-13.274 E3.29116
G1 X-15.264 Y-13.272 E3.30118
G1 X-14.331 Y-13.223 E3.32449
G1 X-13.921 Y-13.181 E3.33477
G1 X-12.994 Y-13.037 E3.35817
G1 X-12.585 Y-12.952 E3.36859
G1 X-11.681 Y-12.714 E3.39191
G1 X-11.302 Y-12.594 E3.40183
G1 X-10.669 Y-12.358 E3.41868
G1 X-10.036 Y-12.098 E3.43575
G1 X-9.199 Y-11.684 E3.45904
G1 X-8.846 Y-11.487 E3.46913
G1 X-8.057 Y-10.993 E3.49235
G1 X-7.884 Y-10.878 E3.49753
G1 X-4.035 Y-8.185 E3.61471
G1 X-.595 Y-8.183 E3.70052
G0 X-.596 Y-7.883
G1 X25.7 Y-7.882 E4.35648
G1 X26.246 Y-7.842 E4.37014
G1 X26.78 Y-7.723 E4.38378
G1 X27.292 Y-7.528 E4.39745
G1 X27.769 Y-7.26 E4.4111
G1 X28.202 Y-6.925 E4.42476
G1 X28.582 Y-6.531 E4.43841
G1 X28.901 Y-6.086 E4.45207
G1 X29.151 Y-5.599 E4.46572
G1 X29.328 Y-5.081 E4.47938
G1 X29.427 Y-4.543 E4.49302
G1 X29.45 Y-4.132 E4.50329
G1 X29.45 Y-1.823 E4.56089
G1 X29.41 Y-1.277 E4.57455
G1 X29.291 Y-.743 E4.58819
G1 X29.096 Y-.232 E4.60184
G1 X28.969 Y-0.006 E4.60831
G1 X29.18 Y0.425 E4.62028
G1 X29.346 Y0.946 E4.63392
G1 X29.435 Y1.486 E4.64757
G1 X29.45 Y1.823 E4.65598
G1 X29.45 Y4.132 E4.71358
G1 X29.41 Y4.678 E4.72724
G1 X29.291 Y5.212 E4.74088
G1 X29.096 Y5.723 E4.75453
G1 X28.828 Y6.201 E4.7682
G1 X28.493 Y6.634 E4.78185
G1 X28.099 Y7.014 E4.79551
G1 X27.654 Y7.333 E4.80917
G1 X27.167 Y7.583 E4.82282
G1 X26.649 Y7.76 E4.83648
G1 X26.111 Y7.859 E4.85012
G1 X25.702 Y7.882 E4.86034
G1 X18.393 Y7.885 E5.04267
G1 X-4.131 Y7.884 E5.60453
G1 X-8.056 Y10.631 E5.72404
G1 X-8.212 Y10.735 E5.72871
G1 X-8.999 Y11.229 E5.75189
G1 X-9.33 Y11.414 E5.76135
G1 X-10.169 Y11.829 E5.7847
G1 X-10.517 Y11.98 E5.79416
G1 X-11.396 Y12.309 E5.81758
G1 X-11.757 Y12.424 E5.82703
G1 X-12.662 Y12.662 E5.85037
G1 X-13.04 Y12.741 E5.86
G1 X-13.967 Y12.885 E5.8834
G1 X-14.346 Y12.924 E5.89291
G1 X-15.279 Y12.973 E5.91621
G1 X-15.652 Y12.974 E5.92552
G1 X-16.587 Y12.93 E5.94887
G1 X-16.97 Y12.892 E5.95847
G1 X-17.898 Y12.752 E5.98188
G1 X-18.274 Y12.676 E5.99145
G1 X-19.179 Y12.443 E6.01476
G1 X-19.538 Y12.331 E6.02414
G1 X-20.419 Y12.007 E6.04756
G1 X-20.768 Y11.858 E6.05702
G1 X-21.609 Y11.448 E6.08036
G1 X-21.953 Y11.257 E6.09018
G1 X-22.747 Y10.761 E6.11353
G1 X-23.051 Y10.55 E6.12276
G1 X-23.791 Y9.979 E6.14608
G1 X-24.077 Y9.735 E6.15546
G1 X-24.758 Y9.091 E6.17884
G1 X-25.023 Y8.812 E6.18844
G1 X-25.634 Y8.102 E6.2118
G1 X-25.865 Y7.805 E6.22119
G1 X-26.402 Y7.037 E6.24456
G1 X-26.607 Y6.709 E6.25421
G1 X-27.062 Y5.89 E6.27758
G1 X-27.228 Y5.552 E6.28698
G1 X-27.598 Y4.693 E6.31031
G1 X-27.735 Y4.325 E6.3201
G1 X-28.013 Y3.432 E6.34343
G1 X-28.102 Y3.088 E6.3523
G1 X-28.243 Y2.417 E6.3694
G1 X-28.352 Y1.788 E6.38533
G1 X-28.421 Y1.12 E6.40208
G1 X-28.467 Y0.469 E6.41836
G1 X-28.467 Y-.467 E6.44171
G1 X-28.448 Y-.848 E6.45122
G1 X-28.353 Y-1.779 E6.47457
G1 X-28.294 Y-2.157 E6.48411
G1 X-28.104 Y-3.076 E6.50752
G1 X-28.013 Y-3.432 E6.51668
G1 X-27.735 Y-4.325 E6.54002
G1 X-27.598 Y-4.693 E6.54981
G1 X-27.228 Y-5.552 E6.57314
G1 X-27.062 Y-5.89 E6.58254
G1 X-26.607 Y-6.709 E6.60591
G1 X-26.402 Y-7.037 E6.61555
G1 X-25.865 Y-7.805 E6.63893
G1 X-25.634 Y-8.102 E6.64832
G1 X-25.023 Y-8.812 E6.67168
G1 X-24.758 Y-9.091 E6.68128
G1 X-24.077 Y-9.735 E6.70466
G1 X-23.791 Y-9.979 E6.71404
G1 X-23.051 Y-10.55 E6.73736
G1 X-22.747 Y-10.761 E6.74659
G1 X-21.953 Y-11.257 E6.76994
G1 X-21.609 Y-11.448 E6.77976
G1 X-20.768 Y-11.858 E6.80309
G1 X-20.419 Y-12.007 E6.81256
G1 X-19.538 Y-12.331 E6.83598
G1 X-19.179 Y-12.443 E6.84536
G1 X-18.274 Y-12.676 E6.86867
G1 X-17.898 Y-12.752 E6.87824
G1 X-16.97 Y-12.892 E6.90165
G1 X-16.587 Y-12.93 E6.91125
G1 X-15.652 Y-12.974 E6.9346
G1 X-15.279 Y-12.973 E6.9439
G1 X-14.346 Y-12.924 E6.96721
G1 X-13.967 Y-12.885 E6.97671
G1 X-13.04 Y-12.741 E7.00012
G1 X-12.661 Y-12.661 E7.00978
G1 X-11.757 Y-12.423 E7.0331
G1 X-11.407 Y-12.313 E7.04225
G1 X-10.775 Y-12.078 E7.05907
G1 X-10.169 Y-11.829 E7.07541
G1 X-9.332 Y-11.415 E7.09871
G1 X-9.005 Y-11.232 E7.10805
G1 X-8.216 Y-10.738 E7.13127
G1 X-8.056 Y-10.633 E7.13605
G1 X-4.129 Y-7.885 E7.25561
G1 X-.596 Y-7.883 E7.34374
G0 X-.596 Y-7.583
G1 X25.7 Y-7.582 E7.9997
G1 X26.224 Y-7.542 E8.01281
G1 X26.735 Y-7.423 E8.02589
G1 X27.222 Y-7.228 E8.03898
G1 X27.674 Y-6.961 E8.05208
G1 X28.081 Y-6.629 E8.06518
G1 X28.432 Y-6.239 E8.07827
G1 X28.72 Y-5.8 E8.09136
G1 X28.938 Y-5.322 E8.10447
G1 X29.081 Y-4.817 E8.11756
G1 X29.15 Y-4.132 E8.13474
G1 X29.15 Y-1.823 E8.19233
G1 X29.11 Y-1.3 E8.20542
G1 X28.991 Y-.788 E8.21853
G1 X28.796 Y-.301 E8.23162
G1 X28.618 Y0.001 E8.24036
G1 X28.763 Y0.235 E8.24723
G1 X28.968 Y0.718 E8.26032
G1 X29.098 Y1.227 E8.27342
G1 X29.15 Y1.823 E8.28834
G1 X29.15 Y4.132 E8.34594
G1 X29.11 Y4.655 E8.35903
G1 X28.991 Y5.167 E8.37214
G1 X28.796 Y5.654 E8.38523
G1 X28.529 Y6.106 E8.39832
G1 X28.197 Y6.513 E8.41142
G1 X27.807 Y6.864 E8.42451
G1 X27.368 Y7.152 E8.43761
G1 X26.89 Y7.37 E8.45071
G1 X26.385 Y7.513 E8.46381
G1 X25.701 Y7.582 E8.48096
G1 X18.393 Y7.585 E8.66325
G1 X-4.226 Y7.584 E9.22749
G1 X-8.228 Y10.385 E9.34934
G1 X-8.372 Y10.481 E9.35366
G1 X-9.159 Y10.975 E9.37684
G1 X-9.463 Y11.145 E9.38552
G1 X-10.302 Y11.56 E9.40887
G1 X-10.623 Y11.699 E9.4176
G1 X-11.502 Y12.028 E9.44101
G1 X-11.834 Y12.134 E9.44971
G1 X-12.739 Y12.372 E9.47305
G1 X-13.086 Y12.444 E9.48189
G1 X-14.013 Y12.588 E9.50529
G1 X-14.362 Y12.624 E9.51404
G1 X-15.295 Y12.673 E9.53735
G1 X-15.638 Y12.674 E9.5459
G1 X-16.573 Y12.63 E9.56925
G1 X-16.926 Y12.595 E9.5781
G1 X-17.854 Y12.455 E9.60151
G1 X-18.199 Y12.385 E9.6103
G1 X-19.104 Y12.152 E9.63361
G1 X-19.435 Y12.049 E9.64225
G1 X-20.316 Y11.725 E9.66567
G1 X-20.637 Y11.588 E9.67438
G1 X-21.478 Y11.178 E9.69772
G1 X-21.794 Y11.003 E9.70673
G1 X-22.588 Y10.507 E9.73008
G1 X-22.868 Y10.312 E9.73859
G1 X-23.608 Y9.741 E9.76191
G1 X-23.87 Y9.517 E9.77051
G1 X-24.551 Y8.873 E9.79389
G1 X-24.796 Y8.616 E9.80274
G1 X-25.407 Y7.906 E9.82611
G1 X-25.619 Y7.633 E9.83473
G1 X-26.156 Y6.865 E9.85811
G1 X-26.345 Y6.563 E9.867
G1 X-26.8 Y5.744 E9.89037
G1 X-26.953 Y5.434 E9.89899
G1 X-27.323 Y4.575 E9.92232
G1 X-27.448 Y4.235 E9.93136
G1 X-27.726 Y3.342 E9.95469
G1 X-27.808 Y3.026 E9.96283
G1 X-27.948 Y2.358 E9.97986
G1 X-28.053 Y1.757 E9.99508
G1 X-28.151 Y0.803 E10.019
G1 X-28.167 Y0.469 E10.02734
G1 X-28.167 Y-.467 E10.05069
G1 X-28.149 Y-.817 E10.05943
G1 X-28.054 Y-1.748 E10.08278
G1 X-28.001 Y-2.097 E10.09158
G1 X-27.811 Y-3.016 E10.11499
G1 X-27.726 Y-3.342 E10.12339
G1 X-27.448 Y-4.235 E10.14673
G1 X-27.323 Y-4.575 E10.15576
G1 X-26.953 Y-5.434 E10.17909
G1 X-26.8 Y-5.744 E10.18772
G1 X-26.345 Y-6.563 E10.21109
G1 X-26.156 Y-6.865 E10.21997
G1 X-25.619 Y-7.633 E10.24335
G1 X-25.407 Y-7.906 E10.25197
G1 X-24.796 Y-8.616 E10.27534
G1 X-24.551 Y-8.873 E10.2842
G1 X-23.87 Y-9.517 E10.30758
G1 X-23.608 Y-9.741 E10.31618
G1 X-22.868 Y-10.312 E10.33949
G1 X-22.588 Y-10.507 E10.348
G1 X-21.794 Y-11.003 E10.37136
G1 X-21.478 Y-11.178 E10.38037
G1 X-20.637 Y-11.588 E10.40371
G1 X-20.316 Y-11.725 E10.41241
G1 X-19.435 Y-12.049 E10.43583
G1 X-19.104 Y-12.152 E10.44448
G1 X-18.199 Y-12.385 E10.46779
G1 X-17.854 Y-12.455 E10.47657
G1 X-16.926 Y-12.595 E10.49998
G1 X-16.573 Y-12.63 E10.50883
G1 X-15.638 Y-12.674 E10.53218
G1 X-15.295 Y-12.673 E10.54073
G1 X-14.362 Y-12.624 E10.56404
G1 X-14.013 Y-12.588 E10.57279
G1 X-13.086 Y-12.444 E10.59619
G1 X-12.738 Y-12.371 E10.60506
G1 X-11.834 Y-12.133 E10.62838
G1 X-11.511 Y-12.031 E10.63683
G1 X-10.882 Y-11.797 E10.65357
G1 X-10.302 Y-11.56 E10.6692
G1 X-9.465 Y-11.146 E10.6925
G1 X-9.164 Y-10.978 E10.70109
G1 X-8.375 Y-10.484 E10.72432
G1 X-8.228 Y-10.387 E10.72871
G1 X-4.224 Y-7.585 E10.85062
G1 X-.596 Y-7.583 E10.94112
G0 X-.596 Y-7.283
G1 X25.7 Y-7.282 E11.59707
G1 X26.2 Y-7.242 E11.60959
G1 X26.687 Y-7.123 E11.62209
G1 X27.15 Y-6.929 E11.63461
G1 X27.575 Y-6.663 E11.64712
G1 X27.953 Y-6.333 E11.65964
G1 X28.274 Y-5.948 E11.67214
G1 X28.53 Y-5.516 E11.68467
G1 X28.713 Y-5.049 E11.69718
G1 X28.821 Y-4.559 E11.7097
G1 X28.85 Y-4.132 E11.72037
G1 X28.85 Y-1.823 E11.77797
G1 X28.81 Y-1.323 E11.79048
G1 X28.691 Y-.836 E11.80299
G1 X28.497 Y-.373 E11.81551
G1 X28.262 Y0.003 E11.82657
G1 X28.333 Y0.094 E11.82945
G1 X28.574 Y0.534 E11.84197
G1 X28.742 Y1.006 E11.85446
G1 X28.833 Y1.5 E11.86699
G1 X28.85 Y1.823 E11.87506
G1 X28.85 Y4.132 E11.93266
G1 X28.81 Y4.632 E11.94517
G1 X28.691 Y5.119 E11.95768
G1 X28.497 Y5.582 E11.9702
G1 X28.231 Y6.007 E11.98271
G1 X27.901 Y6.385 E11.99523
G1 X27.516 Y6.706 E12.00773
G1 X27.084 Y6.962 E12.02026
G1 X26.617 Y7.145 E12.03277
G1 X26.128 Y7.253 E12.04526
G1 X25.701 Y7.282 E12.05594
G1 X18.393 Y7.285 E12.23823
G1 X-4.32 Y7.284 E12.80481
G1 X-8.4 Y10.14 E12.92905
G1 X-8.531 Y10.227 E12.93297
G1 X-9.318 Y10.721 E12.95615
G1 X-9.596 Y10.876 E12.96409
G1 X-10.435 Y11.291 E12.98744
G1 X-10.728 Y11.418 E12.9954
G1 X-11.607 Y11.747 E13.01881
G1 X-11.91 Y11.843 E13.02674
G1 X-12.815 Y12.081 E13.05009
G1 X-13.132 Y12.148 E13.05817
G1 X-14.059 Y12.292 E13.08157
G1 X-14.378 Y12.325 E13.08957
G1 X-15.311 Y12.374 E13.11288
G1 X-15.624 Y12.375 E13.12068
G1 X-16.559 Y12.331 E13.14403
G1 X-16.881 Y12.299 E13.15211
G1 X-17.809 Y12.159 E13.17552
G1 X-18.124 Y12.095 E13.18353
G1 X-19.029 Y11.862 E13.20685
G1 X-19.331 Y11.767 E13.21474
G1 X-20.212 Y11.443 E13.23816
G1 X-20.505 Y11.318 E13.24611
G1 X-21.346 Y10.908 E13.26944
G1 X-21.635 Y10.749 E13.27767
G1 X-22.429 Y10.253 E13.30103
G1 X-22.684 Y10.075 E13.30878
G1 X-23.424 Y9.504 E13.3321
G1 X-23.664 Y9.299 E13.33997
G1 X-24.345 Y8.655 E13.36335
G1 X-24.569 Y8.421 E13.37143
G1 X-25.18 Y7.711 E13.3948
G1 X-25.374 Y7.461 E13.40269
G1 X-25.911 Y6.693 E13.42607
G1 X-26.083 Y6.418 E13.43416
G1 X-26.538 Y5.599 E13.45753
G1 X-26.677 Y5.315 E13.46542
G1 X-27.047 Y4.456 E13.48875
G1 X-27.162 Y4.146 E13.497
G1 X-27.44 Y3.253 E13.52033
G1 X-27.515 Y2.965 E13.52775
G1 X-27.654 Y2.3 E13.5447
G1 X-27.755 Y1.725 E13.55926
G1 X-27.824 Y1.062 E13.57589
G1 X-27.867 Y0.469 E13.59072
G1 X-27.867 Y-.467 E13.61407
G1 X-27.851 Y-.787 E13.62206
G1 X-27.756 Y-1.718 E13.64541
G1 X-27.707 Y-2.036 E13.65343
G1 X-27.517 Y-2.955 E13.67684
G1 X-27.44 Y-3.253 E13.68452
G1 X-27.162 Y-4.146 E13.70785
G1 X-27.047 Y-4.456 E13.7161
G1 X-26.677 Y-5.315 E13.73943
G1 X-26.538 Y-5.599 E13.74732
G1 X-26.083 Y-6.418 E13.77069
G1 X-25.911 Y-6.693 E13.77878
G1 X-25.374 Y-7.461 E13.80216
G1 X-25.18 Y-7.711 E13.81005
G1 X-24.569 Y-8.421 E13.83342
G1 X-24.345 Y-8.655 E13.8415
G1 X-23.664 Y-9.299 E13.86488
G1 X-23.424 Y-9.504 E13.87275
G1 X-22.684 Y-10.075 E13.89607
G1 X-22.429 Y-10.253 E13.90383
G1 X-21.635 Y-10.749 E13.92718
G1 X-21.346 Y-10.908 E13.93541
G1 X-20.505 Y-11.318 E13.95875
G1 X-20.212 Y-11.443 E13.96669
G1 X-19.331 Y-11.767 E13.99011
G1 X-19.029 Y-11.862 E13.99801
G1 X-18.124 Y-12.095 E14.02132
G1 X-17.809 Y-12.159 E14.02933
G1 X-16.881 Y-12.299 E14.05275
G1 X-16.559 Y-12.331 E14.06082
G1 X-15.624 Y-12.375 E14.08417
G1 X-15.311 Y-12.374 E14.09198
G1 X-14.378 Y-12.325 E14.11528
G1 X-14.059 Y-12.292 E14.12328
G1 X-13.132 Y-12.148 E14.14668
G1 X-12.814 Y-12.081 E14.15479
G1 X-11.91 Y-11.843 E14.17811
G1 X-11.616 Y-11.75 E14.1858
G1 X-10.988 Y-11.517 E14.20251
G1 X-10.435 Y-11.291 E14.21741
G1 X-9.598 Y-10.877 E14.2407
G1 X-9.323 Y-10.724 E14.24855
G1 X-8.534 Y-10.23 E14.27178
G1 X-8.4 Y-10.141 E14.27579
G1 X-4.319 Y-7.285 E14.40004
G1 X-.596 Y-7.283 E14.49291
G0 X-.596 Y-6.983
G1 X25.7 Y-6.982 E15.14887
G1 X26.176 Y-6.942 E15.16079
G1 X26.638 Y-6.823 E15.17269
G1 X27.073 Y-6.629 E15.18457
G1 X27.471 Y-6.365 E15.19648
G1 X27.818 Y-6.039 E15.20836
G1 X28.107 Y-5.658 E15.22029
G1 X28.328 Y-5.236 E15.23217
G1 X28.475 Y-4.782 E15.24407
G1 X28.55 Y-4.132 E15.2604
G1 X28.55 Y-1.823 E15.31799
G1 X28.51 Y-1.348 E15.32988
G1 X28.391 Y-.886 E15.34179
G1 X28.197 Y-.45 E15.35369
G1 X27.887 Y-0.003 E15.36726
G1 X28.168 Y0.398 E15.37947
G1 X28.371 Y0.829 E15.39136
G1 X28.499 Y1.289 E15.40327
G1 X28.55 Y1.823 E15.41665
G1 X28.55 Y4.132 E15.47425
G1 X28.51 Y4.607 E15.48614
G1 X28.391 Y5.069 E15.49804
G1 X28.197 Y5.505 E15.50994
G1 X27.933 Y5.903 E15.52186
G1 X27.607 Y6.25 E15.53373
G1 X27.227 Y6.539 E15.54564
G1 X26.804 Y6.76 E15.55755
G1 X26.35 Y6.907 E15.56945
G1 X25.701 Y6.982 E15.58575
G1 X18.393 Y6.985 E15.76805
G1 X-4.415 Y6.984 E16.337
G1 X-8.572 Y9.894 E16.46358
G1 X-8.691 Y9.973 E16.46714
G1 X-9.478 Y10.467 E16.49032
G1 X-9.729 Y10.608 E16.4975
G1 X-10.568 Y11.023 E16.52085
G1 X-10.833 Y11.137 E16.52804
G1 X-11.712 Y11.466 E16.55146
G1 X-11.986 Y11.553 E16.55863
G1 X-12.891 Y11.791 E16.58197
G1 X-13.179 Y11.851 E16.58931
G1 X-14.106 Y11.995 E16.61271
G1 X-14.394 Y12.025 E16.61993
G1 X-15.327 Y12.074 E16.64324
