;FLAVOR:Marlin
;TIME:1338
;Filament used: 1.26423m
;Layer height: 0.2
;MINX:-25.097
;MINY:-13.578
;MINZ:0.3
;MAXX:25.085
;MAXY:13.583
;MAXZ:19.5
;Generated with Cura_SteamEngine 4.13.1
M140 S60
M105
M190 S60
M104 S205
M105
M109 S205
M82 ;absolute extrusion mode
G28 ;Home
G1 Z15.0 F6000 ;Move the platform down 15mm
;Prime the extruder
G92 E0
G1 F200 E3
G92 E0
G92 E0
G92 E0
G1 F2400 E-5
;LAYER_COUNT:97
;LAYER:0
M107
G0 F1800 X-1.034 Y-12.639 Z0.3
;TYPE:SKIRT
G1 F2400 E0.02661
G1 F900 X1.694 Y-12.755 E0.16283
G1 X4.411 Y-12.948 E0.29872
G1 X6.371 Y-13.134 E0.39695
G1 X8.842 Y-13.393 E0.5209
G1 X10.662 Y-13.55 E0.61204
G1 X11.408 Y-13.578 E0.64928
G1 X11.654 Y-13.575 E0.66156
G1 X12.708 Y-13.523 E0.71421
G1 X13.545 Y-13.43 E0.75622
G1 X14.362 Y-13.271 E0.79775
G1 X14.852 Y-13.161 E0.8228
G1 X15.474 Y-12.994 E0.85493
G1 X16.121 Y-12.767 E0.88914
G1 X16.755 Y-12.527 E0.92296
G1 X17.103 Y-12.373 E0.94195
G1 X17.945 Y-11.946 E0.98905
G1 X18.058 Y-11.886 E0.99543
G1 X18.572 Y-11.602 E1.02473
G1 X18.913 Y-11.388 E1.04481
G1 X19.452 Y-11.006 E1.07777
G1 X20.052 Y-10.557 E1.11516
G1 X20.351 Y-10.306 E1.13464
G1 X20.931 Y-9.763 E1.17428
G1 X21.019 Y-9.678 E1.18038
G1 X21.477 Y-9.219 E1.21273
G1 X21.802 Y-8.854 E1.23711
G1 X22.148 Y-8.423 E1.26469
G1 X22.649 Y-7.762 E1.30607
G1 X22.934 Y-7.335 E1.33168
G1 X23.221 Y-6.853 E1.35966
G1 X23.618 Y-6.15 E1.39994
G1 X23.804 Y-5.769 E1.4211
G1 X24.11 Y-5.034 E1.46082
G1 X24.366 Y-4.37 E1.49632
G1 X24.488 Y-3.994 E1.51604
G1 X24.657 Y-3.354 E1.54907
G1 X24.842 Y-2.565 E1.5895
G1 X24.932 Y-2.03 E1.61656
G1 X25.003 Y-1.413 E1.64755
G1 X25.07 Y-.706 E1.68298
G1 X25.085 Y-.289 E1.7038
G1 X25.066 Y0.564 E1.74636
G1 X25.033 Y1.23 E1.77963
G1 X24.973 Y1.758 E1.80614
G1 X24.868 Y2.397 E1.83845
G1 X24.743 Y3.061 E1.87216
G1 X24.641 Y3.468 E1.89309
G1 X24.396 Y4.251 E1.93402
G1 X24.181 Y4.882 E1.96728
G1 X24.004 Y5.316 E1.99067
G1 X23.684 Y5.992 E2.02798
G1 X23.36 Y6.632 E2.06377
G1 X23.158 Y6.98 E2.08384
G1 X22.737 Y7.619 E2.12202
G1 X22.323 Y8.213 E2.15814
G1 X22.078 Y8.527 E2.17801
G1 X21.632 Y9.036 E2.21177
G1 X21.088 Y9.624 E2.25174
G1 X20.741 Y9.958 E2.27577
G1 X20.234 Y10.392 E2.30906
G1 X19.653 Y10.867 E2.3465
G1 X19.33 Y11.102 E2.36643
G1 X18.709 Y11.503 E2.40331
G1 X18.063 Y11.895 E2.44101
G1 X17.655 Y12.11 E2.46402
G1 X16.967 Y12.426 E2.50179
G1 X16.471 Y12.635 E2.52864
G1 X15.849 Y12.869 E2.5618
G1 X15.249 Y13.049 E2.59305
G1 X14.504 Y13.25 E2.63155
G1 X14.026 Y13.347 E2.65588
G1 X13.395 Y13.442 E2.68772
G1 X12.647 Y13.536 E2.72533
G1 X12.076 Y13.578 E2.75389
G1 X11.78 Y13.583 E2.76866
G1 X10.85 Y13.57 E2.81507
G1 X10.42 Y13.545 E2.83655
G1 X9.225 Y13.419 E2.8965
G1 X7.483 Y13.251 E2.98382
G1 X6.365 Y13.133 E3.0399
G1 X3.622 Y12.883 E3.17732
G1 X0.902 Y12.713 E3.31328
G1 X-1.833 Y12.62 E3.44981
G1 X-3.796 Y12.6 E3.54775
G1 X-20.724 Y12.6 E4.39229
G1 X-21.425 Y12.59 E4.42727
G1 X-21.96 Y12.542 E4.45407
G1 X-22.481 Y12.416 E4.48081
G1 X-22.977 Y12.213 E4.50755
G1 X-23.438 Y11.939 E4.5343
G1 X-23.908 Y11.547 E4.56484
G1 X-24.021 Y11.435 E4.57278
G1 X-24.373 Y11.03 E4.59955
G1 X-24.661 Y10.577 E4.62633
G1 X-24.878 Y10.087 E4.65306
G1 X-25.02 Y9.57 E4.67981
G1 X-25.085 Y9 E4.70843
G1 X-25.097 Y8.318 E4.74246
G1 X-25.097 Y-8.249 E5.56899
G1 X-25.087 Y-8.931 E5.60302
G1 X-25.039 Y-9.465 E5.62977
G1 X-24.912 Y-9.986 E5.65653
G1 X-24.71 Y-10.483 E5.68329
G1 X-24.435 Y-10.944 E5.71007
G1 X-24.033 Y-11.424 E5.74131
G1 X-23.921 Y-11.536 E5.74921
G1 X-23.514 Y-11.885 E5.77596
G1 X-23.06 Y-12.171 E5.80273
G1 X-22.569 Y-12.386 E5.82947
G1 X-22.051 Y-12.526 E5.85624
G1 X-21.497 Y-12.588 E5.88405
G1 X-20.862 Y-12.6 E5.91574
G1 X-3.815 Y-12.6 E6.76622
G1 X-1.034 Y-12.639 E6.90498
G0 F1800 X-1.012 Y-12.24
G1 F900 X1.705 Y-12.355 E7.04065
G1 X4.43 Y-12.548 E7.17694
G1 X6.408 Y-12.735 E7.27606
G1 X8.877 Y-12.995 E7.39992
G1 X10.685 Y-13.151 E7.49046
G1 X11.415 Y-13.178 E7.5269
G1 X11.635 Y-13.175 E7.53788
G1 X12.689 Y-13.123 E7.59053
G1 X13.468 Y-13.037 E7.62963
G1 X14.285 Y-12.878 E7.67115
G1 X14.874 Y-12.744 E7.70129
G1 X15.457 Y-12.578 E7.73153
G1 X15.986 Y-12.391 E7.75952
G1 X16.613 Y-12.153 E7.79298
G1 X16.922 Y-12.016 E7.80985
G1 X17.764 Y-11.589 E7.85695
G1 X17.865 Y-11.536 E7.86264
G1 X18.379 Y-11.252 E7.89194
G1 X18.681 Y-11.062 E7.90974
G1 X19.291 Y-10.628 E7.94709
G1 X19.812 Y-10.237 E7.97958
G1 X20.078 Y-10.014 E7.9969
G1 X20.658 Y-9.471 E8.03654
G1 X21.194 Y-8.936 E8.07432
G1 X21.49 Y-8.603 E8.09655
G1 X21.894 Y-8.098 E8.12882
G1 X22.33 Y-7.521 E8.1649
G1 X22.833 Y-6.724 E8.21192
G1 X23.269 Y-5.954 E8.25606
G1 X23.435 Y-5.614 E8.27494
G1 X23.737 Y-4.89 E8.31408
G1 X23.993 Y-4.226 E8.34958
G1 X24.101 Y-3.892 E8.36709
G1 X24.293 Y-3.161 E8.4048
G1 X24.453 Y-2.474 E8.43999
G1 X24.535 Y-1.984 E8.46478
G1 X24.605 Y-1.375 E8.49536
G1 X24.672 Y-.668 E8.53079
G1 X24.685 Y-.298 E8.54926
G1 X24.666 Y0.544 E8.59128
G1 X24.633 Y1.21 E8.62455
G1 X24.578 Y1.694 E8.64885
G1 X24.475 Y2.323 E8.68065
G1 X24.35 Y2.987 E8.71436
G1 X24.26 Y3.349 E8.73297
G1 X24.017 Y4.122 E8.77339
G1 X23.802 Y4.753 E8.80665
G1 X23.642 Y5.145 E8.82777
G1 X23.327 Y5.811 E8.86453
G1 X23.003 Y6.451 E8.90032
G1 X22.824 Y6.761 E8.91818
G1 X22.409 Y7.391 E8.95581
G1 X21.995 Y7.985 E8.99194
G1 X21.777 Y8.264 E9.0096
G1 X21.331 Y8.773 E9.04337
G1 X20.795 Y9.352 E9.08273
G1 X20.48 Y9.654 E9.1045
G1 X19.98 Y10.082 E9.13734
G1 X19.399 Y10.557 E9.17478
G1 X19.113 Y10.766 E9.19245
G1 X18.501 Y11.161 E9.22879
G1 X17.855 Y11.553 E9.26649
G1 X17.488 Y11.747 E9.2872
G1 X16.81 Y12.058 E9.32441
G1 X16.325 Y12.262 E9.35066
G1 X15.728 Y12.487 E9.38249
G1 X15.139 Y12.664 E9.41318
G1 X14.4 Y12.863 E9.45136
G1 X13.966 Y12.952 E9.47346
G1 X13.345 Y13.045 E9.50479
G1 X12.597 Y13.139 E9.5424
G1 X12.065 Y13.178 E9.56901
G1 X11.785 Y13.183 E9.58298
G1 X10.855 Y13.17 E9.62939
G1 X10.461 Y13.147 E9.64908
G1 X9.289 Y13.023 E9.70787
G1 X7.525 Y12.853 E9.79629
G1 X6.42 Y12.737 E9.85172
G1 X3.647 Y12.484 E9.99064
G1 X0.905 Y12.313 E10.1277
G1 X-1.815 Y12.22 E10.26349
G1 X-3.792 Y12.2 E10.36212
G1 X-20.719 Y12.2 E11.20662
G1 X-21.42 Y12.19 E11.24159
G1 X-21.923 Y12.143 E11.2668
G1 X-22.413 Y12.017 E11.29204
G1 X-22.876 Y11.815 E11.31724
G1 X-23.303 Y11.543 E11.3425
G1 X-23.74 Y11.151 E11.37179
G1 X-24.07 Y10.768 E11.39701
G1 X-24.335 Y10.337 E11.42225
G1 X-24.529 Y9.871 E11.44743
G1 X-24.648 Y9.379 E11.47269
G1 X-24.69 Y8.838 E11.49976
G1 X-24.697 Y8.313 E11.52595
G1 X-24.697 Y-8.243 E12.35194
G1 X-24.687 Y-8.925 E12.38596
G1 X-24.639 Y-9.428 E12.41117
G1 X-24.513 Y-9.918 E12.43641
G1 X-24.312 Y-10.382 E12.46164
G1 X-24.04 Y-10.808 E12.48686
G1 X-23.638 Y-11.253 E12.51678
G1 X-23.253 Y-11.581 E12.54201
G1 X-22.822 Y-11.844 E12.5672
G1 X-22.354 Y-12.037 E12.59246
G1 X-21.862 Y-12.153 E12.61767
G1 X-21.335 Y-12.193 E12.64404
G1 X-20.857 Y-12.2 E12.66789
G1 X-3.809 Y-12.2 E13.51842
G1 X-1.012 Y-12.24 E13.65798
G0 F1800 X1.502 Y-8.8
;TYPE:SUPPORT
G1 F900 X10.068 Y-9.702 E14.0877
G1 X11.48 Y-9.799 E14.15831
G1 X11.507 Y-9.799 E14.15966
G1 X12.889 Y-9.702 E14.22878
G1 X14.175 Y-9.427 E14.29439
G1 X14.23 Y-9.412 E14.29723
G1 X15.463 Y-8.962 E14.36271
G1 X16.713 Y-8.299 E14.43331
G1 X17.803 Y-7.506 E14.50055
G1 X18.784 Y-6.554 E14.56875
G1 X19.627 Y-5.477 E14.63699
G1 X20.311 Y-4.295 E14.70512
G1 X20.825 Y-3.02 E14.7737
G1 X21.149 Y-1.711 E14.84098
G1 X21.297 Y-.347 E14.90943
G1 X21.248 Y1.035 E14.97842
G1 X21.016 Y2.362 E15.04563
G1 X20.589 Y3.668 E15.11418
G1 X19.988 Y4.902 E15.18266
G1 X19.221 Y6.036 E15.25096
G1 X18.311 Y7.046 E15.31879
G1 X17.268 Y7.922 E15.38674
G1 X16.095 Y8.654 E15.45572
G1 X14.85 Y9.209 E15.52373
G1 X14.824 Y9.218 E15.5251
G1 X13.539 Y9.585 E15.59177
G1 X12.191 Y9.774 E15.65968
G1 X11.494 Y9.799 E15.69448
G1 X10.807 Y9.775 E15.72877
G1 X9.144 Y9.537 E15.81259
G1 X8.755 Y9.564 E15.83204
G1 X1.5 Y8.8 E16.19599
G1 X-21.297 Y8.8 E17.33334
G1 X-21.297 Y-8.8 E18.21141
G1 X1.502 Y-8.8 E19.34886
G0 F1800 X8.984 Y-2.249
G1 F900 X8.66 Y-1.815 E19.37588
G1 X8.391 Y-1.304 E19.40469
G1 X8.21 Y-.742 E19.43414
G1 X8.136 Y-.2 E19.46143
G1 X8.15 Y0.382 E19.49048
G1 X8.265 Y0.952 E19.51949
G1 X8.472 Y1.487 E19.54811
G1 X8.757 Y1.963 E19.57579
G1 X9.139 Y2.409 E19.60509
G1 X9.567 Y2.763 E19.6328
G1 X10.074 Y3.057 E19.66204
G1 X10.622 Y3.257 E19.69114
G1 X10.735 Y3.284 E19.69694
G1 X11.432 Y3.375 E19.732
G1 X11.574 Y3.375 E19.73909
G1 X12.277 Y3.284 E19.77445
G1 X12.847 Y3.095 E19.80441
G1 X13.343 Y2.828 E19.83252
G1 X13.8 Y2.471 E19.86145
G1 X14.194 Y2.039 E19.89062
G1 X14.503 Y1.549 E19.91952
G1 X14.717 Y1.035 E19.9473
G1 X14.845 Y0.468 E19.9763
G1 X14.876 Y-.107 E20.00503
G1 X14.813 Y-.653 E20.03245
G1 X14.795 Y-.744 E20.03707
G1 X14.65 Y-1.223 E20.06204
G1 X14.397 Y-1.737 E20.09062
G1 X14.06 Y-2.204 E20.11936
G1 X13.666 Y-2.589 E20.14684
G1 X13.199 Y-2.916 E20.17528
G1 X13.12 Y-2.963 E20.17987
G1 X12.653 Y-3.176 E20.20548
G1 X12.122 Y-3.318 E20.2329
G1 X11.551 Y-3.375 E20.26153
G1 X10.974 Y-3.333 E20.29039
G1 X10.426 Y-3.197 E20.31856
G1 X9.888 Y-2.966 E20.34777
G1 X9.411 Y-2.649 E20.37634
G1 X8.984 Y-2.249 E20.40553
G0 F1800 X-8.288 Y-5.21
G1 F900 X-9.235 Y-5.854 E20.46267
G1 X-10.264 Y-6.317 E20.51896
G1 X-11.351 Y-6.599 E20.57499
G1 X-12.529 Y-6.701 E20.63398
G1 X-13.595 Y-6.613 E20.68734
G1 X-14.742 Y-6.314 E20.74648
G1 X-15.775 Y-5.845 E20.80308
G1 X-16.71 Y-5.209 E20.8595
G1 X-17.525 Y-4.436 E20.91554
G1 X-18.198 Y-3.521 E20.9722
G1 X-18.718 Y-2.491 E21.02977
G1 X-19.044 Y-1.419 E21.08567
G1 X-19.196 Y-.29 E21.1425
G1 X-19.143 Y0.857 E21.19979
G1 X-18.904 Y1.949 E21.25556
G1 X-18.474 Y3.033 E21.31374
G1 X-17.881 Y3.992 E21.36999
G1 X-17.142 Y4.831 E21.42577
G1 X-16.252 Y5.55 E21.48285
G1 X-15.25 Y6.108 E21.54007
G1 X-14.218 Y6.475 E21.59472
G1 X-13 Y6.688 E21.65641
G1 X-12.508 Y6.708 E21.68097
G1 X-11.949 Y6.685 E21.70888
G1 X-10.799 Y6.482 E21.76714
G1 X-9.749 Y6.108 E21.82275
G1 X-8.729 Y5.536 E21.8811
G1 X-7.864 Y4.844 E21.93636
G1 X-7.111 Y3.989 E21.9932
G1 X-6.517 Y3.023 E22.04978
G1 X-6.09 Y1.955 E22.10716
G1 X-5.851 Y0.858 E22.16318
G1 X-5.798 Y-.292 E22.22061
G1 X-5.947 Y-1.411 E22.27693
G1 X-6.286 Y-2.512 E22.3344
G1 X-6.787 Y-3.516 E22.39038
G1 X-7.464 Y-4.422 E22.44681
G1 X-8.288 Y-5.21 E22.50369
G1 X-8.188 Y-5.334
G1 X19.525 Y-5.333 E23.8863
G0 F1800 X18.669 Y-6.441
G1 F900 X18.669 Y6.41 E24.52744
G0 F1800 X19.501 Y5.334
G1 F900 X-8.22 Y5.333 E25.91044
G0 F1800 X-8.001 Y5.158
G1 F900 X-8.001 Y8.64 E26.08416
G0 F1800 X-10.668 Y8.64
G1 F900 X-10.668 Y6.604 E26.18574
G0 F1800 X-13.335 Y6.792
G1 F900 X-13.335 Y8.64 E26.27794
G0 F1800 X-16.002 Y8.64
G1 F900 X-16.002 Y5.873 E26.41598
G0 F1800 X-16.774 Y5.333
G1 F900 X-21.137 Y5.333 E26.63365
G0 F1800 X-21.137 Y2.666
G1 F900 X-18.79 Y2.666 E26.75074
G0 F1800 X-18.669 Y2.975
G1 F900 X-18.669 Y8.64 E27.03337
G0 F1800 X-21.137 Y8
G1 F900 X16.836 Y8.001 E28.92785
G0 F1800 X16.002 Y8.521
G1 F900 X16.002 Y-8.494 E29.77674
G0 F1800 X16.851 Y-8
G1 F900 X-21.137 Y-8.001 E31.67196
G0 F1800 X-18.669 Y-8.64
G1 F900 X-18.669 Y-2.942 E31.95624
G0 F1800 X-18.808 Y-2.667
G1 F900 X-21.137 Y-2.667 E32.07243
G0 F1800 X-21.137 Y-5.334
G1 F900 X-16.81 Y-5.334 E32.28831
G0 F1800 X-16.002 Y-5.884
G1 F900 X-16.002 Y-8.64 E32.42581
G0 F1800 X-13.335 Y-8.64
G1 F900 X-13.335 Y-6.794 E32.5179
G0 F1800 X-10.668 Y-6.587
G1 F900 X-10.668 Y-8.64 E32.62033
G0 F1800 X-8.001 Y-8.64
G1 F900 X-8.001 Y-5.157 E32.79409
G0 F1800 X-6.186 Y-2.667
G1 F900 X9.195 Y-2.666 E33.56146
G0 F1800 X10.668 Y-3.421
G1 F900 X10.668 Y-9.583 E33.86888
G0 F1800 X13.335 Y-9.442
G1 F900 X13.335 Y-3.016 E34.18947
G0 F1800 X13.814 Y-2.666
G1 F900 X20.748 Y-2.666 E34.53541
G0 F1800 X21.123 Y0.00
G1 F900 X15.032 Y0.00 E34.83929
G0 F1800 X13.807 Y2.667
G1 F900 X20.747 Y2.667 E35.18553
G0 F1800 X13.335 Y3.014
G1 F900 X13.335 Y9.453 E35.50677
G0 F1800 X10.668 Y9.593
G1 F900 X10.668 Y3.433 E35.8141
G0 F1800 X9.202 Y2.667
G1 F900 X-6.202 Y2.666 E36.58261
G0 F1800 X-5.65 Y0.00
G1 F900 X7.981 Y0.00 E37.26266
G0 F1800 X8.001 Y-.39
G1 F900 X8.001 Y-9.324 E37.70838
G0 F1800 X5.334 Y-9.043
G1 F900 X5.334 Y9.042 E38.61064
G0 F1800 X2.667 Y8.762
G1 F900 X2.667 Y-8.762 E39.48492
G0 F1800 X0.00 Y-8.64
G1 F900 X0.00 Y8.64 E40.34702
G0 F1800 X-2.667 Y8.64
G1 F900 X-2.667 Y-8.64 E41.20912
G0 F1800 X-5.334 Y-8.64
G1 F900 X-5.334 Y8.64 E42.07123
G0 F1800 X8.001 Y9.323
G1 F900 X8.001 Y0.456 E42.5136
G0 F1800 X-19.343 Y0.00
G1 F900 X-21.137 Y0.00 E42.60311
G0 F1800 X10.917 Y-0.024
G1 F900 X10.96 Y-.219 E42.61307
G1 X11.092 Y-.429 E42.62544
G1 X11.311 Y-.551 E42.63795
G1 X11.553 Y-.593 E42.65021
G1 X11.788 Y-.51 E42.66264
G1 X11.943 Y-.385 E42.67257
G1 X12.046 Y-.217 E42.6824
G1 X12.088 Y-0.023 E42.69231
G1 X12.063 Y0.168 E42.70192
G1 X11.974 Y0.347 E42.71189
G1 X11.827 Y0.487 E42.72202
G1 X11.519 Y0.591 E42.73824
G1 X11.372 Y0.574 E42.74562
G1 X11.178 Y0.485 E42.75627
G1 X11.032 Y0.346 E42.76633
G1 X10.943 Y0.168 E42.77625
G1 X10.917 Y-0.024 E42.78592
G1 X11.081 Y0.00
G1 X11.924 Y0.00 E42.82798
G1 F2400 E37.82798
;MESH:Base.STL
G0 F1800 X10.09 Y0.922
G0 X9.347 Y0.282
G1 F2400 E42.85459
G0 F1800 X9.247 Y0.293
;TYPE:WALL-OUTER
G1 F900 X9.231 Y-0.099 E42.87416
G1 X9.28 Y-.477 E42.89318
G1 X9.392 Y-.846 E42.91241
G1 X9.568 Y-1.193 E42.93183
G1 X9.796 Y-1.503 E42.95102
G1 X10.074 Y-1.769 E42.97022
G1 X10.397 Y-1.988 E42.98969
G1 X10.742 Y-2.143 E43.00856
G1 X11.122 Y-2.242 E43.02815
G1 X11.503 Y-2.275 E43.04723
G1 X11.884 Y-2.242 E43.06631
G1 X12.263 Y-2.144 E43.08584
G1 X12.611 Y-1.986 E43.10491
G1 X12.932 Y-1.769 E43.12424
G1 X13.21 Y-1.503 E43.14343
G1 X13.439 Y-1.193 E43.16266
G1 X13.615 Y-.844 E43.18216
G1 X13.726 Y-.479 E43.2012
G1 X13.775 Y-0.099 E43.22031
G1 X13.759 Y0.287 E43.23958
G1 X13.677 Y0.671 E43.25917
G1 X13.535 Y1.023 E43.27811
G1 X13.332 Y1.353 E43.29744
G1 X13.08 Y1.639 E43.31646
G1 X12.774 Y1.886 E43.33608
G1 X12.443 Y2.071 E43.35499
G1 X12.073 Y2.201 E43.37456
G1 X11.503 Y2.275 E43.40324
G1 X10.933 Y2.201 E43.43191
G1 X10.564 Y2.071 E43.45143
G1 X10.232 Y1.886 E43.47039
G1 X9.926 Y1.639 E43.49001
G1 X9.674 Y1.353 E43.50903
G1 X9.473 Y1.026 E43.52818
G1 X9.328 Y0.662 E43.54773
G1 X9.247 Y0.293 E43.56657
G0 F1800 X9.239 Y0.093
G0 X9.877 Y0.498
G1 F900 X10.135 Y1.011 E43.59522
G1 X10.551 Y1.409 E43.62395
G1 X11.074 Y1.646 E43.65259
G1 X11.516 Y1.7 E43.67481
G1 X11.932 Y1.646 E43.69574
G1 X12.455 Y1.409 E43.72438
G1 X12.871 Y1.011 E43.75311
G1 X13.129 Y0.498 E43.78175
G1 X13.203 Y-0.073 E43.81048
G1 X13.081 Y-.634 E43.83912
G1 X12.78 Y-1.124 E43.86781
G1 X12.333 Y-1.485 E43.89648
G1 X11.791 Y-1.676 E43.92515
G1 X11.503 Y-1.701 E43.93957
G1 X10.936 Y-1.603 E43.96828
G1 X10.435 Y-1.323 E43.99691
G1 X10.226 Y-1.124 E44.01131
G1 X9.925 Y-.634 E44.04
G1 X9.803 Y-0.073 E44.06864
G1 X9.877 Y0.498 E44.09737
G0 F1800 X9.966 Y0.676
G0 X9.621 Y0.57
;TYPE:SKIN
G1 F900 X9.545 Y0.211 E44.10714
G1 X9.613 Y-.567 E44.12795
G1 X10.005 Y-1.307 E44.15025
G1 X10.658 Y-1.786 E44.17183
G1 X11.322 Y-1.969 E44.19017
G1 X11.941 Y-1.916 E44.20672
G1 X12.948 Y-1.476 E44.236
G1 X13.421 Y-.436 E44.26643
G1 X13.429 Y0.418 E44.28918
G1 X13.082 Y1.203 E44.31204
G1 X12.468 Y1.72 E44.33342
G1 X11.843 Y1.943 E44.3511
G1 X11.294 Y1.96 E44.36573
G1 X10.925 Y1.874 E44.37582
G1 X10.138 Y1.37 E44.40072
G0 F1800 X9.611 Y0.858
G1 F2400 E39.40072
;MESH:NONMESH
G0 F600 X9.611 Y0.858 Z0.5
G0 F1800 X9.41 Y-.839
G0 X8.621 Y-1.238
G0 X2.667 Y-5.845
;TIME_ELAPSED:68.914721
;LAYER:1
M106 S255
;TYPE:SUPPORT
G1 F2400 E44.42733
G1 F2250 X2.699 Y-5.901 E44.42947
G1 X2.731 Y-5.947 E44.43134
G1 X3.609 Y-7.072 E44.4788
G1 X3.646 Y-7.113 E44.48064
G1 X4.67 Y-8.103 E44.52801
G1 X4.714 Y-8.138 E44.52988
G1 X5.334 Y-8.589 E44.55538
G1 X5.87 Y-8.979 E44.57743
G1 X5.918 Y-9.007 E44.57928
G1 X6.523 Y-9.328 E44.60205
G1 X5.334 Y-9.203 E44.64182
G1 X5.334 Y-8.589 E44.66224
G0 F4500 X2.667 Y-5.845
G1 F2250 X1.985 Y-4.666 E44.70754
G1 X1.961 Y-4.615 E44.70942
G1 X1.43 Y-3.3 E44.75659
G1 X1.413 Y-3.247 E44.75844
G1 X1.067 Y-1.86 E44.80598
G1 X1.059 Y-1.805 E44.80783
G1 X0.909 Y-.388 E44.85522
G1 X0.909 Y-.331 E44.85712
G1 X0.96 Y1.091 E44.90445
G1 X0.967 Y1.146 E44.90629
G1 X1.214 Y2.556 E44.9539
G1 X1.232 Y2.61 E44.95579
G1 X1.662 Y3.937 E45.00219
G1 X1.682 Y3.989 E45.00404
G1 X2.31 Y5.277 E45.0517
