;FLAVOR:Marlin
;TIME:2177
;Filament used: 1.26767m
;Layer height: 0.2
;MINX:-25.097
;MINY:-13.578
;MINZ:0.3
;MAXX:25.086
;MAXY:13.583
;MAXZ:19.5
;Generated with Cura_SteamEngine 4.13.1
M140 S60
M105
M190 S60
M104 S205
M105
M109 S205
M82 ;absolute extrusion mode
G28 ;Home
G1 Z15.0 F6000 ;Move the platform down 15mm
;Prime the extruder
G92 E0
G1 F200 E3
G92 E0
G92 E0
G92 E0
G1 F2400 E-5
;LAYER_COUNT:97
;LAYER:0
M107
G0 F3600 X-1.034 Y-12.639 Z0.3
;TYPE:SKIRT
G1 F2400 E0.02661
G1 F900 X1.694 Y-12.755 E0.16283
G1 X4.411 Y-12.948 E0.29872
G1 X6.371 Y-13.134 E0.39695
G1 X8.842 Y-13.393 E0.5209
G1 X10.662 Y-13.55 E0.61204
G1 X11.408 Y-13.578 E0.64928
G1 X11.654 Y-13.575 E0.66156
G1 X12.708 Y-13.523 E0.71421
G1 X13.545 Y-13.43 E0.75622
G1 X14.362 Y-13.271 E0.79775
G1 X14.852 Y-13.161 E0.8228
G1 X15.474 Y-12.994 E0.85493
G1 X16.121 Y-12.767 E0.88914
G1 X16.755 Y-12.527 E0.92296
G1 X17.103 Y-12.373 E0.94195
G1 X17.945 Y-11.946 E0.98905
G1 X18.058 Y-11.886 E0.99543
G1 X18.572 Y-11.602 E1.02473
G1 X18.913 Y-11.388 E1.04481
G1 X19.452 Y-11.006 E1.07777
G1 X20.052 Y-10.557 E1.11516
G1 X20.351 Y-10.306 E1.13464
G1 X20.931 Y-9.763 E1.17428
G1 X21.019 Y-9.678 E1.18038
G1 X21.477 Y-9.219 E1.21273
G1 X21.802 Y-8.854 E1.23711
G1 X22.148 Y-8.423 E1.26469
G1 X22.649 Y-7.762 E1.30607
G1 X22.934 Y-7.335 E1.33168
G1 X23.221 Y-6.853 E1.35966
G1 X23.618 Y-6.15 E1.39994
G1 X23.804 Y-5.769 E1.4211
G1 X24.11 Y-5.034 E1.46082
G1 X24.366 Y-4.37 E1.49632
G1 X24.488 Y-3.994 E1.51604
G1 X24.657 Y-3.354 E1.54907
G1 X24.842 Y-2.565 E1.5895
G1 X24.936 Y-1.999 E1.61812
G1 X25.005 Y-1.396 E1.6484
G1 X25.071 Y-.693 E1.68363
G1 X25.086 Y-.277 E1.7044
G1 X25.066 Y0.594 E1.74786
G1 X25.035 Y1.218 E1.77903
G1 X24.977 Y1.736 E1.80504
G1 X24.868 Y2.397 E1.83846
G1 X24.736 Y3.086 E1.87346
G1 X24.64 Y3.471 E1.89325
G1 X24.444 Y4.106 E1.92641
G1 X24.194 Y4.844 E1.96528
G1 X24.049 Y5.205 E1.98469
G1 X23.632 Y6.097 E2.03382
G1 X23.382 Y6.593 E2.06153
G1 X23.148 Y6.997 E2.08482
G1 X22.747 Y7.607 E2.12124
G1 X22.323 Y8.217 E2.1583
G1 X22.071 Y8.539 E2.1787
G1 X21.634 Y9.036 E2.21172
G1 X21.061 Y9.652 E2.25369
G1 X20.784 Y9.919 E2.27289
G1 X20.289 Y10.345 E2.30547
G1 X19.675 Y10.851 E2.34516
G1 X19.334 Y11.1 E2.36623
G1 X18.638 Y11.546 E2.40747
G1 X18.044 Y11.904 E2.44207
G1 X17.661 Y12.108 E2.46372
G1 X16.959 Y12.429 E2.50223
G1 X16.471 Y12.635 E2.52866
G1 X15.849 Y12.869 E2.56181
G1 X15.249 Y13.049 E2.59307
G1 X14.504 Y13.25 E2.63156
G1 X14.026 Y13.347 E2.6559
G1 X13.395 Y13.442 E2.68773
G1 X12.647 Y13.536 E2.72534
G1 X12.076 Y13.578 E2.75391
G1 X11.78 Y13.583 E2.76868
G1 X10.85 Y13.57 E2.81508
G1 X10.42 Y13.545 E2.83657
G1 X9.225 Y13.419 E2.89652
G1 X7.483 Y13.251 E2.98383
G1 X6.365 Y13.133 E3.03992
G1 X3.622 Y12.883 E3.17733
G1 X0.902 Y12.713 E3.3133
G1 X-1.833 Y12.62 E3.44983
G1 X-3.796 Y12.6 E3.54777
G1 X-20.724 Y12.6 E4.39231
G1 X-21.425 Y12.59 E4.42728
G1 X-21.96 Y12.542 E4.45408
G1 X-22.481 Y12.416 E4.48083
G1 X-22.977 Y12.213 E4.50756
G1 X-23.438 Y11.939 E4.53432
G1 X-23.908 Y11.547 E4.56485
G1 X-24.021 Y11.435 E4.57279
G1 X-24.373 Y11.03 E4.59956
G1 X-24.661 Y10.577 E4.62634
G1 X-24.878 Y10.087 E4.65308
G1 X-25.02 Y9.57 E4.67983
G1 X-25.085 Y9 E4.70845
G1 X-25.097 Y8.318 E4.74248
G1 X-25.097 Y-8.249 E5.56901
G1 X-25.087 Y-8.931 E5.60304
G1 X-25.039 Y-9.465 E5.62979
G1 X-24.912 Y-9.986 E5.65654
G1 X-24.71 Y-10.483 E5.68331
G1 X-24.435 Y-10.944 E5.71009
G1 X-24.033 Y-11.424 E5.74132
G1 X-23.921 Y-11.536 E5.74922
G1 X-23.514 Y-11.885 E5.77597
G1 X-23.06 Y-12.171 E5.80274
G1 X-22.569 Y-12.386 E5.82948
G1 X-22.051 Y-12.526 E5.85625
G1 X-21.497 Y-12.588 E5.88407
G1 X-20.862 Y-12.6 E5.91575
G1 X-3.815 Y-12.6 E6.76623
G1 X-1.034 Y-12.639 E6.90499
G0 F3600 X-1.012 Y-12.24
G1 F900 X1.705 Y-12.355 E7.04066
G1 X4.43 Y-12.548 E7.17695
G1 X6.408 Y-12.735 E7.27608
G1 X8.877 Y-12.995 E7.39994
G1 X10.685 Y-13.151 E7.49047
G1 X11.415 Y-13.178 E7.52692
G1 X11.635 Y-13.175 E7.53789
G1 X12.689 Y-13.123 E7.59054
G1 X13.468 Y-13.037 E7.62964
G1 X14.285 Y-12.878 E7.67117
G1 X14.874 Y-12.744 E7.7013
G1 X15.457 Y-12.578 E7.73155
G1 X15.986 Y-12.391 E7.75954
G1 X16.613 Y-12.153 E7.793
G1 X16.922 Y-12.016 E7.80986
G1 X17.764 Y-11.589 E7.85696
G1 X17.865 Y-11.536 E7.86265
G1 X18.379 Y-11.252 E7.89195
G1 X18.681 Y-11.062 E7.90975
G1 X19.291 Y-10.628 E7.9471
G1 X19.812 Y-10.237 E7.9796
G1 X20.078 Y-10.014 E7.99692
G1 X20.658 Y-9.471 E8.03655
G1 X21.194 Y-8.936 E8.07434
G1 X21.49 Y-8.603 E8.09656
G1 X21.894 Y-8.098 E8.12883
G1 X22.33 Y-7.521 E8.16491
G1 X22.833 Y-6.724 E8.21193
G1 X23.269 Y-5.954 E8.25608
G1 X23.435 Y-5.614 E8.27495
G1 X23.737 Y-4.89 E8.31409
G1 X23.993 Y-4.226 E8.34959
G1 X24.101 Y-3.892 E8.36711
G1 X24.293 Y-3.161 E8.40481
G1 X24.453 Y-2.474 E8.44
G1 X24.539 Y-1.953 E8.46635
G1 X24.607 Y-1.358 E8.49623
G1 X24.673 Y-.655 E8.53145
G1 X24.686 Y-.285 E8.54992
G1 X24.666 Y0.574 E8.59279
G1 X24.635 Y1.198 E8.62396
G1 X24.582 Y1.671 E8.64771
G1 X24.475 Y2.322 E8.68062
G1 X24.343 Y3.011 E8.71562
G1 X24.258 Y3.353 E8.7332
G1 X24.034 Y4.074 E8.77087
G1 X23.816 Y4.715 E8.80465
G1 X23.687 Y5.036 E8.82191
G1 X23.275 Y5.917 E8.87043
G1 X23.025 Y6.413 E8.89814
G1 X22.814 Y6.778 E8.91917
G1 X22.419 Y7.378 E8.95501
G1 X21.995 Y7.988 E8.99208
G1 X21.77 Y8.275 E9.01027
G1 X21.27 Y8.842 E9.04799
G1 X20.769 Y9.379 E9.08463
G1 X20.522 Y9.616 E9.1017
G1 X20.035 Y10.036 E9.13379
G1 X19.421 Y10.542 E9.17348
G1 X19.118 Y10.764 E9.19222
G1 X18.432 Y11.204 E9.23288
G1 X17.838 Y11.562 E9.26748
G1 X17.494 Y11.744 E9.2869
G1 X16.802 Y12.061 E9.32487
G1 X16.325 Y12.262 E9.3507
G1 X15.728 Y12.487 E9.38253
G1 X15.139 Y12.664 E9.41321
G1 X14.4 Y12.863 E9.45139
G1 X13.966 Y12.952 E9.4735
G1 X13.345 Y13.045 E9.50482
G1 X12.597 Y13.139 E9.54243
G1 X12.065 Y13.178 E9.56905
G1 X11.785 Y13.183 E9.58302
G1 X10.855 Y13.17 E9.62942
G1 X10.461 Y13.147 E9.64911
G1 X9.289 Y13.023 E9.70791
G1 X7.525 Y12.853 E9.79632
G1 X6.42 Y12.737 E9.85175
G1 X3.647 Y12.484 E9.99067
G1 X0.905 Y12.313 E10.12774
G1 X-1.815 Y12.22 E10.26352
G1 X-3.792 Y12.2 E10.36216
G1 X-20.719 Y12.2 E11.20665
G1 X-21.42 Y12.19 E11.24163
G1 X-21.923 Y12.143 E11.26683
G1 X-22.413 Y12.017 E11.29207
G1 X-22.876 Y11.815 E11.31727
G1 X-23.303 Y11.543 E11.34253
G1 X-23.74 Y11.151 E11.37182
G1 X-24.07 Y10.768 E11.39704
G1 X-24.335 Y10.337 E11.42228
G1 X-24.529 Y9.871 E11.44747
G1 X-24.648 Y9.379 E11.47272
G1 X-24.69 Y8.838 E11.49979
G1 X-24.697 Y8.313 E11.52599
G1 X-24.697 Y-8.243 E12.35197
G1 X-24.687 Y-8.925 E12.386
G1 X-24.639 Y-9.428 E12.41121
G1 X-24.513 Y-9.918 E12.43645
G1 X-24.312 Y-10.382 E12.46168
G1 X-24.04 Y-10.808 E12.48689
G1 X-23.638 Y-11.253 E12.51681
G1 X-23.253 Y-11.581 E12.54204
G1 X-22.822 Y-11.844 E12.56723
G1 X-22.354 Y-12.037 E12.59249
G1 X-21.862 Y-12.153 E12.61771
G1 X-21.335 Y-12.193 E12.64408
G1 X-20.857 Y-12.2 E12.66793
G1 X-3.809 Y-12.2 E13.51846
G1 X-1.012 Y-12.24 E13.65801
G0 F3600 X1.502 Y-8.8
;TYPE:SUPPORT
G1 F900 X10.068 Y-9.702 E14.08773
G1 X11.48 Y-9.799 E14.15835
G1 X11.507 Y-9.799 E14.15969
G1 X12.889 Y-9.702 E14.22881
G1 X14.175 Y-9.427 E14.29442
G1 X14.23 Y-9.412 E14.29726
G1 X15.463 Y-8.962 E14.36275
G1 X16.713 Y-8.299 E14.43334
G1 X17.803 Y-7.506 E14.50059
G1 X18.784 Y-6.554 E14.56879
G1 X19.627 Y-5.477 E14.63702
G1 X20.311 Y-4.295 E14.70515
G1 X20.825 Y-3.02 E14.77374
G1 X21.149 Y-1.711 E14.84102
G1 X21.297 Y-.346 E14.90952
G1 X21.248 Y1.037 E14.97856
G1 X21.016 Y2.361 E15.04562
G1 X20.602 Y3.635 E15.11245
G1 X20.589 Y3.668 E15.11422
G1 X19.989 Y4.901 E15.18263
G1 X19.221 Y6.04 E15.25117
G1 X18.315 Y7.042 E15.31856
G1 X17.267 Y7.922 E15.38683
G1 X16.095 Y8.654 E15.45577
G1 X14.85 Y9.209 E15.52378
G1 X14.824 Y9.218 E15.52515
G1 X13.539 Y9.585 E15.59182
G1 X12.191 Y9.774 E15.65973
G1 X11.494 Y9.799 E15.69453
G1 X10.807 Y9.775 E15.72882
G1 X9.144 Y9.537 E15.81264
G1 X8.755 Y9.564 E15.83209
G1 X1.5 Y8.8 E16.19605
G1 X-21.297 Y8.8 E17.33339
G1 X-21.297 Y-8.8 E18.21146
G1 X1.502 Y-8.8 E19.34891
G0 F3600 X8.984 Y-2.249
G1 F900 X8.66 Y-1.815 E19.37593
G1 X8.391 Y-1.304 E19.40474
G1 X8.21 Y-.742 E19.4342
G1 X8.136 Y-.2 E19.46149
G1 X8.15 Y0.382 E19.49053
G1 X8.265 Y0.952 E19.51954
G1 X8.472 Y1.487 E19.54816
G1 X8.757 Y1.963 E19.57584
G1 X9.139 Y2.409 E19.60514
G1 X9.567 Y2.763 E19.63285
G1 X10.074 Y3.057 E19.66209
G1 X10.622 Y3.257 E19.69119
G1 X10.735 Y3.284 E19.69699
G1 X11.432 Y3.375 E19.73206
G1 X11.574 Y3.375 E19.73914
G1 X12.277 Y3.284 E19.77451
G1 X12.847 Y3.095 E19.80447
G1 X13.343 Y2.828 E19.83257
G1 X13.8 Y2.471 E19.8615
G1 X14.194 Y2.039 E19.89067
G1 X14.503 Y1.549 E19.91957
G1 X14.717 Y1.035 E19.94735
G1 X14.845 Y0.468 E19.97635
G1 X14.876 Y-.107 E20.00508
G1 X14.813 Y-.653 E20.0325
G1 X14.795 Y-.744 E20.03713
G1 X14.65 Y-1.223 E20.06209
G1 X14.397 Y-1.737 E20.09068
G1 X14.06 Y-2.204 E20.11941
G1 X13.666 Y-2.589 E20.14689
G1 X13.199 Y-2.916 E20.17533
G1 X13.12 Y-2.963 E20.17992
G1 X12.653 Y-3.176 E20.20553
G1 X12.122 Y-3.318 E20.23295
G1 X11.551 Y-3.375 E20.26158
G1 X10.974 Y-3.333 E20.29044
G1 X10.426 Y-3.197 E20.31861
G1 X9.888 Y-2.966 E20.34782
G1 X9.411 Y-2.649 E20.37639
G1 X8.984 Y-2.249 E20.40558
G0 F3600 X-8.442 Y-5.017
G1 F900 X-9.356 Y-5.636 E20.46066
G1 X-10.346 Y-6.084 E20.51487
G1 X-11.394 Y-6.353 E20.56885
G1 X-12.497 Y-6.446 E20.62407
G1 X-13.604 Y-6.353 E20.6795
G1 X-14.643 Y-6.086 E20.73302
G1 X-15.643 Y-5.632 E20.78781
G1 X-16.554 Y-5.018 E20.84262
G1 X-17.333 Y-4.27 E20.8965
G1 X-17.996 Y-3.37 E20.95227
G1 X-18.484 Y-2.405 E21.00622
G1 X-18.808 Y-1.337 E21.0619
G1 X-18.946 Y-.288 E21.11468
G1 X-18.897 Y0.808 E21.16942
G1 X-18.669 Y1.874 E21.2238
G1 X-18.249 Y2.92 E21.28004
G1 X-17.685 Y3.827 E21.33332
G1 X-16.963 Y4.654 E21.3881
G1 X-16.103 Y5.35 E21.44329
G1 X-15.165 Y5.873 E21.49687
G1 X-14.099 Y6.25 E21.55328
G1 X-13.111 Y6.421 E21.60331
G1 X-12.481 Y6.45 E21.63477
G1 X-11.914 Y6.424 E21.66309
G1 X-10.875 Y6.243 E21.7157
G1 X-9.84 Y5.882 E21.77039
G1 X-8.892 Y5.352 E21.82458
G1 X-8.027 Y4.647 E21.88025
G1 X-7.31 Y3.834 E21.93433
G1 X-6.748 Y2.925 E21.98765
G1 X-6.322 Y1.862 E22.04478
G1 X-6.099 Y0.808 E22.09853
G1 X-6.05 Y-.277 E22.15272
G1 X-6.187 Y-1.336 E22.20599
G1 X-6.513 Y-2.41 E22.26199
G1 X-6.997 Y-3.365 E22.3154
G1 X-7.663 Y-4.272 E22.37154
G1 X-8.442 Y-5.017 E22.42532
G0 F3600 X-8.627 Y-5.334
G1 F900 X19.525 Y-5.333 E23.82983
G0 F3600 X18.669 Y-6.441
G1 F900 X18.669 Y6.413 E24.47111
G0 F3600 X19.503 Y5.334
G1 F900 X-8.616 Y5.333 E25.87398
G0 F3600 X-8.001 Y4.833
G1 F900 X-8.001 Y8.64 E26.06391
G0 F3600 X-10.668 Y8.64
G1 F900 X-10.668 Y6.339 E26.17871
G0 F3600 X-13.335 Y6.545
G1 F900 X-13.335 Y8.64 E26.28323
G0 F3600 X-16.002 Y8.64
G1 F900 X-16.002 Y5.589 E26.43544
G0 F3600 X-16.376 Y5.333
G1 F900 X-21.137 Y5.333 E26.67297
G0 F3600 X-21.137 Y2.666
G1 F900 X-18.522 Y2.666 E26.80343
G0 F3600 X-18.669 Y2.304
G1 F900 X-18.669 Y8.64 E27.11954
G0 F3600 X-21.137 Y8
G1 F900 X16.836 Y8.001 E29.01402
G0 F3600 X16.002 Y8.521
G1 F900 X16.002 Y-8.494 E29.8629
G0 F3600 X16.851 Y-8
G1 F900 X-21.137 Y-8.001 E31.75813
G0 F3600 X-18.669 Y-8.64
G1 F900 X-18.669 Y-2.346 E32.07214
G0 F3600 X-18.53 Y-2.667
G1 F900 X-21.137 Y-2.667 E32.2022
G0 F3600 X-21.137 Y-5.334
G1 F900 X-16.371 Y-5.334 E32.43998
G0 F3600 X-16.002 Y-5.583
G1 F900 X-16.002 Y-8.64 E32.59249
G0 F3600 X-13.335 Y-8.64
G1 F900 X-13.335 Y-6.535 E32.69751
G0 F3600 X-10.668 Y-6.332
G1 F900 X-10.668 Y-8.64 E32.81266
G0 F3600 X-8.001 Y-8.64
G1 F900 X-8.001 Y-4.816 E33.00344
G0 F3600 X-6.465 Y-2.667
G1 F900 X9.195 Y-2.666 E33.78472
G0 F3600 X10.668 Y-3.421
G1 F900 X10.668 Y-9.583 E34.09214
G0 F3600 X13.335 Y-9.442
G1 F900 X13.335 Y-3.016 E34.41274
G0 F3600 X13.814 Y-2.666
G1 F900 X20.748 Y-2.666 E34.75867
G0 F3600 X21.124 Y0.00
G1 F900 X15.032 Y0.00 E35.06261
G0 F3600 X13.807 Y2.667
G1 F900 X20.747 Y2.667 E35.40884
G0 F3600 X13.335 Y3.014
G1 F900 X13.335 Y9.453 E35.73009
G0 F3600 X10.668 Y9.593
G1 F900 X10.668 Y3.433 E36.03741
G0 F3600 X9.202 Y2.667
G1 F900 X-6.472 Y2.666 E36.81939
G0 F3600 X-5.901 Y0.00
G1 F900 X7.981 Y0.00 E37.51196
G0 F3600 X8.001 Y-.39
G1 F900 X8.001 Y-9.324 E37.95768
G0 F3600 X5.334 Y-9.043
G1 F900 X5.334 Y9.042 E38.85995
G0 F3600 X2.667 Y8.762
G1 F900 X2.667 Y-8.762 E39.73422
G0 F3600 X0.00 Y-8.64
G1 F900 X0.00 Y8.64 E40.59633
G0 F3600 X-2.667 Y8.64
G1 F900 X-2.667 Y-8.64 E41.45843
G0 F3600 X-5.334 Y-8.64
G1 F900 X-5.334 Y8.64 E42.32053
G0 F3600 X8.001 Y9.323
G1 F900 X8.001 Y0.456 E42.76291
G0 F3600 X-19.093 Y0.00
G1 F900 X-21.137 Y0.00 E42.86488
G0 F3600 X10.917 Y-0.024
G1 F900 X10.96 Y-.219 E42.87485
G1 X11.092 Y-.429 E42.88722
G1 X11.311 Y-.551 E42.89973
G1 X11.553 Y-.593 E42.91198
G1 X11.788 Y-.51 E42.92442
G1 X11.943 Y-.385 E42.93435
G1 X12.046 Y-.217 E42.94418
G1 X12.088 Y-0.023 E42.95408
G1 X12.063 Y0.168 E42.9637
G1 X11.974 Y0.347 E42.97367
G1 X11.827 Y0.487 E42.9838
G1 X11.519 Y0.591 E43.00001
G1 X11.372 Y0.574 E43.0074
G1 X11.178 Y0.485 E43.01805
G1 X11.032 Y0.346 E43.0281
G1 X10.943 Y0.168 E43.03803
G1 X10.917 Y-0.024 E43.0477
G1 X11.081 Y0.00
G1 X11.924 Y0.00 E43.08976
G1 F2400 E38.08976
;MESH:Base.STL
G0 F3600 X10.09 Y0.922
G0 X9.347 Y0.282
G1 F2400 E43.11636
G0 F3600 X9.247 Y0.293
;TYPE:WALL-OUTER
G1 F900 X9.231 Y-0.099 E43.13594
G1 X9.28 Y-.477 E43.15495
G1 X9.392 Y-.846 E43.17419
G1 X9.568 Y-1.193 E43.1936
G1 X9.796 Y-1.503 E43.2128
G1 X10.074 Y-1.769 E43.232
G1 X10.397 Y-1.988 E43.25147
G1 X10.742 Y-2.143 E43.27034
G1 X11.122 Y-2.242 E43.28993
G1 X11.503 Y-2.275 E43.30901
G1 X11.884 Y-2.242 E43.32809
G1 X12.263 Y-2.144 E43.34762
G1 X12.611 Y-1.986 E43.36668
G1 X12.932 Y-1.769 E43.38601
G1 X13.21 Y-1.503 E43.40521
G1 X13.439 Y-1.193 E43.42444
G1 X13.615 Y-.844 E43.44394
G1 X13.726 Y-.479 E43.46297
G1 X13.775 Y-0.099 E43.48209
G1 X13.759 Y0.287 E43.50136
G1 X13.677 Y0.671 E43.52095
G1 X13.535 Y1.023 E43.53989
G1 X13.332 Y1.353 E43.55922
G1 X13.08 Y1.639 E43.57823
G1 X12.774 Y1.886 E43.59785
G1 X12.443 Y2.071 E43.61677
G1 X12.073 Y2.201 E43.63634
G1 X11.503 Y2.275 E43.66501
G1 X10.933 Y2.201 E43.69369
G1 X10.564 Y2.071 E43.71321
G1 X10.232 Y1.886 E43.73217
G1 X9.926 Y1.639 E43.75179
G1 X9.674 Y1.353 E43.77081
G1 X9.473 Y1.026 E43.78996
G1 X9.328 Y0.662 E43.8095
G1 X9.247 Y0.293 E43.82835
G0 F3600 X9.239 Y0.093
G0 X9.877 Y0.498
G1 F900 X10.135 Y1.011 E43.857
G1 X10.551 Y1.409 E43.88572
G1 X11.074 Y1.646 E43.91437
G1 X11.516 Y1.7 E43.93658
G1 X11.932 Y1.646 E43.95751
G1 X12.455 Y1.409 E43.98616
G1 X12.871 Y1.011 E44.01488
G1 X13.129 Y0.498 E44.04353
G1 X13.203 Y-0.073 E44.07226
G1 X13.081 Y-.634 E44.1009
G1 X12.78 Y-1.124 E44.12959
G1 X12.333 Y-1.485 E44.15825
G1 X11.791 Y-1.676 E44.18693
G1 X11.503 Y-1.701 E44.20135
G1 X10.936 Y-1.603 E44.23005
G1 X10.435 Y-1.323 E44.25869
G1 X10.226 Y-1.124 E44.27309
G1 X9.925 Y-.634 E44.30178
G1 X9.803 Y-0.073 E44.33042
G1 X9.877 Y0.498 E44.35914
G0 F3600 X9.966 Y0.676
G0 X9.621 Y0.57
;TYPE:SKIN
G1 F900 X9.545 Y0.211 E44.36892
G1 X9.613 Y-.567 E44.38972
G1 X10.005 Y-1.307 E44.41203
G1 X10.658 Y-1.786 E44.4336
G1 X11.322 Y-1.969 E44.45195
G1 X11.941 Y-1.916 E44.4685
G1 X12.948 Y-1.476 E44.49777
G1 X13.421 Y-.436 E44.52821
G1 X13.429 Y0.418 E44.55096
G1 X13.082 Y1.203 E44.57382
G1 X12.468 Y1.72 E44.5952
G1 X11.843 Y1.943 E44.61288
G1 X11.294 Y1.96 E44.62751
G1 X10.925 Y1.874 E44.6376
G1 X10.138 Y1.37 E44.6625
G0 F3600 X9.611 Y0.858
G1 F2400 E39.6625
;MESH:NONMESH
G0 F600 X9.611 Y0.858 Z0.5
G0 F3600 X9.41 Y-.839
G0 X8.621 Y-1.238
G0 X2.667 Y-5.845
;TIME_ELAPSED:66.265468
;LAYER:1
M106 S204
;TYPE:SUPPORT
G1 F2400 E44.6891
G1 F1350 X2.699 Y-5.901 E44.69125
G1 X2.731 Y-5.947 E44.69311
G1 X3.609 Y-7.072 E44.74058
G1 X3.646 Y-7.113 E44.74241
G1 X4.67 Y-8.103 E44.78979
G1 X4.714 Y-8.138 E44.79166
G1 X5.334 Y-8.589 E44.81716
G1 X5.334 Y-9.203 E44.83758
G1 X6.523 Y-9.328 E44.87734
G1 X5.918 Y-9.007 E44.90012
G1 X5.87 Y-8.979 E44.90197
G1 X5.334 Y-8.589 E44.92402
G0 F5400 X2.667 Y-5.845
G1 F1350 X1.985 Y-4.666 E44.96932
G1 X1.961 Y-4.615 E44.97119
G1 X1.43 Y-3.3 E45.01836
G1 X1.413 Y-3.247 E45.02021
G1 X1.067 Y-1.86 E45.06776
G1 X1.059 Y-1.805 E45.06961
G1 X0.909 Y-.388 E45.117
G1 X0.909 Y-.331 E45.1189
G1 X0.96 Y1.091 E45.16622
G1 X0.967 Y1.146 E45.16807
G1 X1.214 Y2.556 E45.21568
G1 X1.232 Y2.61 E45.21757
G1 X1.662 Y3.937 E45.26397
G1 X1.682 Y3.989 E45.26582
