;FLAVOR:Marlin
;TIME:560
;Filament used: 0.480788m
;Layer height: 0.2
;MINX:-13.986
;MINY:-13.988
;MINZ:0.3
;MAXX:13.986
;MAXY:13.986
;MAXZ:8.1
;Generated with Cura_SteamEngine 4.13.1
M140 S60
M105
M190 S60
M104 S205
M105
M109 S205
M82 ;absolute extrusion mode
G28 ;Home
G1 Z15.0 F6000 ;Move the platform down 15mm
;Prime the extruder
G92 E0
G1 F200 E3
G92 E0
G92 E0
G92 E0
G1 F2400 E-5
;LAYER_COUNT:40
;LAYER:0
M107
G0 F1800 X11.292 Y-8.239 Z0.3
;TYPE:SKIRT
G1 F2400 E0.02661
G1 F900 X11.445 Y-8.028 E0.03961
G1 X11.762 Y-7.559 E0.06785
G1 X12.036 Y-7.127 E0.09338
G1 X12.325 Y-6.614 E0.12275
G1 X12.417 Y-6.437 E0.1327
G1 X12.715 Y-5.83 E0.16644
G1 X12.945 Y-5.299 E0.19531
G1 X13.01 Y-5.132 E0.20425
G1 X13.249 Y-4.484 E0.23871
G1 X13.478 Y-3.734 E0.27783
G1 X13.506 Y-3.629 E0.28325
G1 X13.654 Y-3.034 E0.31384
G1 X13.755 Y-2.537 E0.33914
G1 X13.795 Y-2.296 E0.35133
G1 X13.893 Y-1.621 E0.38536
G1 X13.945 Y-1.097 E0.41163
G1 X13.962 Y-.799 E0.42652
G1 X13.986 Y-.135 E0.45967
G1 X13.982 Y0.385 E0.48561
G1 X13.972 Y0.632 E0.49795
G1 X13.932 Y1.261 E0.52939
G1 X13.899 Y1.581 E0.54544
G1 X13.793 Y2.301 E0.58175
G1 X13.668 Y2.981 E0.61624
G1 X13.543 Y3.495 E0.64263
G1 X13.403 Y4.001 E0.66883
G1 X13.273 Y4.413 E0.69038
G1 X13.069 Y4.972 E0.72007
G1 X12.844 Y5.538 E0.75046
G1 X12.634 Y6.004 E0.77596
G1 X12.477 Y6.317 E0.79343
G1 X12.19 Y6.86 E0.82407
G1 X11.892 Y7.365 E0.85332
G1 X11.55 Y7.883 E0.88429
G1 X11.194 Y8.384 E0.91495
G1 X10.922 Y8.736 E0.93715
G1 X10.476 Y9.268 E0.97178
G1 X10.041 Y9.736 E1.00366
G1 X9.93 Y9.848 E1.01152
G1 X9.469 Y10.295 E1.04356
G1 X9.009 Y10.695 E1.07397
G1 X8.239 Y11.292 E1.12258
G1 X8.028 Y11.445 E1.13559
G1 X7.559 Y11.762 E1.16383
G1 X7.135 Y12.031 E1.18888
G1 X6.614 Y12.325 E1.21872
G1 X6.432 Y12.419 E1.22894
G1 X5.819 Y12.719 E1.26299
G1 X5.288 Y12.949 E1.29186
G1 X5.116 Y13.016 E1.30107
G1 X4.484 Y13.249 E1.33468
G1 X3.734 Y13.478 E1.3738
G1 X3.038 Y13.654 E1.40962
G1 X2.522 Y13.758 E1.43588
G1 X2.263 Y13.8 E1.44897
G1 X1.602 Y13.895 E1.48228
G1 X1.081 Y13.946 E1.5084
G1 X0.789 Y13.962 E1.52299
G1 X0.138 Y13.986 E1.55549
G1 X-.391 Y13.982 E1.58188
G1 X-.677 Y13.969 E1.59617
G1 X-1.294 Y13.928 E1.62702
G1 X-1.884 Y13.86 E1.65665
G1 X-2.072 Y13.831 E1.66614
G1 X-2.775 Y13.71 E1.70173
G1 X-3.417 Y13.563 E1.73459
G1 X-3.561 Y13.525 E1.74202
G1 X-4.181 Y13.349 E1.77417
G1 X-4.805 Y13.135 E1.80708
G1 X-4.944 Y13.082 E1.8145
G1 X-5.552 Y12.838 E1.84719
G1 X-6.215 Y12.529 E1.88368
G1 X-6.871 Y12.183 E1.92068
G1 X-7.359 Y11.895 E1.94895
G1 X-7.883 Y11.55 E1.98025
G1 X-8.384 Y11.194 E2.01091
G1 X-8.733 Y10.924 E2.03293
G1 X-9.265 Y10.479 E2.06753
G1 X-9.652 Y10.122 E2.0938
G1 X-9.844 Y9.932 E2.10728
G1 X-10.298 Y9.465 E2.13977
G1 X-10.696 Y9.008 E2.17
G1 X-11.293 Y8.238 E2.21861
G1 X-11.446 Y8.027 E2.23162
G1 X-11.767 Y7.552 E2.26022
G1 X-12.041 Y7.118 E2.28582
G1 X-12.316 Y6.631 E2.31373
G1 X-12.419 Y6.432 E2.32491
G1 X-12.72 Y5.817 E2.35907
G1 X-12.949 Y5.288 E2.38783
G1 X-13.014 Y5.12 E2.39681
G1 X-13.252 Y4.477 E2.43102
G1 X-13.476 Y3.742 E2.46935
G1 X-13.505 Y3.633 E2.47498
G1 X-13.654 Y3.037 E2.50563
G1 X-13.757 Y2.526 E2.53164
G1 X-13.8 Y2.264 E2.54488
G1 X-13.895 Y1.603 E2.5782
G1 X-13.946 Y1.081 E2.60437
G1 X-13.962 Y0.789 E2.61896
G1 X-13.986 Y0.138 E2.65146
G1 X-13.982 Y-.402 E2.6784
G1 X-13.97 Y-.668 E2.69168
G1 X-13.932 Y-1.262 E2.72138
G1 X-13.898 Y-1.583 E2.73748
G1 X-13.792 Y-2.302 E2.77374
G1 X-13.667 Y-2.985 E2.80838
G1 X-13.538 Y-3.515 E2.8356
G1 X-13.402 Y-4.005 E2.86097
G1 X-13.27 Y-4.42 E2.88269
G1 X-13.028 Y-5.079 E2.91772
G1 X-12.756 Y-5.744 E2.95356
G1 X-12.529 Y-6.215 E2.97965
G1 X-12.478 Y-6.316 E2.98529
G1 X-12.19 Y-6.861 E3.01604
G1 X-11.896 Y-7.359 E3.0449
G1 X-11.543 Y-7.892 E3.07679
G1 X-11.196 Y-8.381 E3.10671
G1 X-10.923 Y-8.735 E3.12901
G1 X-10.476 Y-9.269 E3.16375
G1 X-10.126 Y-9.65 E3.18956
G1 X-9.917 Y-9.86 E3.20434
G1 X-9.464 Y-10.3 E3.23585
G1 X-9.009 Y-10.695 E3.26591
G1 X-8.239 Y-11.292 E3.31452
G1 X-8.028 Y-11.445 E3.32752
G1 X-7.559 Y-11.762 E3.35577
G1 X-7.123 Y-12.038 E3.38151
G1 X-6.614 Y-12.325 E3.41066
G1 X-6.435 Y-12.418 E3.42073
G1 X-5.821 Y-12.719 E3.45484
G1 X-5.288 Y-12.949 E3.4838
G1 X-5.116 Y-13.016 E3.49301
G1 X-4.484 Y-13.249 E3.52662
G1 X-3.734 Y-13.478 E3.56574
G1 X-3.038 Y-13.654 E3.60156
G1 X-2.514 Y-13.76 E3.62823
G1 X-2.263 Y-13.8 E3.64091
G1 X-1.602 Y-13.895 E3.67423
G1 X-1.081 Y-13.946 E3.70034
G1 X-.789 Y-13.962 E3.71493
G1 X-.138 Y-13.986 E3.74743
G1 X0.078 Y-13.988 E3.75821
G1 X0.67 Y-13.97 E3.78776
G1 X1.263 Y-13.932 E3.8174
G1 X1.583 Y-13.898 E3.83346
G1 X2.311 Y-13.791 E3.87017
G1 X2.956 Y-13.672 E3.90289
G1 X3.452 Y-13.555 E3.92832
G1 X4.005 Y-13.402 E3.95694
G1 X4.42 Y-13.27 E3.97867
G1 X5.087 Y-13.025 E4.01412
G1 X5.731 Y-12.761 E4.04884
G1 X6.222 Y-12.526 E4.076
G1 X6.864 Y-12.187 E4.11222
G1 X7.365 Y-11.892 E4.14123
G1 X7.88 Y-11.552 E4.17201
G1 X8.383 Y-11.194 E4.20282
G1 X8.733 Y-10.925 E4.22484
G1 X9.266 Y-10.479 E4.25951
G1 X9.752 Y-10.024 E4.29273
G1 X9.844 Y-9.932 E4.29922
G1 X10.298 Y-9.465 E4.33171
G1 X10.695 Y-9.009 E4.36188
G1 X11.292 Y-8.239 E4.41049
G0 F1800 X10.976 Y-7.994
G1 F900 X11.114 Y-7.804 E4.4222
G1 X11.431 Y-7.335 E4.45044
G1 X11.793 Y-6.751 E4.48472
G1 X12.058 Y-6.261 E4.51251
G1 X12.356 Y-5.654 E4.54625
G1 X12.573 Y-5.152 E4.57353
G1 X12.635 Y-4.994 E4.582
G1 X12.874 Y-4.346 E4.61646
G1 X13.093 Y-3.627 E4.65396
G1 X13.266 Y-2.937 E4.68945
G1 X13.385 Y-2.329 E4.72036
G1 X13.4 Y-2.238 E4.72496
G1 X13.498 Y-1.563 E4.75899
G1 X13.558 Y-.883 E4.79304
G1 X13.587 Y-.121 E4.83109
G1 X13.578 Y0.508 E4.86247
G1 X13.533 Y1.235 E4.89881
G1 X13.503 Y1.523 E4.91326
G1 X13.399 Y2.233 E4.94906
G1 X13.278 Y2.888 E4.98229
G1 X13.157 Y3.389 E5.008
G1 X13.02 Y3.886 E5.03372
G1 X12.897 Y4.276 E5.05412
G1 X12.654 Y4.937 E5.08926
G1 X12.395 Y5.569 E5.12334
G1 X12.17 Y6.04 E5.14938
G1 X11.837 Y6.673 E5.18506
G1 X11.555 Y7.149 E5.21266
G1 X11.217 Y7.661 E5.24327
G1 X10.868 Y8.151 E5.27328
G1 X10.616 Y8.479 E5.29392
G1 X10.17 Y9.011 E5.32856
G1 X9.752 Y9.46 E5.35916
G1 X9.652 Y9.561 E5.36625
G1 X9.191 Y10.008 E5.39829
G1 X8.764 Y10.379 E5.42651
G1 X7.994 Y10.976 E5.47512
G1 X7.804 Y11.114 E5.48683
G1 X7.335 Y11.431 E5.51508
G1 X6.765 Y11.785 E5.54855
G1 X6.256 Y12.06 E5.57741
G1 X5.643 Y12.36 E5.61146
G1 X5.142 Y12.577 E5.6387
G1 X4.977 Y12.641 E5.64753
G1 X4.345 Y12.874 E5.68114
G1 X3.627 Y13.093 E5.71859
G1 X2.941 Y13.266 E5.75388
G1 X2.289 Y13.391 E5.787
G1 X1.545 Y13.499 E5.82451
G1 X0.855 Y13.559 E5.85907
G1 X0.124 Y13.587 E5.89556
G1 X-.553 Y13.575 E5.92934
G1 X-1.268 Y13.529 E5.96509
G1 X-1.824 Y13.465 E5.99301
G1 X-2.004 Y13.437 E6.0021
G1 X-2.707 Y13.316 E6.03769
G1 X-3.322 Y13.174 E6.06918
G1 X-3.452 Y13.14 E6.07588
G1 X-4.072 Y12.964 E6.10803
G1 X-4.67 Y12.758 E6.13959
G1 X-4.795 Y12.711 E6.14625
G1 X-5.403 Y12.467 E6.17894
G1 X-6.038 Y12.17 E6.21391
G1 X-6.133 Y12.122 E6.21922
G1 X-6.684 Y11.83 E6.25033
G1 X-7.145 Y11.557 E6.27706
G1 X-7.661 Y11.217 E6.30789
G1 X-8.151 Y10.868 E6.3379
G1 X-8.477 Y10.617 E6.35843
G1 X-9.009 Y10.172 E6.39303
G1 X-9.502 Y9.709 E6.42678
G1 X-10.011 Y9.186 E6.46319
G1 X-10.38 Y8.763 E6.49119
G1 X-10.977 Y7.993 E6.5398
G1 X-11.115 Y7.803 E6.55152
G1 X-11.436 Y7.328 E6.58012
G1 X-11.796 Y6.746 E6.61426
G1 X-12.059 Y6.257 E6.64196
G1 X-12.36 Y5.642 E6.67612
G1 X-12.577 Y5.142 E6.70331
G1 X-12.639 Y4.982 E6.71187
G1 X-12.877 Y4.339 E6.74608
G1 X-13.091 Y3.634 E6.78284
G1 X-13.266 Y2.94 E6.81855
G1 X-13.391 Y2.294 E6.85137
G1 X-13.499 Y1.546 E6.88908
G1 X-13.559 Y0.855 E6.92368
G1 X-13.587 Y0.124 E6.96018
G1 X-13.582 Y-.386 E6.98562
G1 X-13.571 Y-.643 E6.99846
G1 X-13.533 Y-1.237 E7.02815
G1 X-13.502 Y-1.526 E7.04265
G1 X-13.398 Y-2.234 E7.07835
G1 X-13.278 Y-2.892 E7.11172
G1 X-13.152 Y-3.41 E7.13832
G1 X-12.96 Y-4.086 E7.17338
G1 X-12.894 Y-4.283 E7.18374
G1 X-12.656 Y-4.932 E7.21823
G1 X-12.394 Y-5.574 E7.25283
G1 X-12.17 Y-6.038 E7.27853
G1 X-12.124 Y-6.129 E7.28362
G1 X-11.836 Y-6.674 E7.31437
G1 X-11.559 Y-7.143 E7.34155
G1 X-11.211 Y-7.669 E7.37301
G1 X-10.87 Y-8.148 E7.40235
G1 X-10.617 Y-8.478 E7.42309
G1 X-10.17 Y-9.012 E7.45784
G1 X-9.692 Y-9.52 E7.49264
G1 X-9.185 Y-10.013 E7.52792
G1 X-8.764 Y-10.379 E7.55575
G1 X-7.994 Y-10.976 E7.60436
G1 X-7.804 Y-11.114 E7.61607
G1 X-7.335 Y-11.431 E7.64431
G1 X-6.91 Y-11.7 E7.66941
G1 X-6.429 Y-11.971 E7.69695
G1 X-6.259 Y-12.058 E7.70648
G1 X-5.645 Y-12.359 E7.74059
G1 X-5.142 Y-12.577 E7.76795
G1 X-4.977 Y-12.641 E7.77677
G1 X-4.345 Y-12.874 E7.81038
G1 X-3.627 Y-13.093 E7.84783
G1 X-2.941 Y-13.266 E7.88313
G1 X-2.448 Y-13.365 E7.90821
G1 X-2.206 Y-13.404 E7.92044
G1 X-1.545 Y-13.499 E7.95376
G1 X-.855 Y-13.559 E7.98831
G1 X-.124 Y-13.587 E8.02481
G1 X0.071 Y-13.588 E8.03454
G1 X0.644 Y-13.571 E8.06314
G1 X1.237 Y-13.533 E8.09278
G1 X1.526 Y-13.502 E8.10728
G1 X2.242 Y-13.397 E8.14339
G1 X2.866 Y-13.283 E8.17503
G1 X3.801 Y-13.045 E8.22317
G1 X4.283 Y-12.894 E8.24837
G1 X4.938 Y-12.654 E8.28317
G1 X5.563 Y-12.398 E8.31687
G1 X6.045 Y-12.167 E8.34353
G1 X6.677 Y-11.834 E8.37917
G1 X7.149 Y-11.555 E8.40653
G1 X7.658 Y-11.219 E8.43696
G1 X8.151 Y-10.869 E8.46712
G1 X8.476 Y-10.618 E8.48761
G1 X9.009 Y-10.172 E8.52228
G1 X9.474 Y-9.736 E8.55408
G1 X10.011 Y-9.186 E8.59243
G1 X10.379 Y-8.764 E8.62036
G1 X10.976 Y-7.994 E8.66897
G0 F1800 X10.66 Y-7.749
G1 F900 X10.782 Y-7.58 E8.67937
G1 X11.16 Y-7.018 E8.71316
G1 X11.443 Y-6.557 E8.74015
G1 X11.699 Y-6.084 E8.76698
G1 X11.997 Y-5.477 E8.80072
G1 X12.201 Y-5.005 E8.82637
G1 X12.259 Y-4.855 E8.8344
G1 X12.498 Y-4.207 E8.86885
G1 X12.707 Y-3.519 E8.90473
G1 X12.877 Y-2.84 E8.93965
G1 X12.991 Y-2.262 E8.96904
G1 X13.102 Y-1.506 E9.00716
G1 X13.159 Y-.858 E9.03962
G1 X13.187 Y-.107 E9.07711
G1 X13.178 Y0.494 E9.1071
G1 X13.134 Y1.21 E9.14288
G1 X13.107 Y1.466 E9.15573
G1 X13.018 Y2.08 E9.18668
G1 X12.929 Y2.6 E9.213
G1 X12.798 Y3.179 E9.24262
G1 X12.659 Y3.697 E9.26937
G1 X12.521 Y4.139 E9.29248
G1 X12.283 Y4.788 E9.32696
G1 X12.033 Y5.401 E9.35999
G1 X11.811 Y5.863 E9.38556
G1 X11.483 Y6.486 E9.42069
G1 X11.218 Y6.933 E9.44662
G1 X10.884 Y7.439 E9.47686
G1 X10.543 Y7.918 E9.5062
G1 X10.309 Y8.222 E9.52534
G1 X9.863 Y8.754 E9.55997
G1 X9.462 Y9.184 E9.58931
G1 X9.374 Y9.273 E9.59555
G1 X8.913 Y9.72 E9.62759
G1 X8.519 Y10.063 E9.65365
G1 X7.749 Y10.66 E9.70226
G1 X7.58 Y10.782 E9.71266
G1 X7.018 Y11.16 E9.74645
G1 X6.57 Y11.436 E9.7727
G1 X6.081 Y11.7 E9.80042
G1 X5.468 Y12 E9.83447
G1 X4.996 Y12.205 E9.86014
G1 X4.839 Y12.265 E9.86853
G1 X4.207 Y12.498 E9.90213
G1 X3.519 Y12.707 E9.93801
G1 X3.442 Y12.728 E9.94199
G1 X2.844 Y12.878 E9.97275
G1 X2.223 Y12.997 E10.00429
G1 X1.488 Y13.103 E10.04134
G1 X0.832 Y13.159 E10.07419
G1 X0.109 Y13.187 E10.11029
G1 X-.538 Y13.176 E10.14257
G1 X-1.241 Y13.13 E10.17772
G1 X-1.765 Y13.069 E10.20404
G1 X-1.936 Y13.043 E10.21267
G1 X-2.639 Y12.922 E10.24826
G1 X-3.227 Y12.786 E10.27837
G1 X-3.343 Y12.755 E10.28436
G1 X-3.963 Y12.579 E10.31651
G1 X-4.535 Y12.382 E10.34669
G1 X-4.646 Y12.34 E10.35261
G1 X-5.254 Y12.096 E10.3853
G1 X-5.862 Y11.811 E10.4188
G1 X-6.496 Y11.476 E10.45457
G1 X-6.93 Y11.22 E10.47971
G1 X-7.439 Y10.884 E10.51014
G1 X-7.918 Y10.543 E10.53947
G1 X-8.22 Y10.311 E10.55847
G1 X-8.752 Y9.866 E10.59308
G1 X-9.221 Y9.424 E10.62523
G1 X-9.724 Y8.908 E10.66118
G1 X-10.064 Y8.518 E10.68699
G1 X-10.661 Y7.748 E10.7356
G1 X-10.783 Y7.579 E10.746
G1 X-11.104 Y7.104 E10.7746
G1 X-11.446 Y6.552 E10.807
G1 X-11.7 Y6.081 E10.8337
G1 X-12.001 Y5.466 E10.86786
G1 X-12.205 Y4.996 E10.89342
G1 X-12.264 Y4.843 E10.9016
G1 X-12.502 Y4.2 E10.93581
G1 X-12.705 Y3.526 E10.97092
G1 X-12.877 Y2.843 E11.00606
G1 X-12.996 Y2.227 E11.03736
G1 X-13.103 Y1.489 E11.07457
G1 X-13.159 Y0.832 E11.10746
G1 X-13.187 Y0.109 E11.14356
G1 X-13.175 Y-.542 E11.17605
G1 X-13.133 Y-1.211 E11.20949
G1 X-13.107 Y-1.468 E11.22238
G1 X-13.004 Y-2.166 E11.25758
G1 X-12.888 Y-2.799 E11.28968
G1 X-12.766 Y-3.304 E11.3156
G1 X-12.577 Y-3.97 E11.35014
G1 X-12.519 Y-4.146 E11.35939
G1 X-12.317 Y-4.699 E11.38876
G1 X-12.107 Y-5.229 E11.4172
G1 X-11.811 Y-5.862 E11.45206
G1 X-11.482 Y-6.487 E11.4873
G1 X-11.222 Y-6.928 E11.51284
G1 X-10.879 Y-7.446 E11.54384
G1 X-10.545 Y-7.916 E11.5726
G1 X-10.31 Y-8.221 E11.59181
G1 X-9.863 Y-8.755 E11.62655
G1 X-9.408 Y-9.239 E11.6597
G1 X-8.907 Y-9.726 E11.69455
G1 X-8.519 Y-10.063 E11.72019
G1 X-7.749 Y-10.66 E11.7688
G1 X-7.58 Y-10.782 E11.7792
G1 X-7.02 Y-11.159 E11.81288
G1 X-6.545 Y-11.451 E11.8407
G1 X-6.083 Y-11.699 E11.86686
G1 X-5.469 Y-12 E11.90097
G1 X-4.996 Y-12.205 E11.92669
G1 X-4.839 Y-12.265 E11.93508
G1 X-4.207 Y-12.498 E11.96868
G1 X-3.519 Y-12.707 E12.00456
G1 X-3.442 Y-12.728 E12.00854
G1 X-2.844 Y-12.878 E12.0393
G1 X-2.22 Y-12.997 E12.07099
G1 X-1.488 Y-13.103 E12.10789
G1 X-.832 Y-13.159 E12.14074
G1 X-.109 Y-13.187 E12.17684
G1 X0.064 Y-13.189 E12.18547
G1 X0.619 Y-13.171 E12.21317
G1 X1.212 Y-13.133 E12.24282
G1 X1.468 Y-13.107 E12.25565
G1 X2.174 Y-13.003 E12.29126
G1 X2.776 Y-12.893 E12.32179
G1 X3.695 Y-12.659 E12.3691
G1 X4.146 Y-12.519 E12.39266
G1 X4.699 Y-12.317 E12.42203
G1 X5.239 Y-12.102 E12.45103
G1 X5.867 Y-11.809 E12.4856
G1 X6.49 Y-11.48 E12.52075
G1 X6.933 Y-11.218 E12.54643
G1 X7.436 Y-10.886 E12.5765
G1 X7.918 Y-10.544 E12.60598
G1 X8.22 Y-10.311 E12.62501
G1 X8.753 Y-9.865 E12.65969
G1 X9.197 Y-9.448 E12.69007
G1 X9.724 Y-8.908 E12.72772
G1 X10.063 Y-8.519 E12.75346
G1 X10.66 Y-7.749 E12.80207
G1 F2400 E7.80207
;MESH:Head.STL
G0 F1800 X8.619 Y-6.279
G0 X7.582 Y-5.523
G0 X-.804 Y-5.078
G0 X-1.589 Y-4.891
G0 X-2.335 Y-4.581
G0 X-9.249 Y0.967
G1 F2400 E12.82868
G0 F1800 X-9.746 Y1.023
;TYPE:WALL-OUTER
G1 F900 X-9.799 Y-0.001 E12.87983
G1 X-9.748 Y-1.013 E12.93039
G1 X-9.586 Y-2.037 E12.98211
G1 X-9.324 Y-3.018 E13.03277
G1 X-8.948 Y-3.995 E13.085
G1 X-8.488 Y-4.897 E13.13551
G1 X-7.935 Y-5.751 E13.18627
G1 X-7.916 Y-5.777 E13.18788
G1 X-7.278 Y-6.562 E13.23834
G1 X-6.554 Y-7.285 E13.28939
G1 X-5.778 Y-7.915 E13.33926
G1 X-5.752 Y-7.934 E13.34086
G1 X-4.897 Y-8.488 E13.39169
G1 X-3.99 Y-8.95 E13.44247
G1 X-3.064 Y-9.307 E13.49199
G1 X-3.013 Y-9.325 E13.49469
G1 X-2.042 Y-9.584 E13.54482
G1 X-1.023 Y-9.746 E13.5963
G1 X0.001 Y-9.799 E13.64746
G1 X1.012 Y-9.748 E13.69796
G1 X2.037 Y-9.586 E13.74973
G1 X3.019 Y-9.323 E13.80045
G1 X3.995 Y-8.948 E13.85261
G1 X4.897 Y-8.488 E13.90313
G1 X5.751 Y-7.935 E13.95389
G1 X5.777 Y-7.916 E13.95549
G1 X6.562 Y-7.278 E14.00596
G1 X7.282 Y-6.557 E14.0568
G1 X7.915 Y-5.778 E14.10687
G1 X7.934 Y-5.752 E14.10848
G1 X8.488 Y-4.897 E14.15931
G1 X8.95 Y-3.99 E14.21009
G1 X9.307 Y-3.064 E14.2596
G1 X9.325 Y-3.013 E14.2623
G1 X9.583 Y-2.047 E14.31218
G1 X9.746 Y-1.023 E14.36392
G1 X9.799 Y0.00 E14.41502
G1 X9.748 Y1.012 E14.46557
G1 X9.586 Y2.037 E14.51735
G1 X9.324 Y3.018 E14.568
G1 X8.948 Y3.995 E14.62023
G1 X8.488 Y4.897 E14.67075
G1 X7.935 Y5.751 E14.72151
G1 X7.916 Y5.777 E14.72311
G1 X7.278 Y6.562 E14.77358
G1 X6.556 Y7.283 E14.82449
G1 X5.778 Y7.915 E14.87449
G1 X5.752 Y7.934 E14.8761
G1 X4.897 Y8.488 E14.92693
G1 X3.99 Y8.95 E14.97771
G1 X3.064 Y9.307 E15.02722
G1 X3.013 Y9.325 E15.02992
G1 X2.042 Y9.584 E15.08006
G1 X1.023 Y9.746 E15.13153
G1 X0.00 Y9.799 E15.18264
G1 X-1.023 Y9.746 E15.23375
G1 X-2.001 Y9.592 E15.28314
G1 X-2.052 Y9.582 E15.28573
G1 X-3.024 Y9.322 E15.33593
G1 X-3.965 Y8.961 E15.38621
G1 X-3.994 Y8.948 E15.3878
G1 X-4.897 Y8.488 E15.43836
G1 X-5.751 Y7.935 E15.48912
G1 X-5.777 Y7.916 E15.49073
G1 X-6.564 Y7.276 E15.54133
G1 X-7.285 Y6.554 E15.59224
G1 X-7.915 Y5.778 E15.64211
G1 X-7.934 Y5.752 E15.64371
G1 X-8.488 Y4.897 E15.69454
G1 X-8.95 Y3.99 E15.74532
G1 X-9.309 Y3.059 E15.7951
G1 X-9.325 Y3.013 E15.79753
G1 X-9.584 Y2.042 E15.84767
G1 X-9.746 Y1.023 E15.89915
G0 F1800 X-9.756 Y0.824
G0 X-9.317 Y0.803
G1 F2400 E10.89915
G0 F1800 X-9.257 Y0.801
G0 X-.765 Y8.54
G1 F2400 E15.92576
G0 F1800 X-.598 Y8.07
G1 F900 X-.207 Y8.208 E15.94644
G1 X0.211 Y8.207 E15.9673
G1 X0.602 Y8.068 E15.988
G1 X0.922 Y7.806 E16.00863
G1 X1.138 Y7.453 E16.02928
G1 X1.225 Y7.05 E16.04985
G1 X1.171 Y6.638 E16.07058
G1 X0.984 Y6.269 E16.09122
G1 X0.684 Y5.984 E16.11186
G1 X0.306 Y5.814 E16.13254
G1 X-0.002 Y5.775 E16.14803
G1 X-.31 Y5.814 E16.16352
G1 X-.688 Y5.986 E16.18424
