;FLAVOR:Marlin
;TIME:1930
;Filament used: 1.44186m
;Layer height: 0.2
;MINX:-17.299
;MINY:-17.3
;MINZ:0.36
;MAXX:17.299
;MAXY:17.298
;MAXZ:9.21
;Generated with Cura_SteamEngine 4.13.1
M140 S100
M105
M190 S100
M104 S230
M105
M109 S230
M82 ;absolute extrusion mode
G28 ;Home
G1 Z15.0 F6000 ;Move the platform down 15mm
;Prime the extruder
G92 E0
G1 F200 E3
G92 E0
G92 E0
G92 E0
G1 F1500 E-4
;LAYER_COUNT:40
;LAYER:-6
M107
G0 F3600 X-16.79 Y3.154 Z0.36
;TYPE:SUPPORT-INTERFACE
G1 F1500 E0
G1 F900 X-16.997 Y1.849 E0.15821
G1 X-17.017 Y1.639 E0.18347
G1 X-17.095 Y0.166 E0.36009
G1 X-17.094 Y-.227 E0.40714
G1 X-17.018 Y-1.656 E0.57849
G1 X-16.989 Y-1.926 E0.611
G1 X-16.751 Y-3.416 E0.79167
G1 X-16.671 Y-3.781 E0.83641
G1 X-16.313 Y-5.115 E1.00179
G1 X-16.194 Y-5.475 E1.04719
G1 X-15.667 Y-6.847 E1.22317
G1 X-15.537 Y-7.127 E1.26014
G1 X-14.833 Y-8.503 E1.44521
G1 X-14.606 Y-8.867 E1.49657
G1 X-13.859 Y-10.016 E1.66067
G1 X-13.759 Y-10.15 E1.68069
G1 X-12.803 Y-11.331 E1.86262
G1 X-12.593 Y-11.564 E1.90018
G1 X-11.522 Y-12.634 E2.08145
G1 X-11.328 Y-12.806 E2.11249
G1 X-10.151 Y-13.758 E2.29375
G1 X-9.846 Y-13.972 E2.33836
G1 X-8.609 Y-14.773 E2.51482
G1 X-8.218 Y-14.98 E2.56779
G1 X-7.089 Y-15.557 E2.71961
G1 X-6.781 Y-15.691 E2.75982
G1 X-5.454 Y-16.202 E2.93009
G1 X-5.08 Y-16.323 E2.97715
G1 X-3.711 Y-16.688 E3.1468
G1 X-3.419 Y-16.751 E3.18257
G1 X-1.953 Y-16.983 E3.36028
G1 X-1.544 Y-17.024 E3.4095
G1 X-.173 Y-17.095 E3.57388
G1 X0.22 Y-17.095 E3.62094
G1 X1.627 Y-17.019 E3.78965
G1 X1.934 Y-16.986 E3.82662
G1 X3.505 Y-16.735 E4.01711
G1 X3.922 Y-16.63 E4.0686
G1 X5.228 Y-16.279 E4.23053
G1 X5.41 Y-16.219 E4.25347
G1 X6.811 Y-15.681 E4.43317
G1 X7.155 Y-15.525 E4.4784
G1 X8.439 Y-14.87 E4.65099
G1 X8.732 Y-14.695 E4.69185
G1 X9.961 Y-13.896 E4.86737
G1 X10.246 Y-13.683 E4.90997
G1 X11.367 Y-12.774 E5.08278
G1 X11.666 Y-12.488 E5.13232
G1 X12.616 Y-11.536 E5.29336
G1 X12.819 Y-11.31 E5.32973
G1 X13.793 Y-10.104 E5.51535
G1 X13.948 Y-9.887 E5.54728
G1 X14.764 Y-8.624 E5.72732
G1 X14.875 Y-8.428 E5.75429
G1 X15.535 Y-7.131 E5.92854
G1 X15.715 Y-6.727 E5.9815
G1 X16.217 Y-5.417 E6.14948
G1 X16.316 Y-5.105 E6.18867
G1 X16.683 Y-3.728 E6.3593
G1 X16.754 Y-3.405 E6.3989
G1 X16.993 Y-1.886 E6.58302
G1 X17.028 Y-1.394 E6.64208
G1 X17.098 Y-0.054 E6.80274
G1 X17.098 Y0.133 E6.82513
G1 X17.015 Y1.667 E7.00908
G1 X16.978 Y2.004 E7.04967
G1 X16.776 Y3.286 E7.20507
G1 X16.681 Y3.744 E7.26107
G1 X16.294 Y5.179 E7.43903
G1 X16.222 Y5.4 E7.46687
G1 X15.684 Y6.804 E7.6469
G1 X15.447 Y7.304 E7.71315
G1 X14.871 Y8.429 E7.86448
G1 X14.711 Y8.709 E7.9031
G1 X13.909 Y9.944 E8.07941
G1 X13.708 Y10.215 E8.11981
G1 X12.83 Y11.299 E8.28684
G1 X12.582 Y11.574 E8.33118
G1 X11.491 Y12.661 E8.51559
G1 X11.243 Y12.876 E8.55489
G1 X10.146 Y13.763 E8.7238
G1 X9.914 Y13.928 E8.75789
G1 X8.655 Y14.743 E8.93747
G1 X8.426 Y14.875 E8.96912
G1 X7.176 Y15.512 E9.1371
G1 X6.686 Y15.729 E9.20127
G1 X6.553 Y15.778 E9.21824
G1 X5.365 Y16.234 E9.3706
G1 X5.16 Y16.3 E9.39639
G1 X3.711 Y16.688 E9.576
G1 X3.29 Y16.774 E9.62745
G1 X1.998 Y16.978 E9.78407
G1 X1.589 Y17.022 E9.83332
G1 X0.133 Y17.095 E10.00788
G1 X-.288 Y17.09 E10.05829
G1 X-1.551 Y17.024 E10.20972
G1 X-2.081 Y16.962 E10.27362
G1 X-3.511 Y16.733 E10.44702
G1 X-3.72 Y16.686 E10.47267
G1 X-4.92 Y16.365 E10.62141
G1 X-5.442 Y16.207 E10.68671
G1 X-6.81 Y15.682 E10.86216
G1 X-7.158 Y15.524 E10.90792
G1 X-8.432 Y14.873 E11.07923
G1 X-8.749 Y14.684 E11.12342
G1 X-9.913 Y13.929 E11.28954
G1 X-10.198 Y13.723 E11.33165
G1 X-11.276 Y12.849 E11.49782
G1 X-11.548 Y12.606 E11.54149
G1 X-12.644 Y11.511 E11.72699
G1 X-12.981 Y11.107 E11.78999
G1 X-13.744 Y10.164 E11.93523
G1 X-13.928 Y9.913 E11.97249
G1 X-14.727 Y8.684 E12.14801
G1 X-14.928 Y8.326 E12.19717
G1 X-15.525 Y7.157 E12.35434
G1 X-15.7 Y6.761 E12.40618
G1 X-16.201 Y5.452 E12.574
G1 X-16.339 Y5.02 E12.62831
G1 X-16.699 Y3.669 E12.79571
G1 X-16.79 Y3.154 E12.85833
G0 F3600 X-16 Y5.977
G1 F900 X-16 Y-5.981 E14.29014
G0 F3600 X-14.4 Y-9.184
G1 F900 X-14.4 Y9.186 E16.4897
G0 F3600 X-12.8 Y11.323
G1 F900 X-12.8 Y-11.335 E19.20269
G0 F3600 X-11.2 Y-12.91
G1 F900 X-11.2 Y12.91 E22.29429
G0 F3600 X-9.6 Y14.132
G1 F900 X-9.6 Y-14.132 E25.67852
G0 F3600 X-8 Y-15.092
G1 F900 X-8 Y15.093 E29.29277
G0 F3600 X-6.4 Y15.839
G1 F900 X-6.4 Y-15.838 E33.08566
G0 F3600 X-4.8 Y-16.398
G1 F900 X-4.8 Y16.397 E37.01242
G0 F3600 X-3.2 Y16.782
G1 F900 X-3.2 Y-16.786 E41.03173
G0 F3600 X-1.6 Y-17.019
G1 F900 X-1.6 Y17.018 E45.1072
G0 F3600 X0.00 Y17.093
G1 F900 X0.00 Y-17.095 E49.20075
G0 F3600 X1.6 Y-17.02
G1 F900 X1.6 Y17.021 E53.2767
G0 F3600 X3.2 Y16.789
G1 F900 X3.2 Y-16.783 E57.2965
G0 F3600 X4.8 Y-16.394
G1 F900 X4.8 Y16.397 E61.22277
G0 F3600 X6.4 Y15.837
G1 F900 X6.4 Y-15.838 E65.01543
G0 F3600 X8 Y-15.093
G1 F900 X8 Y15.093 E68.62979
G0 F3600 X9.6 Y14.132
G1 F900 X9.6 Y-14.13 E72.01379
G0 F3600 X11.2 Y-12.909
G1 F900 X11.2 Y12.911 E75.10538
G0 F3600 X12.8 Y11.333
G1 F900 X12.8 Y-11.331 E77.81909
G0 F3600 X14.4 Y-9.187
G1 F900 X14.4 Y9.188 E80.01925
G0 F3600 X16 Y5.98
G1 F900 X16 Y-5.983 E81.45165
G0 F600 X16 Y-5.983 Z0.66
G0 F3600 X13.181 Y-10.86
;TIME_ELAPSED:48.751567
;LAYER:-5
;TYPE:SUPPORT
G1 F900 X10.844 Y-13.197 E81.78143
G1 X11.367 Y-12.773 E81.84861
G1 X11.482 Y-12.669 E81.86408
G1 X11.578 Y-12.575 E81.87749
G1 X12.615 Y-11.536 E82.02396
G1 X12.731 Y-11.41 E82.04105
G1 X12.818 Y-11.309 E82.05435
G0 F3600 X10.844 Y-13.197
G1 F900 X10.245 Y-13.682 E82.13126
G1 X10.14 Y-13.765 E82.14461
G1 X9.961 Y-13.895 E82.16668
G1 X8.732 Y-14.695 E82.31301
G1 X8.575 Y-14.791 E82.33137
G1 X8.409 Y-14.885 E82.3504
G1 X7.066 Y-15.568 E82.50074
G1 X7.053 Y-15.574 E82.50217
G1 X15.569 Y-7.057 E83.70394
G1 X15.627 Y-6.938 E83.71715
G1 X15.676 Y-6.822 E83.72971
G1 X16.198 Y-5.464 E83.87488
G1 X16.249 Y-5.323 E83.88984
G1 X16.315 Y-5.104 E83.91267
G1 X16.39 Y-4.822 E83.94178
G1 X4.827 Y-16.385 E85.57345
G1 X3.645 Y-16.703 E85.69558
G1 X3.504 Y-16.734 E85.70999
G1 X2.981 Y-16.817 E85.76282
G1 X16.82 Y-2.978 E87.71566
G1 X16.992 Y-1.885 E87.82606
G1 X17.015 Y-1.651 E87.84952
G1 X17.027 Y-1.394 E87.87519
G1 X17.029 Y-1.355 E87.87909
G1 X1.351 Y-17.032 E90.09135
G1 X0.219 Y-17.094 E90.20447
G1 X0.025 Y-17.099 E90.22384
G1 X-.124 Y-17.095 E90.23871
G1 X17.098 Y0.127 E92.66892
G1 X17.097 Y0.132 E92.66943
G1 X17.025 Y1.469 E92.80303
G1 X-1.47 Y-17.027 E95.41294
G1 X-1.543 Y-17.023 E95.42024
G1 X-1.778 Y-17.005 E95.44375
G1 X-1.953 Y-16.981 E95.46138
G1 X-2.718 Y-16.86 E95.53866
G1 X16.864 Y2.722 E98.30189
G1 X16.774 Y3.285 E98.35878
G1 X16.749 Y3.428 E98.37327
G1 X16.711 Y3.611 E98.39192
G1 X16.679 Y3.744 E98.40557
G1 X16.636 Y3.908 E98.42248
G1 X-3.906 Y-16.634 E101.32118
G1 X-5.023 Y-16.337 E101.43651
G1 X16.335 Y5.021 E104.45035
G1 X16.293 Y5.178 E104.46657
G1 X16.253 Y5.308 E104.48014
G1 X16.221 Y5.4 E104.48986
G1 X15.966 Y6.066 E104.56102
G1 X-6.066 Y-15.965 E107.6699
G1 X-6.781 Y-15.69 E107.74634
G1 X-6.933 Y-15.627 E107.76276
G1 X-7.076 Y-15.562 E107.77843
G1 X15.562 Y7.077 E110.97297
G1 X15.556 Y7.089 E110.97431
G1 X15.084 Y8.012 E111.07775
G1 X-8.012 Y-15.084 E114.33684
G1 X-8.217 Y-14.979 E114.35982
G1 X-8.302 Y-14.939 E114.3692
G1 X-8.456 Y-14.859 E114.38651
G1 X-8.643 Y-14.751 E114.40806
G1 X-8.916 Y-14.573 E114.44058
G1 X14.574 Y8.918 E117.75534
G1 X14.018 Y9.775 E117.85727
G1 X-9.773 Y-14.016 E121.21444
G1 X-9.944 Y-13.906 E121.23473
G1 X-10.062 Y-13.823 E121.24912
G1 X-10.22 Y-13.702 E121.26898
G1 X-10.58 Y-13.408 E121.31536
G1 X13.41 Y10.581 E124.70054
G1 X12.829 Y11.298 E124.79262
G1 X12.776 Y11.361 E124.80083
G1 X-11.361 Y-12.775 E128.20675
G1 X-11.378 Y-12.761 E128.20895
G1 X-11.521 Y-12.633 E128.2281
G1 X-12.077 Y-12.077 E128.30656
G1 X12.076 Y12.076 E131.71481
G1 X11.491 Y12.66 E131.79729
G1 X11.393 Y12.747 E131.81036
G1 X11.36 Y12.774 E131.81462
G1 X-12.776 Y-11.361 E135.2204
G1 X-12.802 Y-11.331 E135.22436
G1 X-13.408 Y-10.58 E135.32065
G1 X10.581 Y13.409 E138.70575
G1 X10.146 Y13.762 E138.76165
G1 X10.017 Y13.857 E138.77764
G1 X9.913 Y13.927 E138.79015
G1 X9.774 Y14.016 E138.80662
G1 X-14.016 Y-9.774 E142.16364
G1 X-14.574 Y-8.918 E142.2656
G1 X8.915 Y14.572 E145.58022
G1 X8.654 Y14.741 E145.61125
G1 X8.489 Y14.839 E145.63039
G1 X8.425 Y14.874 E145.63767
G1 X8.012 Y15.084 E145.6839
G1 X-15.084 Y-8.012 E148.943
G1 X-15.535 Y-7.126 E149.0422
G1 X-15.561 Y-7.076 E149.04782
G1 X7.076 Y15.561 E152.24215
G1 X7.035 Y15.582 E152.24674
G1 X6.888 Y15.648 E152.26282
G1 X6.685 Y15.728 E152.28459
G1 X6.552 Y15.777 E152.29874
G1 X6.064 Y15.964 E152.35088
G1 X-15.966 Y-6.066 E155.45955
G1 X-16.242 Y-5.344 E155.53668
G1 X-16.312 Y-5.114 E155.56067
G1 X-16.336 Y-5.023 E155.57006
G1 X5.021 Y16.334 E158.58376
G1 X3.906 Y16.634 E158.69897
G1 X-16.636 Y-3.908 E161.59767
G1 X-16.67 Y-3.78 E161.61089
G1 X-16.703 Y-3.648 E161.62446
G1 X-16.732 Y-3.516 E161.63795
G1 X-16.75 Y-3.416 E161.64809
G1 X-16.862 Y-2.72 E161.71843
G1 X2.72 Y16.863 E164.48173
G1 X1.998 Y16.977 E164.55466
G1 X1.815 Y17.001 E164.57308
G1 X1.634 Y17.017 E164.59121
G1 X1.588 Y17.02 E164.59581
G1 X1.47 Y17.026 E164.6076
G1 X-17.027 Y-1.47 E167.21765
G1 X-17.092 Y-.226 E167.34195
G1 X-17.096 Y-.125 E167.35204
G1 X0.123 Y17.094 E169.78182
G1 X-0.009 Y17.097 E169.795
G1 X-.171 Y17.094 E169.81116
G1 X-.287 Y17.088 E169.82275
G1 X-1.351 Y17.033 E169.92906
G1 X-17.031 Y1.353 E172.14168
G1 X-17.015 Y1.639 E172.17026
G1 X-16.996 Y1.849 E172.1913
G1 X-16.817 Y2.981 E172.30566
G1 X-2.982 Y16.816 E174.25792
G1 X-3.51 Y16.732 E174.31127
G1 X-3.72 Y16.685 E174.33274
G1 X-4.823 Y16.389 E174.44669
G1 X-16.39 Y4.822 E176.07892
G1 X-16.337 Y5.019 E176.09928
G1 X-16.324 Y5.071 E176.10463
G1 X-16.262 Y5.277 E176.12609
G1 X-16.199 Y5.451 E176.14456
G1 X-15.659 Y6.863 E176.2954
G1 X-15.618 Y6.959 E176.30582
G1 X-15.574 Y7.053 E176.31617
G1 X-7.052 Y15.574 E177.51865
G1 X-7.158 Y15.523 E177.53038
G1 X-8.432 Y14.872 E177.67314
G1 X-8.636 Y14.754 E177.69665
G1 X-9.912 Y13.927 E177.84838
G1 X-10.033 Y13.845 E177.86296
G1 X-10.134 Y13.771 E177.87545
G1 X-10.197 Y13.722 E177.88342
G1 X-10.842 Y13.199 E177.96628
G1 X-13.172 Y10.868 E178.29513
G0 F3600 X-12.913 Y11.189
G1 F900 X-12.871 Y11.246 E178.3022
G1 X-12.739 Y11.404 E178.32274
G1 X-12.611 Y11.543 E178.3416
G1 X-11.49 Y12.661 E178.49957
G1 X-11.275 Y12.848 E178.528
G1 X-10.842 Y13.199 E178.58362
G0 F600 X-10.842 Y13.199 Z0.86
G0 F3600 X-1.836 Y17.2
;TIME_ELAPSED:113.976577
;LAYER:-4
;TYPE:SUPPORT-INTERFACE
G1 F1200 X1.849 Y17.2 E178.70618
G1 X1.65 Y17.218 E178.71283
G1 X0.047 Y17.298 E178.76621
G1 X-.125 Y17.297 E178.77193
G1 X-1.563 Y17.223 E178.81982
G1 X-1.724 Y17.212 E178.82519
G0 F3600 X1.849 Y17.2
G1 F1200 X1.956 Y17.186 E178.82878
G1 X3.329 Y16.97 E178.87501
G1 X3.598 Y16.92 E178.88411
G1 X3.758 Y16.882 E178.88958
G1 X4.063 Y16.8 E178.90008
G1 X-4.065 Y16.8 E179.17042
G1 X-4.976 Y16.557 E179.20178
G1 X-5.351 Y16.45 E179.21475
G1 X-5.499 Y16.4 E179.21995
G1 X5.487 Y16.4 E179.58534
G1 X6.531 Y16 E179.62253
G1 X-6.537 Y16 E180.05717
G1 X-6.952 Y15.84 E180.07196
G1 X-7.112 Y15.768 E180.0778
G1 X-7.245 Y15.703 E180.08272
G1 X-7.447 Y15.6 E180.09026
G1 X7.439 Y15.6 E180.58537
G1 X8.227 Y15.2 E180.61477
G1 X-8.23 Y15.2 E181.16213
G1 X-8.533 Y15.045 E181.17345
G1 X-8.695 Y14.953 E181.17965
G1 X-8.856 Y14.853 E181.18595
G1 X-8.938 Y14.8 E181.1892
G1 X8.937 Y14.8 E181.78372
G1 X9.554 Y14.4 E181.80818
G1 X-9.555 Y14.4 E182.44375
G1 X-10.022 Y14.097 E182.46226
G1 X-10.148 Y14.011 E182.46734
G1 X-10.163 Y14 E182.46795
G1 X10.162 Y14 E183.14397
G1 X10.314 Y13.886 E183.15029
G1 X10.667 Y13.6 E183.1654
G1 X-10.666 Y13.6 E183.87493
G1 X-11.161 Y13.2 E183.8961
G1 X11.161 Y13.2 E184.63853
G1 X11.369 Y13.032 E184.64743
G1 X11.557 Y12.872 E184.65564
G1 X11.633 Y12.8 E184.65912
G1 X-11.634 Y12.8 E185.43298
G1 X-11.693 Y12.744 E185.43569
G1 X-12.038 Y12.4 E185.45189
G1 X12.037 Y12.4 E186.25263
G1 X12.438 Y12 E186.27147
G1 X-12.438 Y12 E187.09885
G1 X-12.784 Y11.654 E187.11512
G1 X-12.834 Y11.6 E187.11757
G1 X12.834 Y11.6 E187.97129
G1 X12.84 Y11.594 E187.97157
G1 X12.926 Y11.496 E187.97591
G1 X13.166 Y11.2 E187.98859
G1 X-13.164 Y11.2 E188.86433
G1 X-13.488 Y10.8 E188.88145
G1 X13.491 Y10.8 E189.77877
G1 X13.816 Y10.4 E189.79591
G1 X-13.811 Y10.4 E190.71479
G1 X-13.9 Y10.29 E190.7195
G1 X-14.014 Y10.14 E190.72576
G1 X-14.092 Y10.027 E190.73033
G1 X-14.11 Y10 E190.73141
G1 X14.11 Y10 E191.67001
G1 X14.369 Y9.6 E191.68586
G1 X-14.37 Y9.6 E192.64172
G1 X-14.63 Y9.2 E192.65759
G1 X14.629 Y9.2 E193.63075
G1 X14.885 Y8.807 E193.64635
G1 X14.889 Y8.8 E193.64662
G1 X-14.89 Y8.799 E194.63707
G1 X-14.894 Y8.792 E194.63734
G1 X-14.973 Y8.661 E194.64243
G1 X-15.073 Y8.48 E194.6493
G1 X-15.115 Y8.399 E194.65234
G1 X15.109 Y8.4 E195.65759
G1 X15.314 Y8 E195.67254
G1 X-15.319 Y7.999 E196.6914
G1 X-15.524 Y7.599 E196.70635
G1 X15.518 Y7.6 E197.73881
G1 X15.624 Y7.394 E197.74652
G1 X15.725 Y7.2 E197.75379
G1 X-15.727 Y7.199 E198.79989
G1 X-15.802 Y7.039 E198.80577
G1 X-15.886 Y6.834 E198.81313
G1 X-15.9 Y6.799 E198.81439
G1 X15.899 Y6.8 E199.87203
G1 X16.052 Y6.4 E199.88627
G1 X-16.053 Y6.399 E200.95409
G1 X-16.206 Y5.999 E200.96833
G1 X16.206 Y6 E202.04636
G1 X16.359 Y5.6 E202.0606
G1 X-16.358 Y5.599 E203.14878
G1 X-16.387 Y5.523 E203.15148
G1 X-16.455 Y5.332 E203.15822
G1 X-16.495 Y5.199 E203.16284
G1 X16.495 Y5.2 E204.2601
G1 X16.517 Y5.128 E204.2626
G1 X16.604 Y4.8 E204.27389
G1 X-16.604 Y4.799 E205.37839
G1 X-16.711 Y4.399 E205.39216
G1 X16.711 Y4.4 E206.50378
G1 X16.818 Y4 E206.51755
G1 X-16.818 Y3.999 E207.63629
G1 X-16.895 Y3.711 E207.64621
G1 X-16.921 Y3.599 E207.65003
G1 X16.919 Y3.6 E208.77555
G1 X16.947 Y3.467 E208.78007
G1 X16.972 Y3.322 E208.78497
G1 X16.991 Y3.2 E208.78907
G1 X-16.986 Y3.199 E209.91915
G1 X-16.988 Y3.182 E209.91972
G1 X-17.05 Y2.799 E209.93263
G1 X17.054 Y2.8 E211.06693
G1 X17.117 Y2.4 E211.0804
G1 X-17.113 Y2.399 E212.21889
G1 X-17.177 Y1.999 E212.23237
G1 X17.179 Y2 E213.37505
G1 X17.203 Y1.815 E213.38126
G1 X17.215 Y1.686 E213.38557
G1 X17.219 Y1.6 E213.38843
G1 X-17.219 Y1.599 E214.53384
G1 X-17.24 Y1.199 E214.54716
G1 X17.24 Y1.2 E215.69397
G1 X17.261 Y0.8 E215.7073
G1 X-17.261 Y0.799 E216.8555
G1 X-17.282 Y0.399 E216.86883
G1 X17.282 Y0.4 E218.01843
G1 X17.299 Y0.082 E218.02902
G1 X17.299 Y0.00 E218.03175
G1 X-17.298 Y0.00 E219.18245
G1 X-17.298 Y-0.086 E219.18531
G1 X-17.294 Y-.216 E219.18963
G1 X-17.284 Y-.4 E219.19576
G1 X17.281 Y-.399 E220.3454
G1 X17.26 Y-.799 E220.35872
G1 X-17.262 Y-.8 E221.50693
G1 X-17.241 Y-1.2 E221.52025
G1 X17.239 Y-1.199 E222.66706
G1 X17.228 Y-1.403 E222.67386
G1 X17.22 Y-1.599 E222.68038
G1 X-17.22 Y-1.6 E223.82586
G1 X-17.216 Y-1.68 E223.82852
G1 X-17.195 Y-1.888 E223.83548
G1 X-17.187 Y-1.956 E223.83775
G1 X-17.179 Y-2 E223.83924
G1 X17.178 Y-1.999 E224.98196
G1 X17.115 Y-2.399 E224.99543
G1 X-17.115 Y-2.4 E226.13392
G1 X-17.051 Y-2.8 E226.1474
G1 X17.052 Y-2.799 E227.28167
G1 X16.989 Y-3.199 E227.29513
G1 X-16.987 Y-3.2 E228.42518
G1 X-16.949 Y-3.442 E228.43333
G1 X-16.926 Y-3.568 E228.43759
G1 X-16.918 Y-3.6 E228.43868
G1 X16.919 Y-3.599 E229.56411
G1 X16.891 Y-3.723 E229.56834
G1 X16.818 Y-3.999 E229.57783
G1 X-16.818 Y-4 E230.69657
G1 X-16.711 Y-4.4 E230.71034
G1 X16.711 Y-4.399 E231.82196
G1 X16.604 Y-4.799 E231.83573
G1 X-16.604 Y-4.8 E232.94024
G1 X-16.505 Y-5.17 E232.95298
G1 X-16.496 Y-5.2 E232.95402
G1 X16.497 Y-5.199 E234.05137
G1 X16.491 Y-5.22 E234.0521
G1 X16.44 Y-5.382 E234.05774
G1 X16.405 Y-5.482 E234.06127
G1 X16.361 Y-5.599 E234.06543
G1 X-16.359 Y-5.6 E235.1537
G1 X-16.206 Y-6 E235.16794
G1 X16.207 Y-5.999 E236.246
G1 X16.053 Y-6.399 E236.26026
G1 X-16.053 Y-6.4 E237.32811
G1 X-15.9 Y-6.8 E237.34235
G1 X15.9 Y-6.799 E238.40002
G1 X15.86 Y-6.901 E238.40367
G1 X15.813 Y-7.014 E238.40774
G1 X15.725 Y-7.199 E238.41455
G1 X-15.723 Y-7.2 E239.46052
G1 X-15.718 Y-7.212 E239.46095
G1 X-15.519 Y-7.6 E239.47545
G1 X15.521 Y-7.599 E240.50785
G1 X15.318 Y-7.999 E240.52277
G1 X-15.314 Y-8 E241.54159
G1 X-15.109 Y-8.4 E241.55654
G1 X15.114 Y-8.399 E242.56176
G1 X15.053 Y-8.518 E242.56621
G1 X14.975 Y-8.659 E242.57157
G1 X14.901 Y-8.781 E242.57631
G1 X14.89 Y-8.799 E242.57702
G1 X-14.888 Y-8.8 E243.56744
G1 X-14.628 Y-9.2 E243.5833
