;FLAVOR:Marlin
;TIME:204
;Filament used: 0.144229m
;Layer height: 0.2
;MINX:-14.279
;MINY:-5.249
;MINZ:0.36
;MAXX:14.285
;MAXY:5.246
;MAXZ:10.21
;Generated with Cura_SteamEngine 4.13.1
M140 S100
M105
M190 S100
M104 S230
M105
M109 S230
M82 ;absolute extrusion mode
G28 ;Home
G1 Z15.0 F6000 ;Move the platform down 15mm
;Prime the extruder
G92 E0
G1 F200 E3
G92 E0
G92 E0
G92 E0
G1 F3000 E-1
;LAYER_COUNT:45
;LAYER:-6
M107
G0 F3600 X1.923 Y-4.188 Z0.36
;TYPE:SUPPORT-INTERFACE
G1 F3000 E0.02661
G1 F1125 X2.063 Y-4.147 E0.04408
G1 X2.714 Y-3.937 E0.12598
G1 X3.384 Y-3.812 E0.20759
G1 X4.066 Y-3.772 E0.28939
G1 X4.748 Y-3.819 E0.37124
G1 X5.417 Y-3.951 E0.45289
G1 X6.064 Y-4.166 E0.53452
G1 X6.21 Y-4.217 E0.55304
G1 X6.792 Y-4.519 E0.63155
G1 X7.291 Y-4.735 E0.69666
G1 X7.781 Y-4.888 E0.75812
G1 X8.33 Y-4.997 E0.82514
G1 X8.946 Y-5.048 E0.89915
G1 X9.512 Y-5.025 E0.96698
G1 X10.026 Y-4.952 E1.02914
G1 X10.592 Y-4.802 E1.09925
G1 X11.072 Y-4.62 E1.16072
G1 X11.55 Y-4.379 E1.22481
G1 X11.988 Y-4.096 E1.28725
G1 X12.407 Y-3.758 E1.35171
G1 X12.807 Y-3.357 E1.41953
G1 X13.139 Y-2.944 E1.48298
G1 X13.422 Y-2.502 E1.54582
G1 X13.651 Y-2.048 E1.6067
G1 X13.848 Y-1.531 E1.67295
G1 X13.989 Y-.983 E1.7407
G1 X14.074 Y-.337 E1.81872
G1 X14.082 Y0.204 E1.8835
G1 X14.011 Y0.862 E1.96275
G1 X13.949 Y1.17 E2.00036
G1 X13.752 Y1.808 E2.08032
G1 X13.491 Y2.376 E2.15516
G1 X13.209 Y2.841 E2.22028
G1 X12.882 Y3.271 E2.28496
G1 X12.398 Y3.765 E2.36777
G1 X11.971 Y4.108 E2.43335
G1 X11.506 Y4.403 E2.49929
G1 X11.057 Y4.626 E2.55931
G1 X10.527 Y4.823 E2.62702
G1 X10.003 Y4.954 E2.69169
G1 X9.349 Y5.037 E2.77062
G1 X8.848 Y5.043 E2.83062
G1 X8.32 Y4.996 E2.89409
G1 X7.76 Y4.882 E2.96252
G1 X7.252 Y4.719 E3.0264
G1 X6.758 Y4.502 E3.091
G1 X6.606 Y4.422 E3.11157
G1 X5.997 Y4.139 E3.19198
G1 X5.347 Y3.933 E3.27362
G1 X4.675 Y3.81 E3.35542
G1 X3.994 Y3.772 E3.43709
G1 X3.312 Y3.821 E3.51896
G1 X2.643 Y3.956 E3.60068
G1 X1.997 Y4.173 E3.68227
G1 X1.47 Y4.422 E3.75206
G1 X0.921 Y4.683 E3.82485
G1 X0.431 Y4.851 E3.88687
G1 X-0.093 Y4.972 E3.95127
G1 X-.651 Y5.037 E4.01853
G1 X-1.152 Y5.043 E4.07852
G1 X-1.68 Y4.996 E4.14199
G1 X-2.24 Y4.882 E4.21042
G1 X-2.748 Y4.719 E4.2743
G1 X-3.235 Y4.505 E4.33799
G1 X-3.682 Y4.251 E4.39955
G1 X-4.271 Y3.935 E4.47959
G1 X-4.908 Y3.69 E4.56131
G1 X-5.571 Y3.527 E4.64306
G1 X-6.249 Y3.449 E4.72477
G1 X-6.932 Y3.456 E4.80656
G1 X-7.611 Y3.552 E4.88867
G1 X-8.371 Y3.766 E4.98321
G1 X-8.851 Y3.933 E5.04406
G1 X-9.478 Y4.061 E5.12068
G1 X-10.106 Y4.091 E5.19596
G1 X-10.764 Y4.019 E5.27522
G1 X-11.366 Y3.854 E5.34996
G1 X-11.965 Y3.584 E5.42863
G1 X-12.508 Y3.226 E5.50651
G1 X-12.98 Y2.793 E5.5832
G1 X-13.361 Y2.317 E5.6562
G1 X-13.692 Y1.74 E5.73585
G1 X-13.923 Y1.129 E5.81407
G1 X-14.05 Y0.505 E5.89031
G1 X-14.079 Y-.118 E5.96499
G1 X-14.006 Y-.783 E6.04509
G1 X-13.837 Y-1.393 E6.12088
G1 X-13.572 Y-1.977 E6.19767
G1 X-13.214 Y-2.52 E6.27555
G1 X-12.781 Y-2.992 E6.35224
G1 X-12.305 Y-3.373 E6.42525
G1 X-11.74 Y-3.698 E6.50329
G1 X-11.128 Y-3.932 E6.58174
G1 X-10.493 Y-4.062 E6.65935
G1 X-9.867 Y-4.091 E6.73439
G1 X-9.22 Y-4.021 E6.81231
G1 X-8.595 Y-3.849 E6.88993
G1 X-8.366 Y-3.766 E6.91909
G1 X-7.724 Y-3.576 E6.99926
G1 X-7.05 Y-3.467 E7.08101
G1 X-6.367 Y-3.443 E7.16284
G1 X-5.687 Y-3.507 E7.24462
G1 X-5.02 Y-3.655 E7.32643
G1 X-4.377 Y-3.887 E7.40828
G1 X-3.679 Y-4.253 E7.50264
G1 X-3.208 Y-4.519 E7.56741
G1 X-2.709 Y-4.735 E7.63252
G1 X-2.219 Y-4.888 E7.69398
G1 X-1.67 Y-4.997 E7.761
G1 X-1.054 Y-5.048 E7.83501
G1 X-.488 Y-5.025 E7.90284
G1 X0.026 Y-4.952 E7.965
G1 X0.592 Y-4.802 E8.03511
G1 X1.072 Y-4.62 E8.09658
G1 X1.286 Y-4.519 E8.12491
G1 X1.923 Y-4.188 E8.21087
G1 X1.6 Y-4.355
G1 X1.6 Y4.361 E9.25449
G0 F3600 X3.2 Y3.844
G1 F1125 X3.2 Y-3.846 E10.17526
G0 F3600 X4.8 Y-3.83
G1 F1125 X4.8 Y3.832 E11.09268
G0 F3600 X6.4 Y4.326
G1 F1125 X6.4 Y-4.316 E12.12745
G0 F3600 X8 Y-4.932
G1 F1125 X8 Y4.93 E13.30829
G0 F3600 X9.6 Y5.006
G1 F1125 X9.6 Y-5.012 E14.50781
G0 F3600 X11.2 Y-4.555
G1 F1125 X11.2 Y4.555 E15.59861
G0 F3600 X12.8 Y3.355
G1 F1125 X12.8 Y-3.364 E16.40312
G0 F3600 X3.437 Y-4.271
G0 X0.00 Y-4.955
G1 F1125 X0.00 Y4.951 E17.58923
G0 F3600 X-1.6 Y5.003
G1 F1125 X-1.6 Y-5.003 E18.78731
G0 F3600 X-3.2 Y-4.523
G1 F1125 X-3.2 Y4.52 E19.87009
G0 F3600 X-4.8 Y3.731
G1 F1125 X-4.8 Y-3.735 E20.76404
G0 F3600 X-6.4 Y-3.444
G1 F1125 X-6.4 Y3.451 E21.58962
G0 F3600 X-8 Y3.662
G1 F1125 X-8 Y-3.657 E22.46597
G0 F3600 X-9.6 Y-4.062
G1 F1125 X-9.6 Y4.067 E23.43931
G0 F3600 X-11.2 Y3.899
G1 F1125 X-11.2 Y-3.905 E24.37373
G0 F3600 X-12.8 Y-2.972
G1 F1125 X-12.8 Y2.958 E25.08377
G0 F600 X-12.8 Y2.958 Z0.66
G0 F3600 X-11.983 Y3.573
;TIME_ELAPSED:13.929389
;LAYER:-5
;TYPE:SUPPORT
G1 F1125 X-11.964 Y3.583 E25.08591
G1 X-11.739 Y3.698 E25.11113
G1 X-11.535 Y3.792 E25.13354
G1 X-11.365 Y3.854 E25.1516
G1 X-11.127 Y3.932 E25.17659
G1 X-10.973 Y3.976 E25.19257
G1 X-10.763 Y4.019 E25.21396
G1 X-10.492 Y4.061 E25.24132
G1 X-10.313 Y4.082 E25.2593
G1 X-10.105 Y4.09 E25.28007
G1 X-10.051 Y4.09 E25.28546
G1 X-14.077 Y0.064 E25.85357
G1 X-14.077 Y-.118 E25.87173
G1 X-14.069 Y-.325 E25.8924
G1 X-14.048 Y-.504 E25.91039
G1 X-14.005 Y-.782 E25.93845
G1 X-13.961 Y-.992 E25.95986
G1 X-13.919 Y-1.14 E25.97521
G1 X-13.907 Y-1.179 E25.97929
G1 X-8.809 Y3.918 E26.6986
G1 X-8.608 Y3.853 E26.71968
G1 X-8.37 Y3.766 E26.74496
G1 X-7.728 Y3.585 E26.81152
G1 X-13.469 Y-2.155 E27.62156
G1 X-13.36 Y-2.317 E27.64105
G1 X-13.212 Y-2.52 E27.66611
G1 X-13.12 Y-2.638 E27.68104
G1 X-13.086 Y-2.677 E27.68621
G1 X-12.979 Y-2.793 E27.70195
G1 X-12.836 Y-2.936 E27.72213
G1 X-6.448 Y3.45 E28.62341
G1 X-6.247 Y3.449 E28.64346
G1 X-5.57 Y3.527 E28.71146
G1 X-4.907 Y3.689 E28.77956
G1 X-4.726 Y3.758 E28.79889
G1 X-12.031 Y-3.546 E29.82963
G1 X-11.964 Y-3.583 E29.83727
G1 X-11.739 Y-3.698 E29.86248
G1 X-11.535 Y-3.792 E29.88489
G1 X-11.365 Y-3.854 E29.90295
G1 X-11.127 Y-3.932 E29.92794
G1 X-11.03 Y-3.959 E29.93799
G1 X-2.173 Y4.897 E31.18774
G1 X-2.111 Y4.914 E31.19415
G1 X-1.953 Y4.947 E31.21026
G1 X-1.795 Y4.977 E31.2263
G1 X-1.607 Y5.004 E31.24525
G1 X-1.287 Y5.035 E31.27733
G1 X-1.057 Y5.045 E31.3003
G1 X-.864 Y5.045 E31.31956
G1 X-.65 Y5.037 E31.34093
G1 X-.622 Y5.034 E31.34374
G1 X-9.743 Y-4.086 E32.63074
G1 X-9.668 Y-4.084 E32.63823
G1 X-9.477 Y-4.06 E32.65743
G1 X-9.219 Y-4.02 E32.68349
G1 X-9.006 Y-3.976 E32.70519
G1 X-8.854 Y-3.934 E32.72092
G1 X-8.594 Y-3.849 E32.74822
G1 X-8.365 Y-3.766 E32.77252
G1 X-7.858 Y-3.615 E32.82531
G1 X0.566 Y4.809 E34.01402
G1 X0.704 Y4.763 E34.02854
G1 X0.92 Y4.682 E34.05156
G1 X1.057 Y4.625 E34.06636
G1 X1.303 Y4.509 E34.0935
G1 X1.47 Y4.421 E34.11233
G1 X1.553 Y4.381 E34.12153
G1 X-6.279 Y-3.45 E35.22664
G1 X-5.686 Y-3.507 E35.28608
G1 X-5.06 Y-3.645 E35.35004
G1 X2.566 Y3.981 E36.42615
G1 X2.643 Y3.955 E36.43426
G1 X3.312 Y3.819 E36.50238
G1 X3.786 Y3.786 E36.54979
G1 X-4.054 Y-4.054 E37.6561
G1 X-3.679 Y-4.251 E37.69837
G1 X-3.471 Y-4.378 E37.72268
G1 X-3.207 Y-4.518 E37.7525
G1 X-3.136 Y-4.55 E37.76027
G1 X5.347 Y3.932 E38.95724
G1 X5.996 Y4.139 E39.02522
G1 X6.605 Y4.421 E39.09218
G1 X6.675 Y4.46 E39.10018
G1 X6.882 Y4.562 E39.1232
G1 X7.129 Y4.671 E39.15014
G1 X7.251 Y4.718 E39.16319
G1 X7.514 Y4.81 E39.19099
G1 X7.658 Y4.854 E39.20601
G1 X7.691 Y4.862 E39.2094
G1 X-2.088 Y-4.917 E40.58932
G1 X-1.963 Y-4.946 E40.60213
G1 X-1.836 Y-4.97 E40.61502
G1 X-1.554 Y-5.012 E40.64347
G1 X-1.305 Y-5.036 E40.66843
G1 X-1.007 Y-5.048 E40.69819
G1 X-.82 Y-5.045 E40.71685
G1 X-.801 Y-5.044 E40.71875
G1 X9.282 Y5.04 E42.14164
G1 X9.348 Y5.038 E42.14823
G1 X9.52 Y5.023 E42.16546
G1 X9.748 Y4.997 E42.18835
G1 X10.002 Y4.954 E42.21406
G1 X10.187 Y4.913 E42.23297
G1 X10.337 Y4.876 E42.24838
G1 X10.489 Y4.833 E42.26414
G1 X1.013 Y-4.643 E43.60131
G1 X1.071 Y-4.618 E43.60761
G1 X1.285 Y-4.518 E43.63118
G1 X1.923 Y-4.187 E43.7029
G1 X1.929 Y-4.207 E43.70498
G1 X2.063 Y-4.146 E43.71967
G1 X2.713 Y-3.935 E43.78786
G1 X3.231 Y-3.839 E43.84043
G1 X11.484 Y4.413 E45.00494
G1 X11.505 Y4.403 E45.00727
G1 X11.684 Y4.297 E45.02802
G1 X11.775 Y4.24 E45.03874
G1 X11.969 Y4.108 E45.06215
G1 X12.156 Y3.968 E45.08546
G1 X12.304 Y3.847 E45.10453
G1 X12.319 Y3.833 E45.10658
G1 X4.671 Y-3.813 E46.18566
G1 X4.746 Y-3.819 E46.19316
G1 X5.416 Y-3.951 E46.2613
G1 X5.815 Y-4.083 E46.30324
G1 X13.01 Y3.111 E47.31846
G1 X13.039 Y3.075 E47.32307
G1 X13.123 Y2.962 E47.33712
G1 X13.208 Y2.841 E47.35187
G1 X13.351 Y2.623 E47.37789
G1 X13.407 Y2.526 E47.38906
G1 X13.49 Y2.375 E47.40626
G1 X13.558 Y2.244 E47.42098
G1 X6.793 Y-4.519 E48.37546
G1 X7.005 Y-4.619 E48.39885
G1 X7.11 Y-4.664 E48.41024
G1 X7.29 Y-4.734 E48.42952
G1 X7.382 Y-4.768 E48.4393
G1 X7.635 Y-4.847 E48.46575
G1 X7.78 Y-4.888 E48.48078
G1 X7.829 Y-4.898 E48.48577
G1 X13.939 Y1.211 E49.34789
G1 X13.948 Y1.169 E49.35218
G1 X14.009 Y0.861 E49.38351
G1 X14.039 Y0.676 E49.40221
G1 X14.045 Y0.618 E49.40802
G1 X14.077 Y0.298 E49.44011
G1 X14.084 Y0.079 E49.46198
G1 X14.084 Y-0.055 E49.47535
G1 X14.084 Y-0.057
G1 X9.094 Y-5.047 E50.17949
G1 X9.179 Y-5.047 E50.18797
G1 X9.405 Y-5.035 E50.21055
G1 X9.653 Y-5.01 E50.23542
G1 X9.735 Y-4.999 E50.24368
G1 X10.025 Y-4.952 E50.27299
G1 X10.296 Y-4.888 E50.30078
G1 X10.441 Y-4.847 E50.31581
G1 X10.693 Y-4.768 E50.34216
G1 X10.786 Y-4.734 E50.35204
G1 X10.844 Y-4.711 E50.35827
G1 X13.747 Y-1.808 E50.76792
G1 X13.709 Y-1.909
G1 X13.616 Y-2.124 E50.79129
G1 X13.524 Y-2.31 E50.81199
G1 X13.42 Y-2.501 E50.83369
G1 X13.369 Y-2.588 E50.84376
G1 X13.195 Y-2.864 E50.87631
G1 X13.058 Y-3.051 E50.89944
G1 X12.862 Y-3.292 E50.93044
G1 X12.703 Y-3.469 E50.95418
G1 X12.588 Y-3.587 E50.97062
G1 X12.504 Y-3.668 E50.98226
G1 X12.406 Y-3.758 E50.99554
G1 X12.17 Y-3.957 E51.02634
G1 X11.987 Y-4.096 E51.04927
G1 X11.904 Y-4.154 E51.05938
G1 X11.751 Y-4.254 E51.07761
G1 X11.549 Y-4.379 E51.10132
G1 X11.45 Y-4.432 E51.11252
G1 X11.275 Y-4.524 E51.13225
G1 X11.071 Y-4.619 E51.1547
G1 X10.965 Y-4.664 E51.16619
G1 X10.844 Y-4.711 E51.17915
G0 F3600 X-11.983 Y3.573
G1 F1125 X-12.122 Y3.495 E51.19505
G1 X-12.304 Y3.373 E51.21691
G1 X-12.507 Y3.225 E51.24198
G1 X-12.664 Y3.099 E51.26207
G1 X-12.78 Y2.992 E51.27781
G1 X-12.979 Y2.793 E51.30589
G1 X-13.087 Y2.677 E51.32171
G1 X-13.215 Y2.515 E51.34231
G1 X-13.36 Y2.317 E51.3668
G1 X-13.488 Y2.126 E51.38974
G1 X-13.56 Y1.995
G1 X-11.983 Y3.573 E51.61234
G0 F600 X-11.983 Y3.573 Z0.86
G0 F3600 X-11.434 Y4.041
;TIME_ELAPSED:28.652750
;LAYER:-4
;TYPE:SUPPORT-INTERFACE
G1 F1500 X-11.175 Y4.126 E51.62141
G1 X-11.026 Y4.168 E51.62656
G1 X-10.796 Y4.215 E51.63436
G1 X-10.506 Y4.261 E51.64413
G1 X-10.336 Y4.28 E51.64982
G1 X-10.115 Y4.29 E51.65718
G1 X-9.859 Y4.29 E51.66569
G1 X-9.668 Y4.283 E51.67205
G1 X-9.449 Y4.258 E51.67938
G1 X-9.184 Y4.216 E51.6883
G1 X-9.002 Y4.18 E51.69448
G1 X-8.798 Y4.125 E51.7015
G1 X-8.55 Y4.044 E51.71018
G1 X-8.427 Y3.999 E51.71454
G1 X-11.55 Y3.999 E51.81841
G1 X-11.615 Y3.975 E51.82071
G1 X-11.824 Y3.879 E51.82836
G1 X-12.049 Y3.765 E51.83675
G1 X-12.234 Y3.661 E51.84381
G1 X-12.327 Y3.599 E51.84753
G1 X12.854 Y3.6 E52.68505
G1 X12.923 Y3.526 E52.68842
G1 X13.041 Y3.393 E52.69433
G1 X13.196 Y3.2 E52.70256
G1 X-12.851 Y3.199 E53.56889
G1 X-12.928 Y3.128 E53.57237
G1 X-13.116 Y2.939 E53.58124
G1 X-13.245 Y2.8 E53.58755
G1 X-13.246 Y2.799
G1 X13.475 Y2.8 E54.47629
G1 X13.527 Y2.718 E54.47952
G1 X13.578 Y2.631 E54.48287
G1 X13.666 Y2.472 E54.48892
G1 X13.702 Y2.4 E54.4916
G1 X-13.547 Y2.399 E55.3979
G1 X-13.661 Y2.227 E55.40476
G1 X-13.754 Y2.06 E55.41112
G1 X-13.785 Y1.999 E55.4134
G1 X13.887 Y2 E56.33377
G1 X13.943 Y1.868 E56.33854
G1 X13.996 Y1.718 E56.34383
G1 X14.035 Y1.6 E56.34797
G1 X-13.974 Y1.599 E57.27955
G1 X-14.03 Y1.445 E57.285
G1 X-14.111 Y1.199 E57.29361
G1 X14.147 Y1.2 E58.23348
G1 X14.181 Y1.038 E58.23898
G1 X14.221 Y0.8 E58.24701
G1 X-14.206 Y0.799 E59.1925
G1 X-14.25 Y0.517 E59.20199
G1 X-14.263 Y0.399 E59.20594
G1 X14.269 Y0.4 E60.15492
G1 X14.277 Y0.32 E60.15759
G1 X14.282 Y0.203 E60.16149
G1 X14.285 Y0.084 E60.16544
G1 X14.285 Y0.00 E60.16824
G1 X-14.279 Y0.00 E61.11828
G1 X-14.279 Y-.126 E61.12247
G1 X-14.269 Y-.347 E61.12983
G1 X-14.263 Y-.4 E61.1316
G1 X14.27 Y-.399 E62.08062
G1 X14.263 Y-.498 E62.08392
G1 X14.226 Y-.794 E62.09384
G1 X14.226 Y-.799 E62.094
G1 X-14.205 Y-.8 E63.03962
G1 X-14.203 Y-.814 E63.04009
G1 X-14.157 Y-1.037 E63.04767
G1 X-14.115 Y-1.186 E63.05282
G1 X-14.11 Y-1.2 E63.05331
G1 X14.146 Y-1.199 E63.99311
G1 X14.115 Y-1.325 E63.99742
G1 X14.08 Y-1.452 E64.00181
G1 X14.039 Y-1.588 E64.00653
G1 X14.036 Y-1.599 E64.00691
G1 X-13.972 Y-1.6 E64.93846
G1 X-13.951 Y-1.657 E64.94048
G1 X-13.868 Y-1.835 E64.94701
G1 X-13.784 Y-2 E64.95317
G1 X13.89 Y-1.999 E65.87361
G1 X13.8 Y-2.204 E65.88106
G1 X13.704 Y-2.399 E65.88829
G1 X-13.545 Y-2.4 E66.79459
G1 X-13.527 Y-2.428 E66.7957
G1 X-13.381 Y-2.63 E66.80399
G1 X-13.245 Y-2.8 E66.81123
G1 X13.474 Y-2.799 E67.69991
G1 X13.363 Y-2.972 E67.70674
G1 X13.212 Y-3.179 E67.71527
G1 X13.197 Y-3.199 E67.7161
G1 X-12.848 Y-3.2 E68.58236
G1 X-12.761 Y-3.28 E68.58629
G1 X-12.619 Y-3.392 E68.5923
G1 X-12.417 Y-3.538 E68.60059
G1 X-12.324 Y-3.6 E68.60431
G1 X12.855 Y-3.599 E69.44177
G1 X12.732 Y-3.725 E69.44762
G1 X12.637 Y-3.817 E69.45202
G1 X12.535 Y-3.911 E69.45664
G1 X12.431 Y-3.999 E69.46117
G1 X4.468 Y-3.999 E69.72602
G1 X4.721 Y-4.016 E69.73445
G1 X5.366 Y-4.145 E69.75633
G1 X5.99 Y-4.352 E69.7782
G1 X6.092 Y-4.4 E69.78195
G1 X11.896 Y-4.399 E69.97499
G1 X11.855 Y-4.426 E69.97662
G1 X11.758 Y-4.487 E69.98043
G1 X11.64 Y-4.557 E69.98499
G1 X11.54 Y-4.612 E69.98879
G1 X11.374 Y-4.698 E69.99501
G1 X11.265 Y-4.751 E69.99904
G1 X11.16 Y-4.799 E70.00288
G1 X6.919 Y-4.8 E70.14394
G1 X6.934 Y-4.807 E70.14449
G1 X7.029 Y-4.847 E70.14792
G1 X7.23 Y-4.926 E70.1551
G1 X7.323 Y-4.959 E70.15838
G1 X7.583 Y-5.039 E70.16743
G1 X7.741 Y-5.084 E70.17289
G1 X7.987 Y-5.141 E70.18129
G1 X8.126 Y-5.166 E70.18599
G1 X8.3 Y-5.194 E70.19185
G1 X8.339 Y-5.199 E70.19316
G1 X9.74 Y-5.199 E70.23976
G1 X9.676 Y-5.208
G1 X9.426 Y-5.233 E70.24811
G1 X9.19 Y-5.246 E70.25597
G1 X8.989 Y-5.248 E70.26266
G1 X8.673 Y-5.235 E70.27318
G1 X8.424 Y-5.21 E70.2815
G1 X8.339 Y-5.199 E70.28435
G0 F3600 X4.064 Y-3.972
G1 F1500 X3.598 Y-4 E70.29988
G1 X-4.649 Y-4 E70.57418
G1 X-4.457 Y-4.069 E70.58096
G1 X-3.827 Y-4.4 E70.60463
G1 X1.995 Y-4.4 E70.79827
G1 X1.811 Y-4.486 E70.80503
G1 X1.807 Y-4.474 E70.80545
G1 X1.373 Y-4.699 E70.82171
G1 X1.264 Y-4.752 E70.82574
G1 X1.159 Y-4.8 E70.82958
G1 X-3.08 Y-4.8 E70.97057
G1 X-3.065 Y-4.807 E70.97112
G1 X-2.97 Y-4.847 E70.97455
G1 X-2.769 Y-4.926 E70.98173
G1 X-2.676 Y-4.959 E70.98501
G1 X-2.416 Y-5.04 E70.99407
G1 X-2.258 Y-5.085 E70.99953
G1 X-2.012 Y-5.142 E71.00793
G1 X-1.873 Y-5.167 E71.01263
G1 X-1.699 Y-5.195 E71.01849
G1 X-1.66 Y-5.2 E71.0198
G1 X-.259 Y-5.2 E71.0664
G1 X-.323 Y-5.209
G1 X-.573 Y-5.234 E71.07475
G1 X-.809 Y-5.247 E71.08261
G1 X-1.01 Y-5.249 E71.0893
G1 X-1.326 Y-5.236 E71.09982
G1 X-1.575 Y-5.211 E71.10814
G1 X-1.66 Y-5.2 E71.11099
G0 F3600 X-5.076 Y-3.847
G1 F1500 X-5.718 Y-3.704 E71.13287
G1 X-6.373 Y-3.643 E71.15475
G1 X-7.031 Y-3.666 E71.17665
G1 X-7.679 Y-3.771 E71.19848
G1 X-8.304 Y-3.955 E71.22015
G1 X-8.427 Y-4 E71.22451
G1 X-11.546 Y-4 E71.32825
G1 X-11.434 Y-4.041 E71.33221
G1 X-11.175 Y-4.126 E71.34128
G1 X-11.026 Y-4.168 E71.34643
G1 X-10.796 Y-4.215 E71.35424
G1 X-10.506 Y-4.261 E71.364
G1 X-10.308 Y-4.282 E71.37062
G1 X-10.115 Y-4.29 E71.37705
G1 X-9.859 Y-4.29 E71.38556
G1 X-9.651 Y-4.281 E71.39249
G1 X-9.449 Y-4.258 E71.39925
G1 X-9.184 Y-4.216 E71.40817
G1 X-9.002 Y-4.18 E71.41434
G1 X-8.798 Y-4.125 E71.42137
G1 X-8.526 Y-4.036 E71.43089
G0 F3600 X-8.309 Y3.956
G1 F1500 X-7.569 Y3.747 E71.45647
G1 X-6.917 Y3.655 E71.47837
G1 X-6.26 Y3.648 E71.50022
G1 X-5.607 Y3.723 E71.52208
G1 X-4.968 Y3.88 E71.54397
G1 X-4.659 Y3.999 E71.55498
G1 X3.603 Y4 E71.82978
G1 X3.338 Y4.019 E71.83861
G1 X2.694 Y4.149 E71.86046
G1 X2.071 Y4.359 E71.88233
G1 X1.984 Y4.4 E71.88553
G1 X-3.828 Y4.4 E72.07884
G1 X-3.781 Y4.425 E72.08061
G1 X-3.528 Y4.576 E72.09041
G1 X-3.433 Y4.628 E72.09401
G1 X-3.206 Y4.741 E72.10244
G1 X-3.073 Y4.8 E72.10728
G1 X1.155 Y4.8 E72.24791
G1 X1.127 Y4.813 E72.24893
G1 X0.993 Y4.87 E72.25378
