;FLAVOR:Marlin
;TIME:368
;Filament used: 0.0668204m
;Layer height: 0.1
;MINX:-13.5
;MINY:-4.458
;MINZ:0.2
;MAXX:13.495
;MAXY:4.462
;MAXZ:9
;Generated with Cura_SteamEngine 4.13.1
M140 S60
M105
M190 S60
M104 S205
M105
M109 S205
M82 ;absolute extrusion mode
G28 ;Home
G1 Z15.0 F6000 ;Move the platform down 15mm
;Prime the extruder
G92 E0
G1 F200 E3
G92 E0
G92 E0
G92 E0
G1 F1800 E-5
;LAYER_COUNT:89
;LAYER:0
M107
G0 F900 X-6.502 Y0.027 Z0.2
;TYPE:SKIRT
G1 F1800 E0.01123
G1 F900 X-6.594 Y0.761 E0.02968
G1 X-6.667 Y1.064 E0.03745
G1 X-6.994 Y1.776 E0.057
G1 X-7.205 Y2.105 E0.06675
G1 X-7.685 Y2.613 E0.08418
G1 X-7.92 Y2.814 E0.0919
G1 X-8.611 Y3.203 E0.11168
G1 X-8.987 Y3.349 E0.12174
G1 X-9.667 Y3.475 E0.13899
G1 X-10.028 Y3.499 E0.14801
G1 X-10.767 Y3.405 E0.1666
G1 X-11.041 Y3.341 E0.17362
G1 X-11.792 Y2.996 E0.19423
G1 X-12.313 Y2.615 E0.21033
G1 X-12.796 Y2.105 E0.22785
G1 X-13.204 Y1.389 E0.24841
G1 X-13.406 Y0.767 E0.26472
G1 X-13.5 Y0.03 E0.28326
G1 X-13.406 Y-.765 E0.30323
G1 X-13.331 Y-1.075 E0.31118
G1 X-13.007 Y-1.776 E0.33045
G1 X-12.796 Y-2.105 E0.3402
G1 X-12.313 Y-2.615 E0.35772
G1 X-11.79 Y-2.997 E0.37388
G1 X-11.049 Y-3.339 E0.39423
G1 X-10.338 Y-3.474 E0.41229
G1 X-9.974 Y-3.499 E0.42139
G1 X-9.24 Y-3.407 E0.43984
G1 X-8.937 Y-3.334 E0.44762
G1 X-8.221 Y-3.004 E0.46728
G1 X-7.877 Y-2.781 E0.47751
G1 X-7.388 Y-2.316 E0.49434
G1 X-7.187 Y-2.081 E0.50205
G1 X-6.798 Y-1.39 E0.52184
G1 X-6.652 Y-1.014 E0.5319
G1 X-6.527 Y-.339 E0.54902
G1 X-6.502 Y0.027 E0.55817
G0 X-6.823 Y0.286
G1 X-6.94 Y0.928 E0.57445
G1 X-7.262 Y1.64 E0.59394
G1 X-7.598 Y2.102 E0.60819
G1 X-8.059 Y2.543 E0.62411
G1 X-8.747 Y2.936 E0.64387
G1 X-9.288 Y3.11 E0.65805
G1 X-9.974 Y3.199 E0.6753
G1 X-10.719 Y3.109 E0.69402
G1 X-11.271 Y2.929 E0.70851
G1 X-11.878 Y2.59 E0.72585
G1 X-12.401 Y2.104 E0.74366
G1 X-12.739 Y1.64 E0.75798
G1 X-13.046 Y0.978 E0.77618
G1 X-13.179 Y0.295 E0.79354
G1 X-13.179 Y-.29 E0.80813
G1 X-13.059 Y-.938 E0.82457
G1 X-12.739 Y-1.64 E0.84382
G1 X-12.401 Y-2.104 E0.85814
G1 X-11.921 Y-2.558 E0.87462
G1 X-11.268 Y-2.93 E0.89337
G1 X-10.719 Y-3.109 E0.90777
G1 X-10.028 Y-3.199 E0.92515
G1 X-9.974 Y-3.199 E0.9265
G1 X-9.288 Y-3.11 E0.94376
G1 X-8.747 Y-2.936 E0.95793
G1 X-8.102 Y-2.576 E0.97636
G1 X-7.6 Y-2.104 E0.99355
G1 X-7.264 Y-1.644 E1.00776
G1 X-6.955 Y-.978 E1.02607
G1 X-6.823 Y-.291 E1.04352
G1 X-6.823 Y0.286 E1.05791
G0 X-7.119 Y0.239
G1 X-7.227 Y0.842 E1.0732
G1 X-7.529 Y1.503 E1.09132
G1 X-7.81 Y1.89 E1.10325
G1 X-8.242 Y2.305 E1.1182
G1 X-8.883 Y2.669 E1.13659
G1 X-9.335 Y2.814 E1.14843
G1 X-9.974 Y2.899 E1.16451
G1 X-10.671 Y2.813 E1.18203
G1 X-11.132 Y2.663 E1.19412
G1 X-11.699 Y2.349 E1.21029
G1 X-12.189 Y1.891 E1.22702
G1 X-12.472 Y1.503 E1.239
G1 X-12.759 Y0.892 E1.25584
G1 X-12.882 Y0.247 E1.27222
G1 X-12.883 Y-.242 E1.28441
G1 X-12.772 Y-.85 E1.29983
G1 X-12.472 Y-1.503 E1.31776
G1 X-12.189 Y-1.891 E1.32974
G1 X-11.742 Y-2.317 E1.34514
G1 X-11.13 Y-2.664 E1.36269
G1 X-10.671 Y-2.813 E1.37473
G1 X-10.028 Y-2.899 E1.39091
G1 X-9.974 Y-2.899 E1.39226
G1 X-9.335 Y-2.814 E1.40834
G1 X-8.883 Y-2.669 E1.42018
G1 X-8.285 Y-2.338 E1.43723
G1 X-7.812 Y-1.892 E1.45345
G1 X-7.531 Y-1.508 E1.46532
G1 X-7.242 Y-.892 E1.48229
G1 X-7.119 Y-.244 E1.49874
G1 X-7.119 Y0.239 E1.51079
G0 X-7.415 Y0.192
G1 X-7.514 Y0.756 E1.52507
G1 X-7.796 Y1.367 E1.54186
G1 X-8.023 Y1.677 E1.55145
G1 X-8.425 Y2.067 E1.56542
G1 X-9.02 Y2.401 E1.58244
G1 X-9.382 Y2.518 E1.59193
G1 X-9.974 Y2.599 E1.60683
G1 X-10.624 Y2.517 E1.62318
G1 X-10.994 Y2.397 E1.63288
G1 X-11.52 Y2.108 E1.64785
G1 X-11.977 Y1.679 E1.66349
G1 X-12.205 Y1.367 E1.67313
G1 X-12.472 Y0.806 E1.68862
G1 X-12.586 Y0.199 E1.70403
G1 X-12.587 Y-.194 E1.71383
G1 X-12.485 Y-.762 E1.72823
G1 X-12.205 Y-1.367 E1.74486
G1 X-11.977 Y-1.679 E1.7545
G1 X-11.563 Y-2.076 E1.76881
G1 X-10.992 Y-2.397 E1.78515
G1 X-10.624 Y-2.517 E1.7948
G1 X-10.028 Y-2.599 E1.80981
G1 X-9.974 Y-2.599 E1.81116
G1 X-9.382 Y-2.518 E1.82606
G1 X-9.02 Y-2.401 E1.83555
G1 X-8.468 Y-2.1 E1.85124
G1 X-8.025 Y-1.679 E1.86648
G1 X-7.799 Y-1.371 E1.87601
G1 X-7.529 Y-.806 E1.89163
G1 X-7.415 Y-.196 E1.90711
G1 X-7.415 Y0.192 E1.91679
G0 X-7.711 Y0.145
G1 X-7.802 Y0.67 E1.93008
G1 X-8.064 Y1.231 E1.94553
G1 X-8.235 Y1.465 E1.95276
G1 X-8.607 Y1.829 E1.96574
G1 X-9.156 Y2.134 E1.9814
G1 X-9.429 Y2.222 E1.98856
G1 X-9.974 Y2.299 E2.00229
G1 X-10.576 Y2.22 E2.01744
G1 X-10.856 Y2.131 E2.02476
G1 X-11.341 Y1.868 E2.03853
G1 X-11.765 Y1.466 E2.0531
G1 X-11.937 Y1.231 E2.06037
G1 X-12.184 Y0.72 E2.07452
G1 X-12.29 Y0.15 E2.08899
G1 X-12.29 Y-.146 E2.09637
G1 X-12.198 Y-.675 E2.10976
G1 X-11.937 Y-1.231 E2.12509
G1 X-11.765 Y-1.466 E2.13235
G1 X-11.384 Y-1.836 E2.1456
G1 X-10.854 Y-2.131 E2.16073
G1 X-10.576 Y-2.22 E2.16801
G1 X-10.028 Y-2.299 E2.18182
G1 X-9.974 Y-2.299 E2.18317
G1 X-9.429 Y-2.222 E2.1969
G1 X-9.156 Y-2.134 E2.20405
G1 X-8.65 Y-1.862 E2.21839
G1 X-8.237 Y-1.467 E2.23264
G1 X-8.066 Y-1.235 E2.23983
G1 X-7.817 Y-.72 E2.2541
G1 X-7.711 Y-.149 E2.26859
G1 X-7.711 Y0.145 E2.27592
G0 X-8.008 Y-.101
G1 X-8.076 Y0.525 E2.29163
G1 X-8.331 Y1.095 E2.3072
G1 X-8.746 Y1.552 E2.3226
G1 X-9.292 Y1.867 E2.33833
G1 X-9.903 Y1.993 E2.35389
G1 X-10.528 Y1.924 E2.36958
G1 X-10.717 Y1.864 E2.37452
G1 X-11.162 Y1.627 E2.3871
G1 X-11.554 Y1.254 E2.4006
G1 X-11.867 Y0.708 E2.4163
G1 X-11.994 Y0.102 E2.43174
G1 X-11.925 Y-.527 E2.44753
G1 X-11.67 Y-1.095 E2.46306
G1 X-11.254 Y-1.553 E2.47849
G1 X-10.716 Y-1.865 E2.494
G1 X-10.099 Y-1.993 E2.50972
G1 X-9.974 Y-1.999 E2.51285
G1 X-9.476 Y-1.925 E2.5254
G1 X-8.902 Y-1.668 E2.54109
G1 X-8.449 Y-1.255 E2.55638
G1 X-8.134 Y-.709 E2.57211
G1 X-8.008 Y-.101 E2.5876
G0 X-8.302 Y0.027
G1 X-8.391 Y0.547 E2.60076
G1 X-8.645 Y1.025 E2.61426
G1 X-9.016 Y1.386 E2.62717
G1 X-9.504 Y1.625 E2.64073
G1 X-10.028 Y1.699 E2.65393
G1 X-10.551 Y1.609 E2.66717
G1 X-11.026 Y1.354 E2.68061
G1 X-11.389 Y0.981 E2.6936
G1 X-11.625 Y0.497 E2.70703
G1 X-11.7 Y-0.027 E2.72023
G1 X-11.609 Y-.548 E2.73343
G1 X-11.356 Y-1.025 E2.7469
G1 X-10.983 Y-1.386 E2.75985
G1 X-10.499 Y-1.624 E2.7733
G1 X-9.974 Y-1.699 E2.78653
G1 X-9.454 Y-1.61 E2.79969
G1 X-8.973 Y-1.353 E2.81329
G1 X-8.615 Y-.985 E2.8261
G1 X-8.376 Y-.497 E2.83965
G1 X-8.302 Y0.027 E2.85286
G1 F1800 E-2.14714
G0 F900 X-5.448 Y-0.046
G1 F1800 E2.86408
G1 F900 X-5.431 Y-.343 E2.8715
G1 X-5.363 Y-.849 E2.88424
G1 X-5.252 Y-1.292 E2.89563
G1 X-5.029 Y-1.888 E2.9115
G1 X-4.891 Y-2.15 E2.91889
G1 X-4.624 Y-2.577 E2.93145
G1 X-4.344 Y-2.935 E2.94279
G1 X-3.903 Y-3.381 E2.95844
G1 X-3.652 Y-3.577 E2.96638
G1 X-3.232 Y-3.855 E2.97894
G1 X-2.833 Y-4.064 E2.99018
G1 X-2.358 Y-4.249 E3.0029
G1 X-1.865 Y-4.377 E3.0156
G1 X-1.248 Y-4.458 E3.03112
G1 X-.698 Y-4.458 E3.04484
G1 X-0.081 Y-4.377 E3.06037
G1 X0.413 Y-4.249 E3.0731
G1 X0.887 Y-4.064 E3.08579
G1 X1.285 Y-3.855 E3.097
G1 X1.705 Y-3.577 E3.10957
G1 X2.055 Y-3.286 E3.12092
G1 X2.517 Y-2.798 E3.13769
G1 X2.677 Y-2.577 E3.14449
G1 X2.944 Y-2.15 E3.15705
G1 X3.136 Y-1.756 E3.16799
G1 X3.363 Y-1.11 E3.18507
G1 X3.415 Y-.85 E3.19168
G1 X3.483 Y-.347 E3.20434
G1 X3.495 Y0.105 E3.21562
G1 X3.424 Y0.829 E3.23377
G1 X3.227 Y1.528 E3.25189
G1 X3.057 Y1.93 E3.26277
G1 X2.817 Y2.369 E3.27525
G1 X2.555 Y2.744 E3.28667
G1 X2.225 Y3.123 E3.2992
G1 X1.888 Y3.433 E3.31062
G1 X1.412 Y3.783 E3.32536
G1 X0.662 Y4.16 E3.3463
G1 X0.23 Y4.304 E3.35766
G1 X-.263 Y4.412 E3.37025
G1 X-.718 Y4.462 E3.38167
G1 X-1.228 Y4.462 E3.39439
G1 X-1.682 Y4.412 E3.40578
G1 X-2.176 Y4.304 E3.4184
G1 X-2.609 Y4.16 E3.42978
G1 X-3.271 Y3.84 E3.44812
G1 X-3.831 Y3.437 E3.46533
G1 X-4.167 Y3.126 E3.47675
G1 X-4.5 Y2.745 E3.48938
G1 X-4.759 Y2.376 E3.50062
G1 X-5.082 Y1.774 E3.51766
G1 X-5.319 Y1.046 E3.53676
G1 X-5.403 Y0.601 E3.54806
G1 X-5.448 Y-0.046 E3.56424
G0 X-5.148 Y-0.046
G1 X-5.133 Y-.303 E3.57066
G1 X-5.065 Y-.809 E3.58339
G1 X-4.97 Y-1.189 E3.59317
G1 X-4.756 Y-1.764 E3.60847
G1 X-4.637 Y-1.991 E3.61486
G1 X-4.37 Y-2.418 E3.62743
G1 X-4.129 Y-2.726 E3.63718
G1 X-3.703 Y-3.157 E3.6523
G1 X-3.487 Y-3.327 E3.65916
G1 X-3.067 Y-3.605 E3.67172
G1 X-2.724 Y-3.785 E3.68138
G1 X-2.249 Y-3.97 E3.6941
G1 X-1.826 Y-4.08 E3.705
G1 X-1.209 Y-4.161 E3.72052
G1 X-.737 Y-4.161 E3.7323
G1 X-.12 Y-4.08 E3.74782
G1 X0.304 Y-3.969 E3.75875
G1 X0.778 Y-3.784 E3.77145
G1 X1.12 Y-3.605 E3.78108
G1 X1.54 Y-3.327 E3.79364
G1 X1.839 Y-3.077 E3.80336
G1 X2.283 Y-2.61 E3.81944
G1 X2.423 Y-2.418 E3.82536
G1 X2.69 Y-1.991 E3.83793
G1 X2.854 Y-1.653 E3.8473
G1 X3.072 Y-1.035 E3.86364
G1 X3.118 Y-.81 E3.86937
G1 X3.186 Y-.307 E3.88204
G1 X3.196 Y0.082 E3.89174
G1 X3.13 Y0.771 E3.90901
G1 X2.94 Y1.441 E3.92638
G1 X2.794 Y1.786 E3.93573
G1 X2.554 Y2.225 E3.94821
G1 X2.328 Y2.547 E3.95802
G1 X1.998 Y2.926 E3.97055
G1 X1.71 Y3.192 E3.98033
G1 X1.245 Y3.534 E3.99473
G1 X0.537 Y3.888 E4.01448
G1 X0.166 Y4.011 E4.02423
G1 X-.327 Y4.119 E4.03682
G1 X-.718 Y4.162 E4.04663
G1 X-1.228 Y4.162 E4.05935
G1 X-1.618 Y4.119 E4.06914
G1 X-2.112 Y4.011 E4.08175
G1 X-2.484 Y3.888 E4.09153
G1 X-3.113 Y3.585 E4.10894
G1 X-3.653 Y3.196 E4.12555
G1 X-3.941 Y2.929 E4.13534
G1 X-4.274 Y2.548 E4.14796
G1 X-4.497 Y2.231 E4.15763
G1 X-4.806 Y1.655 E4.17394
G1 X-5.032 Y0.96 E4.19217
G1 X-5.104 Y0.577 E4.20189
G1 X-5.148 Y-0.046 E4.21747
G0 X-4.844 Y0.06
G1 X-4.836 Y-.263 E4.22553
G1 X-4.768 Y-.769 E4.23827
G1 X-4.52 Y-1.547 E4.25863
G1 X-4.383 Y-1.832 E4.26652
G1 X-4.116 Y-2.259 E4.27909
G1 X-3.571 Y-2.868 E4.29947
G1 X-3.321 Y-3.077 E4.3076
G1 X-2.901 Y-3.355 E4.32016
G1 X-2.615 Y-3.505 E4.32822
G1 X-2.14 Y-3.69 E4.34094
G1 X-1.787 Y-3.783 E4.35004
G1 X-1.17 Y-3.864 E4.36557
G1 X-.776 Y-3.864 E4.37539
G1 X-.159 Y-3.783 E4.39092
G1 X0.195 Y-3.69 E4.40005
G1 X0.669 Y-3.505 E4.41274
G1 X0.954 Y-3.355 E4.42077
G1 X1.374 Y-3.077 E4.43334
G1 X1.967 Y-2.515 E4.45372
G1 X2.169 Y-2.259 E4.46185
G1 X2.436 Y-1.832 E4.47442
G1 X2.742 Y-1.089 E4.49446
G1 X2.821 Y-.77 E4.50266
G1 X2.889 Y-.267 E4.51532
G1 X2.858 Y0.553 E4.53579
G1 X2.652 Y1.354 E4.55642
G1 X2.531 Y1.643 E4.56424
G1 X2.291 Y2.082 E4.57672
G1 X2.102 Y2.35 E4.5849
G1 X1.772 Y2.729 E4.59743
G1 X1.135 Y3.245 E4.61788
G1 X0.412 Y3.615 E4.63814
G1 X0.102 Y3.718 E4.64629
G1 X-.391 Y3.826 E4.65888
G1 X-.718 Y3.862 E4.66709
G1 X-1.228 Y3.862 E4.67981
G1 X-1.554 Y3.826 E4.68799
G1 X-2.048 Y3.718 E4.7006
G1 X-2.806 Y3.41 E4.72101
G1 X-3.474 Y2.955 E4.74117
G1 X-3.715 Y2.731 E4.74938
G1 X-4.048 Y2.35 E4.762
G1 X-4.473 Y1.654 E4.78235
G1 X-4.744 Y0.874 E4.80295
G1 X-4.844 Y0.06 E4.8234
G0 X-4.545 Y0.037
G1 X-4.539 Y-.223 E4.82989
G1 X-4.471 Y-.729 E4.84263
G1 X-4.239 Y-1.445 E4.8614
G1 X-4.128 Y-1.673 E4.86773
G1 X-3.861 Y-2.1 E4.88029
G1 X-3.356 Y-2.659 E4.89908
G1 X-3.156 Y-2.827 E4.9056
G1 X-2.736 Y-3.105 E4.91816
G1 X-2.506 Y-3.225 E4.92463
G1 X-2.031 Y-3.41 E4.93735
G1 X-1.748 Y-3.485 E4.94465
G1 X-1.131 Y-3.566 E4.96017
G1 X-.815 Y-3.566 E4.96806
G1 X-.198 Y-3.485 E4.98358
G1 X0.086 Y-3.41 E4.99091
G1 X0.56 Y-3.225 E5.0036
G1 X0.789 Y-3.105 E5.01005
G1 X1.209 Y-2.827 E5.02261
G1 X1.752 Y-2.306 E5.04139
G1 X1.914 Y-2.1 E5.04792
G1 X2.181 Y-1.673 E5.06049
G1 X2.46 Y-.985 E5.07901
G1 X2.524 Y-.73 E5.08556
G1 X2.592 Y-.227 E5.09822
G1 X2.559 Y0.529 E5.1171
G1 X2.365 Y1.267 E5.13614
G1 X2.267 Y1.499 E5.14242
G1 X2.027 Y1.938 E5.1549
G1 X1.876 Y2.153 E5.16145
G1 X1.546 Y2.532 E5.17399
G1 X0.956 Y3.004 E5.19284
G1 X0.287 Y3.342 E5.21153
G1 X0.038 Y3.425 E5.21808
G1 X-.455 Y3.533 E5.23067
G1 X-.718 Y3.562 E5.23727
G1 X-1.228 Y3.562 E5.24999
G1 X-1.49 Y3.533 E5.25657
G1 X-1.984 Y3.425 E5.26918
G1 X-2.681 Y3.137 E5.288
G1 X-3.295 Y2.714 E5.30659
G1 X-3.49 Y2.534 E5.31321
G1 X-3.823 Y2.153 E5.32584
G1 X-4.211 Y1.508 E5.34461
G1 X-4.457 Y0.788 E5.36359
G1 X-4.545 Y0.037 E5.38245
G0 X-4.246 Y0.013
G1 X-4.241 Y-.183 E5.38735
G1 X-4.173 Y-.689 E5.40008
G1 X-3.957 Y-1.342 E5.41724
G1 X-3.874 Y-1.514 E5.422
G1 X-3.607 Y-1.941 E5.43456
G1 X-3.141 Y-2.449 E5.45176
G1 X-2.99 Y-2.576 E5.45668
G1 X-2.533 Y-2.878 E5.47035
G1 X-2.397 Y-2.946 E5.47414
G1 X-1.922 Y-3.131 E5.48686
G1 X-1.709 Y-3.188 E5.49236
G1 X-1.092 Y-3.269 E5.50788
G1 X-.854 Y-3.269 E5.51382
G1 X-.237 Y-3.188 E5.52934
G1 X-0.023 Y-3.131 E5.53486
G1 X0.451 Y-2.946 E5.54756
G1 X0.623 Y-2.854 E5.55242
G1 X1.043 Y-2.576 E5.56499
G1 X1.537 Y-2.097 E5.58215
G1 X1.66 Y-1.941 E5.58711
G1 X1.927 Y-1.514 E5.59967
G1 X2.178 Y-.882 E5.61663
G1 X2.226 Y-.689 E5.62159
G1 X2.294 Y-.186 E5.63425
G1 X2.26 Y0.506 E5.65154
G1 X2.078 Y1.181 E5.66898
G1 X2.004 Y1.355 E5.67369
G1 X1.764 Y1.794 E5.68617
G1 X1.65 Y1.956 E5.69112
G1 X1.32 Y2.335 E5.70365
G1 X0.777 Y2.763 E5.7209
G1 X0.162 Y3.07 E5.73804
G1 X-0.027 Y3.132 E5.74301
G1 X-.52 Y3.24 E5.7556
G1 X-.718 Y3.262 E5.76057
G1 X-1.228 Y3.262 E5.77329
G1 X-1.426 Y3.24 E5.77826
G1 X-1.92 Y3.132 E5.79087
G1 X-2.556 Y2.865 E5.80808
G1 X-3.117 Y2.473 E5.82515
G1 X-3.264 Y2.337 E5.83015
G1 X-3.597 Y1.956 E5.84277
G1 X-3.948 Y1.363 E5.85996
G1 X-4.169 Y0.701 E5.87737
G1 X-4.246 Y0.013 E5.89464
G0 X-3.947 Y-0.011
G1 X-3.944 Y-.143 E5.89793
G1 X-3.876 Y-.649 E5.91067
G1 X-3.675 Y-1.239 E5.92621
G1 X-3.62 Y-1.355 E5.92942
G1 X-3.353 Y-1.782 E5.94198
G1 X-2.926 Y-2.24 E5.9576
G1 X-2.824 Y-2.326 E5.96093
G1 X-2.382 Y-2.618 E5.97414
G1 X-2.288 Y-2.666 E5.97677
G1 X-1.782 Y-2.862 E5.99031
G1 X-1.67 Y-2.89 E5.99319
G1 X-1.053 Y-2.971 E6.00871
G1 X-.893 Y-2.971 E6.0127
G1 X-.276 Y-2.89 E6.02823
G1 X-.132 Y-2.851 E6.03195
G1 X0.342 Y-2.666 E6.04464
G1 X0.457 Y-2.604 E6.0479
G1 X0.877 Y-2.326 E6.06047
G1 X1.322 Y-1.888 E6.07604
G1 X1.406 Y-1.782 E6.07941
G1 X1.673 Y-1.355 E6.09198
G1 X1.897 Y-.779 E6.10739
G1 X1.929 Y-.649 E6.11073
G1 X1.997 Y-.146 E6.12339
G1 X1.961 Y0.482 E6.13909
G1 X1.791 Y1.094 E6.15493
G1 X1.741 Y1.211 E6.1581
G1 X1.501 Y1.65 E6.17058
G1 X1.423 Y1.759 E6.17393
G1 X1.093 Y2.138 E6.18646
G1 X0.598 Y2.522 E6.20209
G1 X0.037 Y2.797 E6.21768
G1 X-0.091 Y2.839 E6.22104
G1 X-.584 Y2.947 E6.23363
G1 X-.718 Y2.962 E6.23699
G1 X-1.228 Y2.962 E6.24971
G1 X-1.362 Y2.947 E6.25308
G1 X-1.856 Y2.839 E6.26569
G1 X-2.431 Y2.592 E6.2813
G1 X-2.938 Y2.232 E6.29681
G1 X-3.038 Y2.139 E6.30022
G1 X-3.371 Y1.758 E6.31284
G1 X-3.686 Y1.218 E6.32844
G1 X-3.882 Y0.615 E6.34425
G1 X-3.947 Y-0.011 E6.35995
G0 X-3.648 Y-0.034
G1 X-3.647 Y-.103 E6.36167
G1 X-3.579 Y-.609 E6.37441
G1 X-3.393 Y-1.136 E6.38835
G1 X-3.365 Y-1.196 E6.39
G1 X-3.09 Y-1.635 E6.40292
G1 X-2.711 Y-2.031 E6.4166
G1 X-2.659 Y-2.076 E6.41831
G1 X-2.231 Y-2.359 E6.43111
G1 X-2.179 Y-2.387 E6.43258
G1 X-1.694 Y-2.575 E6.44556
G1 X-1.631 Y-2.593 E6.44719
G1 X-1.014 Y-2.674 E6.46272
G1 X-.932 Y-2.674 E6.46476
G1 X-.315 Y-2.593 E6.48029
G1 X-.241 Y-2.572 E6.48221
G1 X0.233 Y-2.387 E6.4949
G1 X0.292 Y-2.354 E6.49658
G1 X0.729 Y-2.063 E6.50968
G1 X1.107 Y-1.679 E6.52312
G1 X1.151 Y-1.623 E6.5249
G1 X1.428 Y-1.178 E6.53797
G1 X1.615 Y-.676 E6.55134
G1 X1.632 Y-.609 E6.55306
G1 X1.7 Y-.106 E6.56572
G1 X1.662 Y0.459 E6.57985
G1 X1.504 Y1.007 E6.59408
G1 X1.478 Y1.067 E6.59571
G1 X1.226 Y1.525 E6.60875
G1 X1.197 Y1.562 E6.60992
G1 X0.854 Y1.954 E6.62291
G1 X0.419 Y2.281 E6.63649
G1 X-0.088 Y2.524 E6.65051
G1 X-.155 Y2.546 E6.65227
G1 X-.66 Y2.656 E6.66516
G1 X-.718 Y2.662 E6.66662
G1 X-1.248 Y2.661 E6.67984
G1 X-1.298 Y2.654 E6.6811
G1 X-1.804 Y2.542 E6.69403
G1 X-2.306 Y2.319 E6.70773
G1 X-2.759 Y1.991 E6.72168
G1 X-2.812 Y1.942 E6.72348
G1 X-3.155 Y1.548 E6.73651
G1 X-3.423 Y1.073 E6.75012
G1 X-3.595 Y0.529 E6.76435
G1 X-3.648 Y-0.034 E6.77846
G1 F1800 E1.77846
G0 F900 X4.552 Y-0.046
G1 F1800 E6.78968
G1 F900 X4.569 Y-.343 E6.7971
G1 X4.637 Y-.849 E6.80984
G1 X4.748 Y-1.292 E6.82123
G1 X4.971 Y-1.888 E6.8371
G1 X5.109 Y-2.15 E6.84449
G1 X5.376 Y-2.577 E6.85705
G1 X5.656 Y-2.935 E6.86839
G1 X6.097 Y-3.381 E6.88404
G1 X6.348 Y-3.577 E6.89198
G1 X6.768 Y-3.855 E6.90454
G1 X7.167 Y-4.064 E6.91578
G1 X7.642 Y-4.249 E6.9285
G1 X8.135 Y-4.377 E6.9412
G1 X8.752 Y-4.458 E6.95673
G1 X9.302 Y-4.458 E6.97044
G1 X9.919 Y-4.377 E6.98597
G1 X10.413 Y-4.249 E6.9987
G1 X10.887 Y-4.064 E7.01139
G1 X11.285 Y-3.855 E7.0226
G1 X11.705 Y-3.577 E7.03517
G1 X12.055 Y-3.286 E7.04652
G1 X12.517 Y-2.798 E7.06329
G1 X12.677 Y-2.577 E7.07009
G1 X12.944 Y-2.15 E7.08265
G1 X13.136 Y-1.756 E7.09359
G1 X13.363 Y-1.11 E7.11067
G1 X13.415 Y-.85 E7.11728
