;FLAVOR:Marlin
;TIME:475
;Filament used: 0.0905214m
;Layer height: 0.1
;MINX:-13.334
;MINY:-4.298
;MINZ:0.24
;MAXX:13.337
;MAXY:4.286
;MAXZ:9.69
;Generated with Cura_SteamEngine 4.13.1
M140 S60
M105
M190 S60
M104 S205
M105
M109 S205
M82 ;absolute extrusion mode
G28 ;Home
G1 Z15.0 F6000 ;Move the platform down 15mm
;Prime the extruder
G92 E0
G1 F200 E3
G92 E0
G92 E0
G92 E0
G1 F1800 E-5
;LAYER_COUNT:89
;LAYER:-7
M107
G0 F2100 X1.679 Y-3.262 Z0.24
;TYPE:SUPPORT-INTERFACE
G1 F1800 E0.01123
G1 F787.5 X2.296 Y-3.002 E0.05131
G1 X2.942 Y-2.822 E0.09146
G1 X3.605 Y-2.725 E0.13157
G1 X4.275 Y-2.713 E0.17169
G1 X4.941 Y-2.785 E0.2118
G1 X5.593 Y-2.941 E0.25193
G1 X6.222 Y-3.178 E0.29217
G1 X7.006 Y-3.614 E0.34588
G1 X7.693 Y-3.916 E0.39081
G1 X8.208 Y-4.056 E0.42276
G1 X8.709 Y-4.135 E0.45312
G1 X9.234 Y-4.138 E0.48455
G1 X9.294 Y-4.132 E0.48816
G1 X9.836 Y-4.059 E0.52091
G1 X10.409 Y-3.908 E0.55638
G1 X10.875 Y-3.715 E0.58658
G1 X11.442 Y-3.372 E0.62625
G1 X11.877 Y-3.016 E0.6599
G1 X12.271 Y-2.597 E0.69434
G1 X12.632 Y-2.058 E0.73318
G1 X12.867 Y-1.576 E0.76528
G1 X13.06 Y-1.017 E0.80068
G1 X13.079 Y-.939 E0.80549
G1 X13.16 Y-.394 E0.83848
G1 X13.18 Y0.117 E0.86909
G1 X13.136 Y0.636 E0.90028
G1 X12.951 Y1.356 E0.94478
G1 X12.756 Y1.826 E0.97524
G1 X12.478 Y2.316 E1.00897
G1 X12.042 Y2.851 E1.05029
G1 X11.672 Y3.198 E1.08066
G1 X11.26 Y3.499 E1.11121
G1 X10.572 Y3.847 E1.15737
G1 X10.066 Y4.01 E1.18919
G1 X9.57 Y4.112 E1.21951
G1 X8.875 Y4.136 E1.26114
G1 X8.355 Y4.084 E1.29243
G1 X7.853 Y3.971 E1.32323
G1 X7.151 Y3.686 E1.36859
G1 X6.58 Y3.36 E1.40796
G1 X6.314 Y3.228 E1.42573
G1 X5.692 Y2.978 E1.46587
G1 X5.043 Y2.81 E1.506
G1 X4.378 Y2.725 E1.54614
G1 X3.708 Y2.725 E1.58625
G1 X3.043 Y2.809 E1.62638
G1 X2.394 Y2.976 E1.6665
G1 X1.771 Y3.224 E1.70664
G1 X1.119 Y3.589 E1.75138
G1 X0.572 Y3.847 E1.78759
G1 X0.066 Y4.01 E1.81941
G1 X-.43 Y4.112 E1.84973
G1 X-1.125 Y4.136 E1.89136
G1 X-1.645 Y4.084 E1.92265
G1 X-2.147 Y3.971 E1.95346
G1 X-2.849 Y3.686 E1.99881
G1 X-3.182 Y3.499 E2.02168
G1 X-3.596 Y3.213 E2.0518
G1 X-3.803 Y3.091 E2.06619
G1 X-4.406 Y2.797 E2.10635
G1 X-5.04 Y2.582 E2.14643
G1 X-5.697 Y2.448 E2.18657
G1 X-6.365 Y2.398 E2.22668
G1 X-7.035 Y2.433 E2.26684
G1 X-7.699 Y2.554 E2.30725
G1 X-8.607 Y2.87 E2.36481
G1 X-9.114 Y3.071 E2.39746
G1 X-9.608 Y3.162 E2.42753
G1 X-10.173 Y3.184 E2.46138
G1 X-10.784 Y3.09 E2.49839
G1 X-11.143 Y2.974 E2.52098
G1 X-11.694 Y2.698 E2.55788
G1 X-12.167 Y2.324 E2.59398
G1 X-12.523 Y1.942 E2.62524
G1 X-12.87 Y1.356 E2.66601
G1 X-13.054 Y0.894 E2.69578
G1 X-13.15 Y0.382 E2.72697
G1 X-13.172 Y-.192 E2.76136
G1 X-13.081 Y-.783 E2.79716
G1 X-12.967 Y-1.144 E2.81982
G1 X-12.693 Y-1.694 E2.85661
G1 X-12.455 Y-2.023 E2.88092
G1 X-12.011 Y-2.467 E2.91851
G1 X-11.539 Y-2.783 E2.95252
G1 X-11.048 Y-3.013 E2.98498
G1 X-10.389 Y-3.159 E3.02539
G1 X-9.801 Y-3.185 E3.06062
G1 X-9.214 Y-3.095 E3.09618
G1 X-8.819 Y-2.967 E3.12104
G1 X-8.605 Y-2.87 E3.1351
G1 X-7.988 Y-2.635 E3.17463
G1 X-7.336 Y-2.479 E3.21477
G1 X-6.67 Y-2.405 E3.25488
G1 X-6 Y-2.416 E3.295
G1 X-5.336 Y-2.512 E3.33517
G1 X-4.691 Y-2.691 E3.37524
G1 X-4.071 Y-2.95 E3.41547
G1 X-3.698 Y-3.152 E3.44086
G1 X-2.994 Y-3.614 E3.49128
G1 X-2.307 Y-3.916 E3.5362
G1 X-1.792 Y-4.056 E3.56815
G1 X-1.291 Y-4.135 E3.59852
G1 X-.766 Y-4.138 E3.62995
G1 X-.706 Y-4.132 E3.63356
G1 X-.164 Y-4.059 E3.6663
G1 X0.409 Y-3.908 E3.70178
G1 X0.875 Y-3.715 E3.73197
G1 X1.427 Y-3.389 E3.77035
G1 X1.679 Y-3.262 E3.78725
G0 F2100 X1.2 Y-3.523
G1 F787.5 X1.2 Y3.544 E4.21034
G0 F2100 X0.00 Y4.024
G1 F787.5 X0.00 Y-4.015 E4.69162
G0 F2100 X-1.2 Y-4.136
G1 F787.5 X-1.2 Y4.128 E5.18637
G0 F2100 X-2.4 Y3.868
G1 F787.5 X-2.4 Y-3.876 E5.64999
G0 F2100 X-3.6 Y-3.217
G1 F787.5 X-3.6 Y3.21 E6.03476
G0 F2100 X-4.8 Y2.663
G1 F787.5 X-4.8 Y-2.661 E6.3535
G0 F2100 X-6 Y-2.416
G1 F787.5 X-6 Y2.425 E6.64332
G0 F2100 X-7.2 Y2.464
G1 F787.5 X-7.2 Y-2.463 E6.93829
G0 F2100 X-8.4 Y-2.791
G1 F787.5 X-8.4 Y2.798 E7.2729
G0 F2100 X-9.6 Y3.161
G1 F787.5 X-9.6 Y-3.154 E7.65097
G0 F2100 X-10.8 Y-3.068
G1 F787.5 X-10.8 Y3.084 E8.01928
G0 F2100 X-12 Y2.456
G1 F787.5 X-12 Y-2.475 E8.31449
G0 F2100 X2.4 Y-2.973
G1 F787.5 X2.4 Y2.975 E8.67058
G0 F2100 X3.6 Y2.739
G1 F787.5 X3.6 Y-2.725 E8.9977
G0 F2100 X4.8 Y-2.77
G1 F787.5 X4.8 Y2.778 E9.32985
G0 F2100 X6 Y3.101
G1 F787.5 X6 Y-3.095 E9.70079
G0 F2100 X7.2 Y-3.7
G1 F787.5 X7.2 Y3.705 E10.14412
G0 F2100 X8.4 Y4.088
G1 F787.5 X8.4 Y-4.087 E10.63354
G0 F2100 X9.6 Y-4.09
G1 F787.5 X9.6 Y4.106 E11.12422
G0 F2100 X10.8 Y3.732
G1 F787.5 X10.8 Y-3.746 E11.57192
G0 F2100 X12 Y-2.885
G1 F787.5 X12 Y2.891 E11.91772
G1 F1800 E6.91772
G0 F600 X12 Y2.891 Z0.39
G0 F2100 X11.353 Y3.433
;TIME_ELAPSED:18.694049
;LAYER:-6
;TYPE:SUPPORT
G1 F1800 E11.92894
G1 F787.5 X11.671 Y3.197 E11.94376
G1 X11.822 Y3.075 E11.95102
G1 X11.883 Y3.017 E11.95417
G1 X11.974 Y2.923 E11.95907
G1 X5.968 Y-3.082 E12.27686
G1 X6.221 Y-3.177 E12.28697
G1 X6.624 Y-3.401 E12.30422
G1 X6.637 Y-3.38 E12.30515
G1 X6.738 Y-3.443 E12.3096
G1 X12.485 Y2.303 E12.61368
G1 X12.578 Y2.148 E12.62045
G1 X12.755 Y1.826 E12.6342
G1 X12.802 Y1.733 E12.6381
G1 X12.853 Y1.629 E12.64243
G1 X12.877 Y1.564 E12.64502
G1 X7.481 Y-3.831 E12.93053
G1 X7.793 Y-3.954 E12.94308
G1 X7.85 Y-3.973 E12.94533
G1 X7.947 Y-4 E12.9491
G1 X8.058 Y-4.026 E12.95336
G1 X8.206 Y-4.055 E12.95901
G1 X8.364 Y-4.08 E12.96499
G1 X13.128 Y0.683 E13.21706
G1 X13.128 Y0.68
G1 X13.147 Y0.514 E13.22331
G1 X13.179 Y0.117 E13.23822
G1 X13.186 Y-0.021 E13.24339
G1 X13.181 Y-.147 E13.2481
G1 X13.158 Y-.393 E13.25735
G1 X13.155 Y-.421 E13.2584
G1 X9.467 Y-4.108 E13.45353
G1 X9.835 Y-4.059 E13.46742
G1 X10.021 Y-4.026 E13.47449
G1 X10.136 Y-3.997 E13.47893
G1 X10.26 Y-3.959 E13.48378
G1 X10.407 Y-3.908 E13.48961
G1 X10.685 Y-3.797 E13.50081
G1 X10.873 Y-3.715 E13.50848
G1 X10.955 Y-3.676 E13.51188
G1 X11.071 Y-3.614 E13.5168
G1 X11.136 Y-3.57 E13.51974
G1 X12.6 Y-2.107 E13.59718
G0 F2100 X12.436 Y-2.368
G1 F787.5 X12.384 Y-2.446 E13.60069
G1 X12.307 Y-2.551 E13.60556
G1 X12.209 Y-2.667 E13.61124
G1 X12.121 Y-2.763 E13.61611
G1 X11.875 Y-3.015 E13.62929
G1 X11.788 Y-3.103 E13.63392
G1 X11.699 Y-3.179 E13.6383
G1 X11.59 Y-3.264 E13.64347
G1 X11.441 Y-3.372 E13.65036
G1 X11.136 Y-3.57 E13.66397
G0 F2100 X11.353 Y3.433
G1 F787.5 X5.097 Y-2.822 E13.99498
G1 X4.94 Y-2.785 E14.00102
G1 X4.274 Y-2.713 E14.02609
G1 X4.072 Y-2.715 E14.03364
G1 X10.615 Y3.826 E14.37982
G1 X10.571 Y3.846 E14.38163
G1 X10.406 Y3.913 E14.3883
G1 X10.306 Y3.949 E14.39227
G1 X10.064 Y4.01 E14.40161
G1 X9.736 Y4.08 E14.41416
G1 X2.794 Y-2.862 E14.78151
G1 X2.295 Y-3.001 E14.80089
G1 X1.678 Y-3.261 E14.82594
G1 X1.436 Y-3.401 E14.8364
G1 X1.426 Y-3.388 E14.83702
G1 X1.071 Y-3.613 E14.85274
G1 X0.956 Y-3.675 E14.85763
G1 X0.874 Y-3.714 E14.86103
G1 X0.761 Y-3.763 E14.86564
G1 X8.652 Y4.127 E15.28318
G1 X8.647 Y4.127 E15.28336
G1 X8.502 Y4.112 E15.28882
G1 X8.354 Y4.083 E15.29446
G1 X8 Y4.006 E15.30802
G1 X7.778 Y3.951 E15.31658
G1 X7.68 Y3.917 E15.32046
G1 X7.597 Y3.886 E15.32377
G1 X7.15 Y3.685 E15.34211
G1 X7.01 Y3.616 E15.34795
G1 X-.741 Y-4.135 E15.75811
G1 X-.891 Y-4.144 E15.76373
G1 X-1.054 Y-4.147 E15.76983
G1 X-1.18 Y-4.142 E15.77455
G1 X-1.29 Y-4.134 E15.77867
G1 X-1.421 Y-4.113 E15.78364
G1 X-1.792 Y-4.055 E15.79769
G1 X5.083 Y2.82 E16.16149
G1 X5.041 Y2.81 E16.16311
G1 X4.376 Y2.725 E16.18819
G1 X3.855 Y2.724 E16.20769
G1 X-2.647 Y-3.778 E16.55175
G1 X-2.775 Y-3.724 E16.55695
G1 X-2.889 Y-3.669 E16.56168
G1 X-2.993 Y-3.613 E16.5661
G1 X-3.367 Y-3.367 E16.58285
G1 X2.856 Y2.856 E16.91215
G1 X2.394 Y2.975 E16.93
G1 X2 Y3.131 E16.94586
G1 X-4.077 Y-2.946 E17.26743
G1 X-4.69 Y-2.69 E17.29229
G1 X-4.896 Y-2.633 E17.30029
G1 X1.245 Y3.508 E17.62525
G1 X1.089 Y3.604 E17.6321
G1 X0.911 Y3.693 E17.63955
G1 X0.572 Y3.845 E17.65345
G1 X0.486 Y3.88 E17.65693
G1 X-5.833 Y-2.439 E17.99131
G1 X-5.999 Y-2.416 E17.99758
G1 X-6.668 Y-2.404 E18.02261
G1 X-6.962 Y-2.437 E18.03368
G1 X-.417 Y4.108 E18.38002
G1 X-.429 Y4.111 E18.38048
G1 X-.569 Y4.127 E18.38576
G1 X-.796 Y4.135 E18.39426
G1 X-1.125 Y4.135 E18.40657
G1 X-1.351 Y4.126 E18.41503
G1 X-1.496 Y4.111 E18.42048
G1 X-1.556 Y4.1 E18.42277
G1 X-8.478 Y-2.822 E18.78905
G1 X-8.604 Y-2.87 E18.7941
G1 X-8.817 Y-2.967 E18.80286
G1 X-8.935 Y-3.013 E18.8076
G1 X-9.046 Y-3.053 E18.81201
G1 X-9.212 Y-3.095 E18.81842
G1 X-9.352 Y-3.123 E18.82376
G1 X-9.607 Y-3.161 E18.83341
G1 X-9.8 Y-3.184 E18.84068
G1 X-9.983 Y-3.195 E18.84754
G1 X-3.531 Y3.256 E19.18893
G1 X-3.594 Y3.213 E19.19178
G1 X-3.602 Y3.222 E19.19224
G1 X-3.802 Y3.09 E19.2012
G1 X-4.405 Y2.797 E19.22629
G1 X-5.039 Y2.581 E19.25135
G1 X-5.414 Y2.505 E19.26567
G1 X-10.962 Y-3.043 E19.55925
G1 X-11.047 Y-3.012 E19.56263
G1 X-11.142 Y-2.974 E19.56646
G1 X-11.349 Y-2.879 E19.57498
G1 X-11.538 Y-2.783 E19.58291
G1 X-11.693 Y-2.697 E19.58955
G1 X-11.726 Y-2.675 E19.59103
G1 X-6.639 Y2.411 E19.86019
G1 X-7.034 Y2.432 E19.87499
G1 X-7.64 Y2.542 E19.89804
G1 X-12.335 Y-2.153 E20.14648
G1 X-12.454 Y-2.023 E20.15308
G1 X-12.522 Y-1.943 E20.157
G1 X-12.613 Y-1.822 E20.16267
G1 X-12.692 Y-1.694 E20.1683
G1 X-12.77 Y-1.551 E20.17439
G1 X-12.802 Y-1.489 E20.177
G1 X-8.485 Y2.827 E20.40542
G1 X-8.606 Y2.87 E20.41022
G1 X-8.828 Y2.97 E20.41933
G1 X-8.932 Y3.012 E20.42353
G1 X-9.046 Y3.053 E20.42806
G1 X-9.212 Y3.095 E20.43447
G1 X-9.327 Y3.117 E20.43885
G1 X-13.104 Y-.659 E20.63869
G1 X-13.111 Y-.626 E20.63995
G1 X-13.149 Y-.38 E20.64927
G1 X-13.171 Y-.191 E20.65639
G1 X-13.179 Y-0.091 E20.66014
G1 X-13.183 Y-0.001 E20.66351
G1 X-13.179 Y0.091 E20.66696
G1 X-13.172 Y0.181 E20.67033
G1 X-13.149 Y0.381 E20.67787
G1 X-13.141 Y0.434 E20.67987
G1 X-10.423 Y3.152 E20.8237
G1 X-10.591 Y3.128 E20.83005
G1 X-10.783 Y3.09 E20.83737
G1 X-10.902 Y3.061 E20.84196
G1 X-10.947 Y3.049 E20.8437
G1 X-11.047 Y3.012 E20.84769
G1 X-11.142 Y2.974 E20.85152
G1 X-11.349 Y2.879 E20.86004
G1 X-11.538 Y2.783 E20.86797
G1 X-11.693 Y2.697 E20.8746
G1 X-11.824 Y2.616 E20.88037
G1 X-11.921 Y2.54 E20.88498
G1 X-12.02 Y2.457 E20.88981
G1 X-12.166 Y2.323 E20.89723
G1 X-12.319 Y2.17 E20.90532
G1 X-12.46 Y2.016 E20.91314
G1 X-12.522 Y1.942 E20.91675
G1 X-12.614 Y1.82 E20.92247
G1 X-12.691 Y1.694 E20.92799
G1 X-12.77 Y1.551 E20.9341
G1 X-12.869 Y1.356 E20.94229
G1 X-12.966 Y1.143 E20.95104
G1 X-13 Y1.058 E20.95447
G1 X-13.032 Y0.968 E20.95804
G1 X-13.081 Y0.782 E20.96524
G1 X-13.113 Y0.614 E20.97164
G1 F1800 E15.97164
G0 F600 X-13.113 Y0.614 Z0.49
G0 F2100 X-10.459 Y3.299
;TIME_ELAPSED:37.839701
;LAYER:-5
;TYPE:SUPPORT-INTERFACE
G1 F1800 E20.98287
G1 F1050 X-9.52 Y3.299 E20.99458
G1 X-9.591 Y3.31 E20.99547
G1 X-9.78 Y3.332 E20.99785
G1 X-9.897 Y3.341 E20.99931
G1 X-9.988 Y3.345 E21.00045
G1 X-10.089 Y3.341 E21.00171
G1 X-10.185 Y3.333 E21.00291
G1 X-10.406 Y3.307 E21.00568
G0 F2100 X-9.52 Y3.299
G1 F1050 X-9.331 Y3.27 E21.00807
G1 X-9.178 Y3.24 E21.01001
G1 X-9.016 Y3.201 E21.01209
G1 X-8.879 Y3.151 E21.01391
G1 X-8.76 Y3.104 E21.01551
G1 X-8.551 Y3.009 E21.01837
G1 X-8.523 Y2.999 E21.01874
G1 X-11.443 Y2.999 E21.05516
G1 X-11.615 Y2.911 E21.05757
G1 X-11.766 Y2.828 E21.05972
G1 X-11.909 Y2.739 E21.06182
G1 X-11.962 Y2.699 E21.06265
G1 X-7.66 Y2.699 E21.11631
G1 X-7.017 Y2.582 E21.12446
G1 X-6.366 Y2.548 E21.13259
G1 X-5.717 Y2.596 E21.1407
G1 X-5.212 Y2.699 E21.14713
G1 X12.371 Y2.7 E21.36644
G1 X12.393 Y2.675 E21.36685
G1 X12.491 Y2.556 E21.36878
G1 X12.546 Y2.484 E21.36991
G1 X12.601 Y2.4 E21.37116
G1 X-12.303 Y2.399 E21.68177
G1 X-12.427 Y2.275 E21.68396
G1 X-12.567 Y2.121 E21.68656
G1 X-12.586 Y2.099 E21.68692
G1 X12.775 Y2.1 E22.00324
G1 X12.887 Y1.897 E22.00613
G1 X12.937 Y1.8 E22.00749
G1 X-12.804 Y1.799 E22.32855
G1 X-12.817 Y1.777 E22.32886
G1 X-12.902 Y1.622 E22.33107
G1 X-12.965 Y1.499 E22.33279
G1 X13.059 Y1.5 E22.65738
G1 X13.093 Y1.401 E22.65868
G1 X13.154 Y1.2 E22.6613
G1 X-13.107 Y1.199 E22.98885
G1 X-13.144 Y1.105 E22.99011
G1 X-13.177 Y1.014 E22.99131
G1 X-13.207 Y0.899 E22.9928
G1 X13.238 Y0.9 E23.32263
G1 X13.254 Y0.839 E23.32342
G1 X13.278 Y0.703 E23.32514
G1 X13.29 Y0.6 E23.32643
G1 X-13.268 Y0.599 E23.65768
G1 X-13.3 Y0.392 E23.66029
G1 X-13.311 Y0.299 E23.66146
G1 X13.316 Y0.3 E23.99357
G1 X13.33 Y0.12 E23.99582
G1 X13.335 Y0.00 E23.99732
G1 X-13.333 Y0.00 E24.32993
G1 X-13.33 Y-0.091 E24.33107
G1 X-13.32 Y-.214 E24.33261
G1 X-13.31 Y-.3 E24.33369
G1 X13.319 Y-.299 E24.66582
G1 X13.309 Y-.403 E24.66712
G1 X13.284 Y-.599 E24.66959
G1 X-13.267 Y-.6 E25.00075
G1 X-13.259 Y-.653 E25.00142
G1 X-13.227 Y-.816 E25.00349
G1 X-13.207 Y-.9 E25.00456
G1 X13.238 Y-.899 E25.3344
G1 X13.226 Y-.965 E25.33524
G1 X13.212 Y-1.029 E25.33606
G1 X13.172 Y-1.166 E25.33784
G1 X13.161 Y-1.199 E25.33827
G1 X-13.105 Y-1.2 E25.66587
G1 X-13.104 Y-1.205 E25.66594
G1 X-13.006 Y-1.418 E25.66886
G1 X-12.964 Y-1.5 E25.67001
G1 X13.055 Y-1.499 E25.99453
G1 X13.006 Y-1.633 E25.99631
G1 X12.941 Y-1.799 E25.99854
G1 X-12.803 Y-1.8 E26.31963
G1 X-12.759 Y-1.873 E26.32069
G1 X-12.733 Y-1.912 E26.32128
G1 X-12.647 Y-2.026 E26.32306
G1 X-12.584 Y-2.1 E26.32427
G1 X12.781 Y-2.099 E26.64064
G1 X12.761 Y-2.132 E26.64112
G1 X12.594 Y-2.399 E26.64505
G1 X-12.302 Y-2.4 E26.95556
G1 X-12.269 Y-2.433 E26.95615
G1 X-12.113 Y-2.576 E26.95878
G1 X-12.019 Y-2.655 E26.96032
G1 X-11.96 Y-2.7 E26.96124
G1 X-7.62 Y-2.7 E27.01537
G1 X-7.31 Y-2.626 E27.01935
G1 X-6.663 Y-2.554 E27.02747
G1 X-6.012 Y-2.565 E27.03559
G1 X-5.367 Y-2.658 E27.04372
G0 F2100 X-5.215 Y-2.7
G1 F1050 X12.38 Y-2.699 E27.26317
G1 X12.324 Y-2.765 E27.26425
G1 X12.235 Y-2.861 E27.26588
G1 X12.101 Y-2.999 E27.26828
G1 X5.197 Y-2.999 E27.35439
G1 X5.549 Y-3.083 E27.35891
G1 X6.122 Y-3.299 E27.36654
G1 X11.791 Y-3.299 E27.43725
G1 X11.787 Y-3.302 E27.43731
G1 X11.679 Y-3.386 E27.43902
G1 X11.519 Y-3.5 E27.44147
G1 X11.37 Y-3.599 E27.4437
G1 X6.704 Y-3.599 E27.5019
G1 X6.95 Y-3.754 E27.50552
G1 X7.051 Y-3.807 E27.50695
G1 X7.156 Y-3.857 E27.5084
G1 X7.253 Y-3.899 E27.50972
G1 X10.829 Y-3.899 E27.55432
G1 X10.747 Y-3.935 E27.55543
G1 X10.47 Y-4.045 E27.55915
G1 X10.3 Y-4.103 E27.56139
G1 X10.187 Y-4.138 E27.56287
G1 X10.053 Y-4.173 E27.5646
G1 X9.9 Y-4.199 E27.56653
G1 X8.164 Y-4.199 E27.58818
G1 X8.179 Y-4.202 E27.58837
G1 X8.654 Y-4.277 E27.59437
G1 X8.692 Y-4.282 E27.59485
G1 X8.819 Y-4.292 E27.59644
G1 X8.942 Y-4.297 E27.59797
G1 X9.116 Y-4.294 E27.60014
G1 X9.29 Y-4.283 E27.60232
G1 X9.864 Y-4.205 E27.60954
G0 F2100 X4.916 Y-2.932
G1 F1050 X4.269 Y-2.862 E27.61766
G1 X3.618 Y-2.875 E27.62578
G1 X2.973 Y-2.969 E27.63391
G1 X2.862 Y-3 E27.63535
G1 X-4.338 Y-3 E27.72515
G1 X-4.138 Y-3.084 E27.72786
G1 X-3.775 Y-3.3 E27.73313
G1 X1.974 Y-3.3 E27.80483
G1 X1.745 Y-3.396 E27.80793
G1 X1.395 Y-3.598 E27.81297
G1 X1.389 Y-3.59 E27.81309
G1 X1.374 Y-3.6 E27.81332
G1 X-3.29 Y-3.6 E27.87149
G1 X-3.173 Y-3.677 E27.87324
G1 X-3.049 Y-3.755 E27.87506
G1 X-2.948 Y-3.808 E27.87649
G1 X-2.843 Y-3.858 E27.87794
G1 X-2.746 Y-3.9 E27.87926
G1 X0.828 Y-3.9 E27.92383
G1 X0.746 Y-3.936 E27.92495
G1 X0.469 Y-4.046 E27.92867
G1 X0.299 Y-4.104 E27.93091
G1 X0.186 Y-4.139 E27.93238
G1 X0.052 Y-4.174 E27.93411
G1 X-0.099 Y-4.2 E27.93602
G1 X-1.835 Y-4.2 E27.95767
G1 X-1.82 Y-4.203 E27.95786
G1 X-1.345 Y-4.278 E27.96386
G1 X-1.307 Y-4.283 E27.96434
G1 X-1.18 Y-4.293 E27.96593
G1 X-1.057 Y-4.298 E27.96746
G1 X-.883 Y-4.295 E27.96963
G1 X-.709 Y-4.284 E27.97181
G1 X-.135 Y-4.206 E27.97903
G0 F2100 X-5.409 Y-2.865
G0 X-7.62 Y-2.7
G1 F1050 X-7.943 Y-2.777 E27.98318
G1 X-8.529 Y-3 E27.991
G1 X-11.44 Y-3 E28.0273
G1 X-11.407 Y-3.017 E28.02777
G1 X-11.2 Y-3.112 E28.03061
G1 X-11.105 Y-3.151 E28.03189
G1 X-11.004 Y-3.188 E28.03323
