;FLAVOR:Marlin
;TIME:1185
;Filament used: 1.37592m
;Layer height: 0.25
;MINX:-18.048
;MINY:-17.679
;MINZ:0.3
;MAXX:26.31
;MAXY:16.87
;MAXZ:14.05
;Generated with Cura_SteamEngine 4.13.1
M140 S60
M105
M190 S60
M104 S210
M105
M109 S210
M82 ;absolute extrusion mode
G28 ;Home
G1 Z15.0 F6000 ;Move the platform down 15mm
;Prime the extruder
G92 E0
G1 F200 E3
G92 E0
G92 E0
G92 E0
G1 F2700 E-4
;LAYER_COUNT:56
;LAYER:0
M107
G0 F4200 X-6.377 Y-6.727 Z0.3
;TYPE:SKIRT
G1 F3000 E0
G1 F1800 X-3.124 Y-8.901 E0.1952
G1 X-3.302 Y-9.142 E0.21015
G1 X-3.562 Y-9.628 E0.23765
G1 X-3.748 Y-10.147 E0.26515
G1 X-3.858 Y-10.687 E0.29264
G1 X-3.888 Y-11.237 E0.32013
G1 X-3.839 Y-11.786 E0.34762
G1 X-3.71 Y-12.323 E0.37518
G1 X-3.703 Y-12.345 E0.37633
G1 X-3.498 Y-12.857 E0.40384
G1 X-3.222 Y-13.333 E0.4313
G1 X-2.879 Y-13.765 E0.45882
G1 X-2.284 Y-14.29 E0.4984
G1 X-1.177 Y-15.077 E0.56617
G1 X-.706 Y-15.363 E0.59366
G1 X-.28 Y-15.532 E0.61652
G1 X-.173 Y-15.61 E0.62313
G1 X0.295 Y-15.9 E0.6506
G1 X0.801 Y-16.12 E0.67812
G1 X1.332 Y-16.264 E0.70557
G1 X2.058 Y-16.334 E0.74196
G1 X2.216 Y-16.334 E0.74984
G1 X2.766 Y-16.294 E0.77735
G1 X3.304 Y-16.175 E0.80484
G1 X3.819 Y-15.979 E0.83234
G1 X4.003 Y-15.877 E0.84283
G1 X4.218 Y-16.2 E0.86219
G1 X4.586 Y-16.61 E0.88968
G1 X4.95 Y-16.919 E0.9135
G1 X5.414 Y-17.217 E0.94101
G1 X5.915 Y-17.444 E0.96845
G1 X6.445 Y-17.597 E0.99597
G1 X7.23 Y-17.679 E1.03535
G1 X7.287 Y-17.679 E1.03819
G1 X7.837 Y-17.639 E1.0657
G1 X8.375 Y-17.52 E1.09319
G1 X8.89 Y-17.324 E1.12068
G1 X9.352 Y-17.066 E1.14708
G1 X9.732 Y-17.23 E1.16773
G1 X10.264 Y-17.373 E1.19522
G1 X10.98 Y-17.441 E1.2311
G1 X11.262 Y-17.441 E1.24517
G1 X11.812 Y-17.401 E1.27268
G1 X12.35 Y-17.282 E1.30017
G1 X12.563 Y-17.209 E1.3114
G1 X13.101 Y-17.09 E1.33889
G1 X13.616 Y-16.894 E1.36638
G1 X13.698 Y-16.845 E1.37115
G1 X14.216 Y-16.731 E1.39761
G1 X14.731 Y-16.535 E1.4251
G1 X15.356 Y-16.168 E1.46126
G1 X15.537 Y-16.037 E1.47241
G1 X15.959 Y-15.683 E1.49989
G1 X16.325 Y-15.271 E1.52738
G1 X16.627 Y-14.81 E1.55488
G1 X16.86 Y-14.311 E1.58235
G1 X16.894 Y-14.199 E1.58819
G1 X17.142 Y-14.236 E1.6007
G1 X17.693 Y-14.24 E1.62819
G1 X18.239 Y-14.163 E1.6557
G1 X18.767 Y-14.008 E1.68316
G1 X19.268 Y-13.779 E1.71064
G1 X19.794 Y-13.431 E1.74211
G1 X20.117 Y-13.176 E1.76264
G1 X20.523 Y-12.804 E1.79011
G1 X20.796 Y-12.498 E1.81057
G1 X21.217 Y-12.143 E1.83804
G1 X21.582 Y-11.73 E1.86554
G1 X22.057 Y-11.2 E1.90105
G1 X22.345 Y-10.762 E1.9272
G1 X22.676 Y-10.392 E1.95197
G1 X22.98 Y-9.932 E1.97948
G1 X23.089 Y-9.768 E1.9893
G1 X23.392 Y-9.307 E2.01682
G1 X23.639 Y-8.742 E2.04759
G1 X23.896 Y-8.362 E2.07047
G1 X24.277 Y-7.528 E2.11622
G1 X24.452 Y-7.005 E2.14373
G1 X24.55 Y-6.463 E2.17121
G1 X24.583 Y-6.308 E2.17912
G1 X24.889 Y-5.85 E2.2066
G1 X25.148 Y-5.289 E2.23743
G1 X25.423 Y-4.475 E2.28029
G1 X25.749 Y-3.166 E2.34759
G1 X25.817 Y-2.832 E2.3646
G1 X26.018 Y-1.541 E2.42978
G1 X26.155 Y-1.075 E2.45401
G1 X26.272 Y-.537 E2.48148
G1 X26.31 Y0.013 E2.50899
G1 X26.268 Y0.562 E2.53646
G1 X26.16 Y1.086 E2.56315
G1 X26.133 Y1.636 E2.59062
G1 X26.007 Y2.246 E2.6217
G1 X25.596 Y3.647 E2.69454
G1 X25.517 Y3.924 E2.70891
G1 X25.327 Y4.441 E2.73639
G1 X25.129 Y4.807 E2.75715
G1 X25.105 Y5.212 E2.77739
G1 X24.995 Y5.752 E2.80489
G1 X24.903 Y6.035 E2.81973
G1 X24.378 Y7.461 E2.89554
G1 X24.151 Y7.963 E2.92303
G1 X23.853 Y8.427 E2.95054
G1 X23.698 Y8.605 E2.96232
G1 X23.506 Y9.067 E2.98728
G1 X23.258 Y9.559 E3.01477
G1 X22.942 Y10.01 E3.04224
G1 X22.784 Y10.177 E3.05371
G1 X22.329 Y10.869 E3.09503
G1 X21.415 Y11.962 E3.16611
G1 X21.092 Y12.302 E3.18951
G1 X20.122 Y13.207 E3.25569
G1 X19.63 Y13.596 E3.28698
G1 X19.357 Y13.777 E3.30333
G1 X18.877 Y14.048 E3.33083
G1 X18.363 Y14.246 E3.35831
G1 X17.825 Y14.367 E3.38582
G1 X17.276 Y14.41 E3.41329
G1 X16.726 Y14.373 E3.44079
G1 X16.677 Y14.362 E3.4433
G1 X16.66 Y14.416 E3.44612
G1 X16.423 Y14.914 E3.47364
G1 X16.116 Y15.371 E3.50111
G1 X15.747 Y15.78 E3.52859
G1 X15.352 Y16.109 E3.55423
G1 X15.301 Y16.146 E3.55738
G1 X14.833 Y16.436 E3.58485
G1 X14.328 Y16.656 E3.61233
G1 X13.796 Y16.8 E3.63982
G1 X13.07 Y16.87 E3.67621
G1 X13.028 Y16.87 E3.67831
G1 X12.478 Y16.83 E3.70582
G1 X11.94 Y16.711 E3.73331
G1 X11.425 Y16.515 E3.7608
G1 X10.944 Y16.247 E3.78827
G1 X10.506 Y15.913 E3.81575
G1 X10.122 Y15.518 E3.84324
G1 X9.798 Y15.072 E3.87074
G1 X9.543 Y14.584 E3.89821
G1 X9.36 Y14.064 E3.92571
G1 X9.285 Y13.676 E3.94543
G1 X8.81 Y13.707 E3.96918
G1 X7.895 Y13.714 E4.01483
G1 X7.54 Y13.7 E4.03255
G1 X6.634 Y13.622 E4.07792
G1 X6.29 Y13.577 E4.09523
G1 X5.385 Y13.415 E4.1411
G1 X5.053 Y13.34 E4.15808
G1 X4.197 Y13.106 E4.20235
G1 X3.403 Y12.825 E4.24437
G1 X3.359 Y12.93 E4.25005
G1 X3.075 Y13.402 E4.27753
G1 X2.725 Y13.828 E4.30504
G1 X2.318 Y14.199 E4.33251
G1 X1.861 Y14.507 E4.36001
G1 X1.364 Y14.746 E4.38752
G1 X0.838 Y14.91 E4.41501
G1 X0.294 Y14.997 E4.4425
G1 X-.14 Y15.011 E4.46416
G1 X-.69 Y14.971 E4.49167
G1 X-1.228 Y14.852 E4.51916
G1 X-1.743 Y14.656 E4.54665
G1 X-2.285 Y14.348 E4.57775
G1 X-3.581 Y13.462 E4.65608
G1 X-4.75 Y12.692 E4.72591
G1 X-5.481 Y12.239 E4.76882
G1 X-5.979 Y12.05 E4.79539
G1 X-6.604 Y11.683 E4.83155
G1 X-7.069 Y11.472 E4.85703
G1 X-7.355 Y11.409 E4.87164
G1 X-7.87 Y11.213 E4.89913
G1 X-7.975 Y11.182 E4.90459
G1 X-8.513 Y11.063 E4.93208
G1 X-8.989 Y10.882 E4.95749
G1 X-9.466 Y10.856 E4.98132
G1 X-10.012 Y10.787 E5.00878
G1 X-10.543 Y10.639 E5.03628
G1 X-11.047 Y10.416 E5.06378
G1 X-11.477 Y10.149 E5.08903
G1 X-11.672 Y10.009 E5.101
G1 X-12.095 Y9.656 E5.12849
G1 X-12.463 Y9.245 E5.15601
G1 X-12.767 Y8.786 E5.18348
G1 X-13.002 Y8.288 E5.21095
G1 X-13.162 Y7.761 E5.23843
G1 X-13.245 Y7.216 E5.26593
G1 X-13.247 Y6.665 E5.29342
G1 X-13.219 Y6.467 E5.3034
G1 X-13.927 Y6.21 E5.34098
G1 X-14.456 Y5.954 E5.3703
G1 X-14.54 Y5.905 E5.37515
G1 X-15.075 Y5.528 E5.4078
G1 X-15.426 Y5.232 E5.43071
G1 X-15.82 Y4.847 E5.45819
G1 X-16.155 Y4.409 E5.4857
G1 X-16.468 Y3.826 E5.51871
G1 X-16.577 Y3.572 E5.5325
G1 X-16.757 Y3.051 E5.56
G1 X-16.86 Y2.509 E5.58753
G1 X-16.882 Y1.919 E5.61698
G1 X-16.846 Y1.03 E5.66137
G1 X-16.784 Y0.483 E5.68884
G1 X-16.649 Y-0.025 E5.71506
G1 X-16.745 Y-.34 E5.73149
G1 X-16.834 Y-.991 E5.76427
G1 X-16.874 Y-1.794 E5.80438
G1 X-16.862 Y-2.345 E5.83188
G1 X-16.777 Y-2.873 E5.85856
G1 X-16.632 Y-3.404 E5.88602
G1 X-16.341 Y-4.053 E5.92151
G1 X-16.06 Y-4.527 E5.949
G1 X-15.667 Y-5.01 E5.98006
G1 X-15.27 Y-5.393 E6.00758
G1 X-14.731 Y-5.783 E6.04078
G1 X-14.215 Y-6.081 E6.0705
G1 X-13.516 Y-6.371 E6.10826
G1 X-12.948 Y-6.544 E6.13788
G1 X-12.382 Y-6.637 E6.1665
G1 X-11.613 Y-6.706 E6.20502
G1 X-11.277 Y-6.721 E6.2218
G1 X-6.377 Y-6.727 E6.46626
G0 F4200 X-6.257 Y-6.327
G1 F1800 X-2.535 Y-8.814 E6.68959
G1 X-2.846 Y-9.181 E6.71359
G1 X-3.118 Y-9.626 E6.73961
G1 X-3.318 Y-10.107 E6.7656
G1 X-3.443 Y-10.613 E6.7916
G1 X-3.489 Y-11.132 E6.8176
G1 X-3.455 Y-11.652 E6.8436
G1 X-3.329 Y-12.202 E6.87175
G1 X-3.322 Y-12.224 E6.8729
G1 X-3.126 Y-12.707 E6.8989
G1 X-2.859 Y-13.154 E6.92488
G1 X-2.527 Y-13.556 E6.95089
G1 X-2.052 Y-13.964 E6.98213
G1 X-.945 Y-14.751 E7.04989
G1 X-.498 Y-15.02 E7.07592
G1 X-0.077 Y-15.185 E7.09848
G1 X0.062 Y-15.286 E7.10705
G1 X0.506 Y-15.559 E7.13306
G1 X0.986 Y-15.761 E7.15904
G1 X1.492 Y-15.887 E7.18505
G1 X2.058 Y-15.934 E7.21339
G1 X2.216 Y-15.934 E7.22127
G1 X2.736 Y-15.894 E7.24729
G1 X3.243 Y-15.775 E7.27327
G1 X3.726 Y-15.58 E7.29926
G1 X4.156 Y-15.325 E7.3242
G1 X4.214 Y-15.459 E7.33149
G1 X4.492 Y-15.9 E7.35749
G1 X4.834 Y-16.293 E7.38348
G1 X5.19 Y-16.599 E7.40691
G1 X5.63 Y-16.879 E7.43292
G1 X6.107 Y-17.088 E7.45891
G1 X6.611 Y-17.222 E7.48492
G1 X7.23 Y-17.279 E7.51594
G1 X7.287 Y-17.279 E7.51878
G1 X7.807 Y-17.239 E7.5448
G1 X8.314 Y-17.12 E7.57078
G1 X8.797 Y-16.925 E7.59677
G1 X9.245 Y-16.659 E7.62276
G1 X9.316 Y-16.601 E7.62734
G1 X9.374 Y-16.638 E7.63077
G1 X9.851 Y-16.848 E7.65677
G1 X10.354 Y-16.983 E7.68275
G1 X10.98 Y-17.041 E7.71412
G1 X11.262 Y-17.041 E7.72819
G1 X11.782 Y-17.001 E7.75421
G1 X12.289 Y-16.882 E7.78019
G1 X12.533 Y-16.809 E7.7929
G1 X13.04 Y-16.69 E7.81888
G1 X13.523 Y-16.495 E7.84486
G1 X13.648 Y-16.45 E7.85149
G1 X14.155 Y-16.331 E7.87747
G1 X14.638 Y-16.136 E7.90346
G1 X15.121 Y-15.844 E7.93162
G1 X15.302 Y-15.713 E7.94277
G1 X15.7 Y-15.376 E7.96878
G1 X16.041 Y-14.982 E7.99478
G1 X16.318 Y-14.541 E8.02076
G1 X16.525 Y-14.063 E8.04675
G1 X16.608 Y-13.743 E8.06324
G1 X17.103 Y-13.831 E8.08833
G1 X17.624 Y-13.843 E8.11433
G1 X18.141 Y-13.775 E8.14034
G1 X18.641 Y-13.628 E8.16634
G1 X19.113 Y-13.407 E8.19234
G1 X19.546 Y-13.117 E8.21834
G1 X19.869 Y-12.862 E8.23887
G1 X20.252 Y-12.508 E8.26489
G1 X20.561 Y-12.175 E8.28756
G1 X20.958 Y-11.837 E8.31357
G1 X21.298 Y-11.442 E8.33957
G1 X21.432 Y-11.305 E8.34913
G1 X21.773 Y-10.912 E8.37509
G1 X22.051 Y-10.496 E8.40005
G1 X22.393 Y-10.103 E8.42605
G1 X22.671 Y-9.662 E8.45205
G1 X22.806 Y-9.479 E8.4634
G1 X23.083 Y-9.038 E8.48938
G1 X23.292 Y-8.546 E8.51605
G1 X23.308 Y-8.527 E8.51729
G1 X23.591 Y-8.089 E8.54331
G1 X23.908 Y-7.374 E8.58233
G1 X24.071 Y-6.879 E8.60833
G1 X24.157 Y-6.365 E8.63433
G1 X24.159 Y-6.182 E8.64346
G1 X24.276 Y-6.052 E8.65218
G1 X24.561 Y-5.615 E8.67821
G1 X24.773 Y-5.151 E8.70366
G1 X25.035 Y-4.379 E8.74433
G1 X25.361 Y-3.07 E8.81164
G1 X25.422 Y-2.771 E8.82686
G1 X25.627 Y-1.456 E8.89326
G1 X25.772 Y-.962 E8.91894
G1 X25.88 Y-.452 E8.94495
G1 X25.909 Y0.068 E8.97093
G1 X25.859 Y0.587 E8.99695
G1 X25.75 Y1.026 E9.01951
G1 X25.761 Y1.152 E9.02582
G1 X25.725 Y1.672 E9.05183
G1 X25.624 Y2.133 E9.07537
G1 X25.132 Y3.814 E9.16276
G1 X24.951 Y4.302 E9.18873
G1 X24.737 Y4.686 E9.21066
G1 X24.703 Y5.203 E9.23651
G1 X24.528 Y5.897 E9.27221
G1 X24.003 Y7.323 E9.34803
G1 X23.786 Y7.796 E9.37399
G1 X23.499 Y8.232 E9.40003
G1 X23.338 Y8.43 E9.41276
G1 X23.137 Y8.913 E9.43886
G1 X22.901 Y9.378 E9.46488
G1 X22.596 Y9.8 E9.49086
G1 X22.447 Y9.967 E9.50202
G1 X22.022 Y10.612 E9.54056
G1 X21.108 Y11.705 E9.61164
G1 X20.819 Y12.01 E9.6326
G1 X19.849 Y12.915 E9.69879
G1 X19.409 Y13.263 E9.72678
G1 X19.136 Y13.444 E9.74312
G1 X18.681 Y13.698 E9.76912
G1 X18.192 Y13.879 E9.79513
G1 X17.681 Y13.983 E9.82115
G1 X17.161 Y14.009 E9.84712
G1 X16.643 Y13.954 E9.87311
G1 X16.402 Y13.89 E9.88555
G1 X16.313 Y14.205 E9.90188
G1 X16.096 Y14.679 E9.92789
G1 X15.809 Y15.115 E9.95393
G1 X15.46 Y15.501 E9.97989
G1 X15.067 Y15.822 E10.00521
G1 X14.623 Y16.095 E10.03121
G1 X14.142 Y16.297 E10.05724
G1 X13.636 Y16.423 E10.08326
G1 X13.07 Y16.47 E10.11159
G1 X13.028 Y16.47 E10.11369
G1 X12.508 Y16.43 E10.13971
G1 X12.001 Y16.311 E10.16569
G1 X11.518 Y16.116 E10.19167
G1 X11.07 Y15.85 E10.21767
G1 X10.668 Y15.518 E10.24368
G1 X10.322 Y15.128 E10.26969
G1 X10.039 Y14.69 E10.29571
G1 X9.826 Y14.215 E10.32168
G1 X9.689 Y13.712 E10.34769
G1 X9.635 Y13.239 E10.37144
G1 X9.116 Y13.29 E10.39746
G1 X8.807 Y13.307 E10.41289
G1 X7.892 Y13.314 E10.45855
G1 X7.574 Y13.301 E10.47442
G1 X6.668 Y13.223 E10.51979
G1 X6.361 Y13.183 E10.53524
G1 X5.456 Y13.021 E10.58111
G1 X5.158 Y12.954 E10.59634
G1 X4.302 Y12.72 E10.64062
G1 X4.007 Y12.624 E10.65609
G1 X3.176 Y12.313 E10.70036
G1 X3.103 Y12.532 E10.71188
G1 X2.864 Y12.995 E10.73787
G1 X2.557 Y13.417 E10.76391
G1 X2.19 Y13.786 E10.78987
G1 X1.77 Y14.095 E10.81589
G1 X1.308 Y14.337 E10.84191
G1 X0.815 Y14.504 E10.86788
G1 X0.302 Y14.595 E10.89387
G1 X-.14 Y14.611 E10.91593
G1 X-.66 Y14.571 E10.94195
G1 X-1.167 Y14.452 E10.96794
G1 X-1.65 Y14.257 E10.99392
G1 X-2.059 Y14.018 E11.01756
G1 X-3.356 Y13.131 E11.09595
G1 X-4.549 Y12.344 E11.16725
G1 X-5.328 Y11.864 E11.2129
G1 X-5.403 Y11.846 E11.21675
G1 X-5.886 Y11.651 E11.24274
G1 X-6.37 Y11.359 E11.27094
G1 X-6.49 Y11.272 E11.27833
G1 X-6.93 Y11.094 E11.30201
G1 X-7.294 Y11.009 E11.32066
G1 X-7.777 Y10.814 E11.34665
G1 X-7.945 Y10.782 E11.35518
G1 X-8.452 Y10.663 E11.38116
G1 X-8.888 Y10.487 E11.40462
G1 X-9.444 Y10.457 E11.4324
G1 X-9.961 Y10.389 E11.45841
G1 X-10.461 Y10.243 E11.4844
G1 X-10.933 Y10.022 E11.5104
G1 X-11.439 Y9.684 E11.54076
G1 X-11.838 Y9.348 E11.56678
G1 X-12.181 Y8.956 E11.59277
G1 X-12.459 Y8.516 E11.61874
G1 X-12.668 Y8.038 E11.64477
G1 X-12.8 Y7.534 E11.67076
G1 X-12.855 Y7.016 E11.69675
G1 X-12.829 Y6.495 E11.72277
G1 X-12.762 Y6.168 E11.73942
G1 X-13.375 Y5.997 E11.77117
G1 X-13.781 Y5.838 E11.79293
G1 X-14.254 Y5.609 E11.81915
G1 X-14.338 Y5.56 E11.824
G1 X-14.817 Y5.222 E11.85325
G1 X-15.168 Y4.926 E11.87615
G1 X-15.539 Y4.561 E11.90212
G1 X-15.851 Y4.143 E11.92814
G1 X-16.1 Y3.668 E11.9549
G1 X-16.209 Y3.414 E11.96869
G1 X-16.378 Y2.921 E11.99469
G1 X-16.469 Y2.407 E12.02073
G1 X-16.482 Y1.935 E12.04429
G1 X-16.446 Y1.046 E12.08868
G1 X-16.385 Y0.529 E12.11465
G1 X-16.246 Y0.027 E12.14064
G1 X-16.241 Y-0.036 E12.14379
G1 X-16.378 Y-.539 E12.1698
G1 X-16.435 Y-1.011 E12.19352
G1 X-16.475 Y-1.814 E12.23363
G1 X-16.461 Y-2.335 E12.25963
G1 X-16.384 Y-2.796 E12.28295
G1 X-16.245 Y-3.298 E12.30894
G1 X-15.983 Y-3.875 E12.34055
G1 X-15.716 Y-4.322 E12.36653
G1 X-15.369 Y-4.743 E12.39375
G1 X-14.992 Y-5.104 E12.41979
G1 X-14.505 Y-5.453 E12.44968
G1 X-14.043 Y-5.72 E12.4763
G1 X-13.37 Y-5.998 E12.51263
G1 X-12.861 Y-6.153 E12.53917
G1 X-12.346 Y-6.238 E12.56521
G1 X-11.577 Y-6.307 E12.60373
G1 X-11.277 Y-6.321 E12.61872
G1 X-6.257 Y-6.327 E12.86917
G0 F4200 X-6.135 Y-5.927
G1 F1800 X-1.875 Y-8.773 E13.12476
G1 X-2.063 Y-8.912 E13.13643
G1 X-2.404 Y-9.263 E13.16084
G1 X-2.683 Y-9.665 E13.18526
G1 X-2.894 Y-10.106 E13.20965
G1 X-3.03 Y-10.577 E13.23411
G1 X-3.087 Y-11.063 E13.25852
G1 X-3.065 Y-11.552 E13.28294
G1 X-2.948 Y-12.081 E13.30997
G1 X-2.755 Y-12.555 E13.3355
G1 X-2.498 Y-12.972 E13.35994
G1 X-2.176 Y-13.341 E13.38437
G1 X-1.82 Y-13.638 E13.4075
G1 X-.713 Y-14.425 E13.47527
G1 X-.293 Y-14.675 E13.49965
G1 X0.121 Y-14.835 E13.52179
G1 X0.715 Y-15.217 E13.55703
G1 X1.169 Y-15.399 E13.58143
G1 X1.647 Y-15.506 E13.60587
G1 X2.216 Y-15.534 E13.63429
G1 X2.704 Y-15.494 E13.65872
G1 X3.179 Y-15.375 E13.68315
G1 X3.628 Y-15.181 E13.70755
G1 X4.04 Y-14.916 E13.73199
G1 X4.332 Y-14.652 E13.75163
G1 X4.535 Y-15.207 E13.78111
G1 X4.787 Y-15.626 E13.80551
G1 X5.105 Y-15.998 E13.82992
G1 X5.43 Y-16.279 E13.85136
G1 X5.844 Y-16.54 E13.87577
G1 X6.295 Y-16.73 E13.90019
G1 X6.771 Y-16.844 E13.92461
G1 X7.287 Y-16.879 E13.95041
G1 X7.775 Y-16.839 E13.97484
G1 X8.25 Y-16.72 E13.99927
G1 X8.699 Y-16.526 E14.02367
G1 X9.111 Y-16.261 E14.04811
G1 X9.284 Y-16.105 E14.05973
G1 X9.55 Y-16.278 E14.07556
G1 X9.998 Y-16.476 E14.1
G1 X10.472 Y-16.598 E14.12442
G1 X10.98 Y-16.641 E14.14985
G1 X11.75 Y-16.601 E14.18832
G1 X12.369 Y-16.42 E14.2205
G1 X12.976 Y-16.29 E14.25147
G1 X13.481 Y-16.061 E14.27913
G1 X14.091 Y-15.931 E14.31025
G1 X14.54 Y-15.737 E14.33465
G1 X15.068 Y-15.389 E14.3662
G1 X15.44 Y-15.071 E14.39061
G1 X15.755 Y-14.696 E14.41505
G1 X16.005 Y-14.275 E14.43947
G1 X16.183 Y-13.82 E14.46385
G1 X16.291 Y-13.211 E14.49471
G1 X16.619 Y-13.334 E14.51218
G1 X17.099 Y-13.429 E14.5366
G1 X17.589 Y-13.444 E14.56105
G1 X18.074 Y-13.38 E14.58546
G1 X18.542 Y-13.238 E14.60986
G1 X18.981 Y-13.021 E14.63429
G1 X19.621 Y-12.548 E14.67399
G1 X19.979 Y-12.214 E14.69842
G1 X20.174 Y-11.961 E14.71436
G1 X20.697 Y-11.532 E14.74811
G1 X21.034 Y-11.118 E14.77474
G1 X21.487 Y-10.625 E14.80814
G1 X21.699 Y-10.268 E14.82886
G1 X22.107 Y-9.816 E14.85923
G1 X22.367 Y-9.373 E14.88486
G1 X22.519 Y-9.193 E14.89661
G1 X22.769 Y-8.772 E14.92104
G1 X22.943 Y-8.332 E14.94465
G1 X23.025 Y-8.237 E14.95091
G1 X23.368 Y-7.628 E14.98578
G1 X23.69 Y-6.754 E15.03225
G1 X23.764 Y-6.27 E15.05668
G1 X23.761 Y-6.028 E15.06875
G1 X23.987 Y-5.772 E15.08579
