;FLAVOR:Marlin
;TIME:2637
;Filament used: 1.26579m
;Layer height: 0.1
;MINX:-18.413
;MINY:-13.712
;MINZ:0.3
;MAXX:21.462
;MAXY:13.712
;MAXZ:14
;Generated with Cura_SteamEngine 4.13.1
M140 S60
M105
M190 S60
M104 S210
M105
M109 S210
M82 ;absolute extrusion mode
G28 ;Home
G1 Z15.0 F6000 ;Move the platform down 15mm
;Prime the extruder
G92 E0
G1 F200 E3
G92 E0
G92 E0
G92 E0
G1 F2700 E-4
;LAYER_COUNT:138
;LAYER:0
M107
G0 F4200 X-3.734 Y6.48 Z0.3
;TYPE:SKIRT
G1 F3000 E0
G1 F1800 X-4.089 Y6.497 E0.01773
G1 X-4.637 Y6.443 E0.0452
G1 X-5.172 Y6.31 E0.07271
G1 X-5.625 Y6.153 E0.09663
G1 X-6.14 Y5.957 E0.12412
G1 X-6.767 Y5.589 E0.16039
G1 X-6.985 Y5.431 E0.17382
G1 X-7.086 Y5.603 E0.18377
G1 X-7.432 Y6.031 E0.21123
G1 X-7.981 Y6.516 E0.24778
G1 X-8.661 Y7.008 E0.28965
G1 X-9.13 Y7.297 E0.31713
G1 X-9.636 Y7.516 E0.34464
G1 X-10.168 Y7.66 E0.37214
G1 X-10.889 Y7.729 E0.40827
G1 X-11.723 Y7.729 E0.44988
G1 X-12.273 Y7.689 E0.47739
G1 X-12.811 Y7.57 E0.50488
G1 X-13.326 Y7.374 E0.53238
G1 X-13.951 Y7.008 E0.56851
G1 X-14.631 Y6.516 E0.61038
G1 X-15.052 Y6.161 E0.63786
G1 X-15.418 Y5.749 E0.66535
G1 X-15.721 Y5.289 E0.69283
G1 X-16.019 Y4.606 E0.73001
G1 X-16.522 Y4.232 E0.76128
G1 X-16.973 Y3.823 E0.79166
G1 X-17.353 Y3.424 E0.81915
G1 X-17.672 Y2.975 E0.84663
G1 X-17.922 Y2.484 E0.87411
G1 X-18.146 Y1.753 E0.91226
G1 X-18.341 Y0.778 E0.96186
G1 X-18.41 Y0.232 E0.98932
G1 X-18.413 Y-0.083 E1.00504
G1 X-18.385 Y-.997 E1.05066
G1 X-18.328 Y-1.545 E1.07814
G1 X-18.193 Y-2.08 E1.10567
G1 X-17.982 Y-2.588 E1.13312
G1 X-17.699 Y-3.061 E1.16062
G1 X-17.16 Y-3.677 E1.20145
G1 X-16.496 Y-4.288 E1.24647
G1 X-16.065 Y-4.631 E1.27395
G1 X-15.588 Y-4.908 E1.30147
G1 X-15.077 Y-5.113 E1.32894
G1 X-15.011 Y-5.18 E1.33363
G1 X-14.731 Y-5.655 E1.36114
G1 X-14.385 Y-6.083 E1.3886
G1 X-13.987 Y-6.452 E1.41567
G1 X-12.858 Y-7.358 E1.48789
G1 X-12.309 Y-7.725 E1.52084
G1 X-11.127 Y-8.374 E1.58811
G1 X-10.626 Y-8.603 E1.6156
G1 X-10.289 Y-8.71 E1.63324
G1 X-9.784 Y-8.929 E1.6607
G1 X-9.257 Y-9.072 E1.68794
G1 X-9.237 Y-9.084 E1.68911
G1 X-8.731 Y-9.304 E1.71663
G1 X-8.2 Y-9.448 E1.74408
G1 X-8.024 Y-9.545 E1.75411
G1 X-7.469 Y-9.842 E1.78551
G1 X-6.929 Y-10.076 E1.81487
G1 X-6.366 Y-10.498 E1.84998
G1 X-6.216 Y-10.605 E1.85917
G1 X-5.642 Y-10.993 E1.89373
G1 X-5.164 Y-11.268 E1.92125
G1 X-4.652 Y-11.471 E1.94872
G1 X-4.116 Y-11.597 E1.97619
G1 X-3.567 Y-11.645 E2.00369
G1 X-3.017 Y-11.612 E2.03118
G1 X-2.477 Y-11.501 E2.05868
G1 X-1.959 Y-11.312 E2.08619
G1 X-1.474 Y-11.051 E2.11367
G1 X-1.032 Y-10.722 E2.14116
G1 X-.936 Y-10.627 E2.1479
G1 X-.684 Y-10.823 E2.16382
G1 X0.01 Y-11.328 E2.20664
G1 X0.312 Y-11.53 E2.22477
G1 X1.07 Y-11.985 E2.26888
G1 X1.373 Y-12.149 E2.28607
G1 X2.176 Y-12.537 E2.33056
G1 X2.491 Y-12.672 E2.34766
G1 X3.323 Y-12.985 E2.39201
G1 X3.646 Y-13.09 E2.40895
G1 X4.523 Y-13.333 E2.45435
G1 X4.853 Y-13.409 E2.47125
G1 X5.71 Y-13.566 E2.51472
G1 X6.044 Y-13.612 E2.53154
G1 X6.929 Y-13.694 E2.57588
G1 X7.272 Y-13.71 E2.59301
G1 X8.174 Y-13.712 E2.63801
G1 X8.524 Y-13.697 E2.65549
G1 X9.409 Y-13.617 E2.69982
G1 X9.738 Y-13.572 E2.71639
G1 X10.624 Y-13.413 E2.7613
G1 X10.966 Y-13.336 E2.77879
G1 X11.805 Y-13.104 E2.82221
G1 X12.119 Y-13.002 E2.83869
G1 X12.951 Y-12.692 E2.88298
G1 X13.271 Y-12.555 E2.90035
G1 X14.09 Y-12.161 E2.94569
G1 X14.383 Y-12.005 E2.96225
G1 X15.146 Y-11.552 E3.00652
G1 X15.443 Y-11.356 E3.02427
G1 X16.161 Y-10.833 E3.06859
G1 X16.427 Y-10.62 E3.08559
G1 X17.117 Y-10.016 E3.13134
G1 X17.359 Y-9.785 E3.14803
G1 X17.942 Y-9.176 E3.19009
G1 X18.163 Y-8.923 E3.20685
G1 X18.726 Y-8.22 E3.25179
G1 X18.926 Y-7.947 E3.26867
G1 X19.422 Y-7.2 E3.31341
G1 X19.605 Y-6.894 E3.3312
G1 X20.033 Y-6.096 E3.37637
G1 X20.177 Y-5.797 E3.39293
G1 X20.526 Y-4.983 E3.43712
G1 X20.646 Y-4.663 E3.45417
G1 X20.919 Y-3.825 E3.49814
G1 X21.01 Y-3.495 E3.51522
G1 X21.211 Y-2.616 E3.5602
G1 X21.273 Y-2.279 E3.5773
G1 X21.392 Y-1.401 E3.6215
G1 X21.422 Y-1.059 E3.63863
G1 X21.462 Y-.155 E3.68377
G1 X21.462 Y0.187 E3.70084
G1 X21.422 Y1.062 E3.74453
G1 X21.392 Y1.398 E3.76136
G1 X21.273 Y2.276 E3.80557
G1 X21.212 Y2.611 E3.82256
G1 X21.011 Y3.492 E3.86764
G1 X20.92 Y3.82 E3.88462
G1 X20.648 Y4.658 E3.92858
G1 X20.526 Y4.984 E3.94594
G1 X20.176 Y5.799 E3.99019
G1 X20.032 Y6.097 E4.00671
G1 X19.606 Y6.891 E4.05166
G1 X19.425 Y7.194 E4.06927
G1 X18.927 Y7.945 E4.11423
G1 X18.726 Y8.22 E4.13122
G1 X18.192 Y8.887 E4.17385
G1 X17.952 Y9.166 E4.19221
G1 X17.336 Y9.807 E4.23656
G1 X17.095 Y10.036 E4.25315
G1 X16.425 Y10.621 E4.29752
G1 X16.157 Y10.835 E4.31463
G1 X15.414 Y11.374 E4.36043
G1 X15.12 Y11.568 E4.378
G1 X14.367 Y12.014 E4.42166
G1 X14.075 Y12.17 E4.43818
G1 X13.296 Y12.544 E4.48129
G1 X12.991 Y12.674 E4.49783
G1 X12.158 Y12.988 E4.54224
G1 X11.795 Y13.106 E4.56129
G1 X10.93 Y13.343 E4.60603
G1 X10.597 Y13.418 E4.62306
G1 X9.738 Y13.572 E4.6666
G1 X9.409 Y13.617 E4.68317
G1 X8.524 Y13.697 E4.7275
G1 X8.174 Y13.712 E4.74498
G1 X7.272 Y13.71 E4.78998
G1 X6.929 Y13.694 E4.80711
G1 X6.044 Y13.612 E4.85145
G1 X5.709 Y13.566 E4.86832
G1 X4.826 Y13.404 E4.91311
G1 X4.489 Y13.326 E4.93037
G1 X3.638 Y13.088 E4.97445
G1 X3.323 Y12.985 E4.99099
G1 X2.491 Y12.672 E5.03534
G1 X2.177 Y12.537 E5.05239
G1 X1.373 Y12.149 E5.09693
G1 X1.067 Y11.984 E5.11427
G1 X0.31 Y11.529 E5.15834
G1 X0.026 Y11.34 E5.17536
G1 X-.687 Y10.819 E5.21941
G1 X-.801 Y10.733 E5.22654
G1 X-1.411 Y10.251 E5.26532
G1 X-1.671 Y10.026 E5.28248
G1 X-2.028 Y9.651 E5.30831
G1 X-2.46 Y9.13 E5.34207
G1 X-2.79 Y8.671 E5.37028
G1 X-3.165 Y8.065 E5.40583
G1 X-3.421 Y7.576 E5.43337
G1 X-3.623 Y6.992 E5.4642
G1 X-3.734 Y6.48 E5.49034
G0 F4200 X-3.348 Y6.369
G1 F1800 X-3.375 Y6.04 E5.5068
G1 X-3.868 Y6.096 E5.53156
G1 X-4.389 Y6.075 E5.55757
G1 X-4.9 Y5.975 E5.58355
G1 X-5.39 Y5.798 E5.60954
G1 X-5.564 Y5.753 E5.61851
G1 X-6.047 Y5.558 E5.6445
G1 X-6.532 Y5.265 E5.67277
G1 X-7.065 Y4.84 E5.70678
G1 X-7.123 Y4.845 E5.70968
G1 X-7.177 Y4.975 E5.7167
G1 X-7.448 Y5.421 E5.74274
G1 X-7.783 Y5.819 E5.76869
G1 X-8.216 Y6.192 E5.79721
G1 X-8.896 Y6.684 E5.83908
G1 X-9.34 Y6.956 E5.86506
G1 X-9.821 Y7.157 E5.89107
G1 X-10.327 Y7.282 E5.91707
G1 X-10.889 Y7.329 E5.9452
G1 X-11.723 Y7.329 E5.98681
G1 X-12.243 Y7.289 E6.01283
G1 X-12.75 Y7.17 E6.03881
G1 X-13.233 Y6.975 E6.0648
G1 X-13.716 Y6.684 E6.09293
G1 X-14.396 Y6.192 E6.13481
G1 X-14.794 Y5.855 E6.16083
G1 X-15.135 Y5.461 E6.18682
G1 X-15.412 Y5.02 E6.2128
G1 X-15.635 Y4.494 E6.24131
G1 X-15.684 Y4.343 E6.24923
G1 X-15.819 Y4.27 E6.25688
G1 X-16.253 Y3.936 E6.28421
G1 X-16.704 Y3.527 E6.31458
G1 X-17.062 Y3.148 E6.34059
G1 X-17.358 Y2.719 E6.36659
G1 X-17.585 Y2.25 E6.39259
G1 X-17.754 Y1.675 E6.42249
G1 X-17.949 Y0.7 E6.4721
G1 X-18.013 Y-0.071 E6.51069
G1 X-17.985 Y-.985 E6.55631
G1 X-17.93 Y-1.503 E6.5823
G1 X-17.795 Y-2.007 E6.60833
G1 X-17.585 Y-2.484 E6.63434
G1 X-17.305 Y-2.923 E6.66031
G1 X-16.889 Y-3.383 E6.69126
G1 X-16.225 Y-3.994 E6.73627
G1 X-15.816 Y-4.316 E6.76224
G1 X-15.362 Y-4.572 E6.78825
G1 X-14.874 Y-4.756 E6.81427
G1 X-14.741 Y-4.784 E6.82105
G1 X-14.64 Y-5.028 E6.83422
G1 X-14.37 Y-5.473 E6.86019
G1 X-14.034 Y-5.871 E6.88618
G1 X-13.737 Y-6.14 E6.90617
G1 X-12.608 Y-7.046 E6.97839
G1 X-12.116 Y-7.374 E7.00789
G1 X-10.934 Y-8.023 E7.07516
G1 X-10.46 Y-8.238 E7.10113
G1 X-10.079 Y-8.369 E7.12123
G1 X-9.598 Y-8.57 E7.14724
G1 X-9.11 Y-8.692 E7.17233
G1 X-9.026 Y-8.743 E7.17724
G1 X-8.546 Y-8.945 E7.20322
G1 X-8.04 Y-9.071 E7.22923
G1 X-7.98 Y-9.076 E7.23224
G1 X-7.783 Y-9.224 E7.24453
G1 X-7.309 Y-9.475 E7.27129
G1 X-6.731 Y-9.726 E7.30273
G1 X-6.127 Y-10.178 E7.34036
G1 X-5.992 Y-10.274 E7.34863
G1 X-5.418 Y-10.662 E7.38319
G1 X-4.965 Y-10.92 E7.4092
G1 X-4.478 Y-11.105 E7.43519
G1 X-3.969 Y-11.214 E7.46116
G1 X-3.448 Y-11.244 E7.4872
G1 X-2.93 Y-11.194 E7.51316
G1 X-2.425 Y-11.066 E7.53915
G1 X-1.945 Y-10.861 E7.56519
G1 X-1.503 Y-10.586 E7.59116
G1 X-1.107 Y-10.247 E7.61717
G1 X-.971 Y-10.088 E7.62761
G1 X-.562 Y-10.413 E7.65367
G1 X-.448 Y-10.499 E7.6608
G1 X0.246 Y-11.004 E7.70362
G1 X0.518 Y-11.187 E7.71997
G1 X1.276 Y-11.642 E7.76408
G1 X1.547 Y-11.788 E7.77944
G1 X2.35 Y-12.176 E7.82393
G1 X2.632 Y-12.297 E7.83924
G1 X3.464 Y-12.61 E7.88359
G1 X3.753 Y-12.705 E7.89877
G1 X4.63 Y-12.948 E7.94417
G1 X4.925 Y-13.015 E7.95926
G1 X5.782 Y-13.172 E8.00273
G1 X6.081 Y-13.213 E8.01779
G1 X6.966 Y-13.295 E8.06213
G1 X7.272 Y-13.31 E8.07741
G1 X8.174 Y-13.312 E8.12241
G1 X8.488 Y-13.298 E8.13809
G1 X9.373 Y-13.218 E8.18243
G1 X9.668 Y-13.179 E8.19727
G1 X10.554 Y-13.02 E8.24218
G1 X10.859 Y-12.95 E8.25779
G1 X11.698 Y-12.718 E8.30122
G1 X11.979 Y-12.627 E8.31596
G1 X12.811 Y-12.317 E8.36025
G1 X13.098 Y-12.195 E8.37581
G1 X13.917 Y-11.801 E8.42116
G1 X14.179 Y-11.661 E8.43598
G1 X14.942 Y-11.208 E8.48025
G1 X15.208 Y-11.032 E8.49616
G1 X15.926 Y-10.509 E8.54047
G1 X16.163 Y-10.319 E8.55563
G1 X16.853 Y-9.715 E8.60138
G1 X17.07 Y-9.508 E8.61634
G1 X17.653 Y-8.899 E8.6584
G1 X17.851 Y-8.673 E8.67339
G1 X18.414 Y-7.97 E8.71833
G1 X18.592 Y-7.726 E8.73339
G1 X19.088 Y-6.979 E8.77813
G1 X19.252 Y-6.705 E8.79406
G1 X19.68 Y-5.907 E8.83924
G1 X19.809 Y-5.64 E8.85403
G1 X20.158 Y-4.826 E8.89822
G1 X20.266 Y-4.539 E8.91352
G1 X20.539 Y-3.701 E8.95749
G1 X20.62 Y-3.406 E8.97275
G1 X20.821 Y-2.527 E9.01774
G1 X20.876 Y-2.226 E9.033
G1 X20.995 Y-1.348 E9.07721
G1 X21.023 Y-1.041 E9.09259
G1 X21.063 Y-.137 E9.13773
G1 X21.062 Y0.168 E9.15295
G1 X21.022 Y1.043 E9.19665
G1 X20.995 Y1.345 E9.21177
G1 X20.876 Y2.223 E9.25598
G1 X20.822 Y2.522 E9.27114
G1 X20.621 Y3.403 E9.31622
G1 X20.54 Y3.697 E9.33143
G1 X20.268 Y4.535 E9.37539
G1 X20.158 Y4.827 E9.39096
G1 X19.808 Y5.642 E9.43521
G1 X19.68 Y5.907 E9.44989
G1 X19.254 Y6.701 E9.49484
G1 X19.092 Y6.973 E9.51064
G1 X18.594 Y7.724 E9.55559
G1 X18.414 Y7.97 E9.5708
G1 X17.88 Y8.637 E9.61343
G1 X17.663 Y8.889 E9.63002
G1 X17.047 Y9.53 E9.67437
G1 X16.832 Y9.735 E9.68919
G1 X16.162 Y10.32 E9.73357
G1 X15.922 Y10.511 E9.74887
G1 X15.179 Y11.05 E9.79467
G1 X14.916 Y11.223 E9.81037
G1 X14.163 Y11.669 E9.85403
G1 X13.902 Y11.809 E9.86881
G1 X13.123 Y12.183 E9.91192
G1 X12.85 Y12.299 E9.92672
G1 X12.017 Y12.613 E9.97113
G1 X11.689 Y12.72 E9.98835
G1 X10.824 Y12.957 E10.03309
G1 X10.526 Y13.025 E10.04834
G1 X9.667 Y13.179 E10.09188
G1 X9.373 Y13.218 E10.10668
G1 X8.488 Y13.298 E10.15101
G1 X8.174 Y13.312 E10.16669
G1 X7.272 Y13.31 E10.21169
G1 X6.966 Y13.295 E10.22698
G1 X6.081 Y13.213 E10.27132
G1 X5.781 Y13.172 E10.28643
G1 X4.898 Y13.01 E10.33121
G1 X4.596 Y12.94 E10.34668
G1 X3.745 Y12.702 E10.39077
G1 X3.464 Y12.61 E10.40552
G1 X2.632 Y12.297 E10.44987
G1 X2.351 Y12.177 E10.46511
G1 X1.547 Y11.789 E10.50965
G1 X1.273 Y11.641 E10.52518
G1 X0.516 Y11.186 E10.56925
G1 X0.262 Y11.017 E10.58447
G1 X-.451 Y10.496 E10.62853
G1 X-.553 Y10.419 E10.6349
G1 X-1.163 Y9.937 E10.67369
G1 X-1.72 Y9.395 E10.71246
G1 X-2.152 Y8.874 E10.74623
G1 X-2.45 Y8.46 E10.77168
G1 X-2.825 Y7.854 E10.80723
G1 X-3.065 Y7.391 E10.83325
G1 X-3.239 Y6.878 E10.86027
G1 X-3.348 Y6.369 E10.88624
G0 F4200 X-3.691 Y5.683
G1 F1800 X-4.18 Y5.692 E10.91065
G1 X-4.664 Y5.622 E10.93504
G1 X-5.241 Y5.418 E10.96558
G1 X-5.5 Y5.353 E10.9789
G1 X-5.949 Y5.159 E11.0033
G1 X-6.516 Y4.783 E11.03724
G1 X-6.922 Y4.423 E11.06431
G1 X-7.399 Y4.469 E11.08822
G1 X-7.547 Y4.821 E11.10727
G1 X-7.808 Y5.235 E11.13169
G1 X-8.132 Y5.602 E11.15611
G1 X-8.45 Y5.868 E11.1768
G1 X-9.13 Y6.36 E11.21867
G1 X-9.549 Y6.613 E11.24309
G1 X-10.003 Y6.795 E11.26749
G1 X-10.481 Y6.901 E11.29192
G1 X-10.889 Y6.929 E11.31232
G1 X-11.723 Y6.929 E11.35393
G1 X-12.211 Y6.889 E11.37836
G1 X-12.686 Y6.77 E11.40279
G1 X-13.135 Y6.576 E11.42719
G1 X-13.482 Y6.36 E11.44758
G1 X-14.162 Y5.868 E11.48946
G1 X-14.533 Y5.549 E11.51387
G1 X-14.849 Y5.175 E11.5383
G1 X-15.099 Y4.754 E11.56272
G1 X-15.347 Y4.086 E11.59827
G1 X-15.462 Y4.019 E11.60491
G1 X-15.984 Y3.639 E11.63713
G1 X-16.435 Y3.23 E11.6675
G1 X-16.77 Y2.873 E11.69192
G1 X-17.042 Y2.466 E11.71635
G1 X-17.244 Y2.02 E11.74077
G1 X-17.362 Y1.596 E11.76273
G1 X-17.557 Y0.621 E11.81234
G1 X-17.614 Y-0.059 E11.84638
G1 X-17.586 Y-.973 E11.892
G1 X-17.531 Y-1.459 E11.9164
G1 X-17.398 Y-1.93 E11.94082
G1 X-17.189 Y-2.373 E11.96526
G1 X-16.912 Y-2.777 E11.9897
G1 X-16.618 Y-3.089 E12.01109
G1 X-15.954 Y-3.7 E12.0561
G1 X-15.568 Y-4.001 E12.08052
G1 X-15.139 Y-4.235 E12.1049
G1 X-14.455 Y-4.435 E12.14046
G1 X-14.27 Y-4.873 E12.16418
G1 X-14.01 Y-5.287 E12.18857
G1 X-13.487 Y-5.828 E12.22611
G1 X-12.358 Y-6.734 E12.29833
G1 X-11.924 Y-7.024 E12.32437
G1 X-10.742 Y-7.673 E12.39165
G1 X-10.295 Y-7.872 E12.41606
G1 X-9.991 Y-7.952 E12.43174
G1 X-9.416 Y-8.209 E12.46316
G1 X-8.969 Y-8.308 E12.486
G1 X-8.363 Y-8.583 E12.5192
G1 X-7.824 Y-8.694 E12.54666
G1 X-7.543 Y-8.903 E12.56413
G1 X-7.15 Y-9.108 E12.58624
G1 X-6.528 Y-9.378 E12.62007
G1 X-5.887 Y-9.858 E12.66003
G1 X-5.768 Y-9.942 E12.66729
G1 X-5.194 Y-10.33 E12.70186
G1 X-4.768 Y-10.571 E12.72628
G1 X-4.308 Y-10.738 E12.75069
G1 X-3.827 Y-10.829 E12.77511
G1 X-3.337 Y-10.84 E12.79957
G1 X-2.853 Y-10.771 E12.82396
G1 X-2.385 Y-10.625 E12.84842
G1 X-1.948 Y-10.404 E12.87285
G1 X-1.553 Y-10.115 E12.89727
G1 X-1.21 Y-9.766 E12.92168
G1 X-1.035 Y-9.518 E12.93682
G1 X-.924 Y-9.615 E12.94418
G1 X-.313 Y-10.1 E12.9831
G1 X-.213 Y-10.176 E12.98936
G1 X0.481 Y-10.681 E13.03218
G1 X0.724 Y-10.844 E13.04678
G1 X1.482 Y-11.299 E13.09089
G1 X1.721 Y-11.428 E13.10444
G1 X2.524 Y-11.816 E13.14893
G1 X2.773 Y-11.923 E13.16245
G1 X3.605 Y-12.236 E13.2068
G1 X3.86 Y-12.319 E13.22018
G1 X4.737 Y-12.562 E13.26558
G1 X4.997 Y-12.622 E13.27889
G1 X5.854 Y-12.779 E13.32236
G1 X6.118 Y-12.815 E13.33565
G1 X7.003 Y-12.897 E13.38
G1 X7.273 Y-12.91 E13.39348
G1 X8.175 Y-12.912 E13.43848
G1 X8.452 Y-12.9 E13.45231
G1 X9.337 Y-12.82 E13.49665
G1 X9.597 Y-12.785 E13.50974
G1 X10.483 Y-12.626 E13.55465
G1 X10.753 Y-12.564 E13.56847
G1 X11.592 Y-12.332 E13.61189
G1 X11.839 Y-12.252 E13.62485
G1 X12.671 Y-11.942 E13.66914
G1 X12.925 Y-11.834 E13.68291
G1 X13.744 Y-11.44 E13.72826
G1 X13.975 Y-11.317 E13.74131
G1 X14.738 Y-10.864 E13.78558
G1 X14.972 Y-10.709 E13.79959
G1 X15.69 Y-10.186 E13.8439
G1 X15.9 Y-10.018 E13.85732
G1 X16.59 Y-9.414 E13.90307
G1 X16.781 Y-9.232 E13.91623
G1 X17.364 Y-8.623 E13.95829
G1 X17.539 Y-8.423 E13.97155
G1 X18.102 Y-7.72 E14.01649
G1 X18.259 Y-7.504 E14.02981
G1 X18.755 Y-6.757 E14.07454
G1 X18.9 Y-6.516 E14.08858
G1 X19.328 Y-5.718 E14.13375
G1 X19.441 Y-5.482 E14.14681
G1 X19.79 Y-4.668 E14.19099
G1 X19.885 Y-4.415 E14.20448
G1 X20.158 Y-3.577 E14.24845
G1 X20.231 Y-3.317 E14.26192
G1 X20.432 Y-2.438 E14.3069
G1 X20.48 Y-2.172 E14.32039
G1 X20.599 Y-1.294 E14.36459
G1 X20.623 Y-1.024 E14.37812
G1 X20.663 Y-.12 E14.42326
G1 X20.663 Y0.15 E14.43673
G1 X20.623 Y1.025 E14.48043
G1 X20.599 Y1.291 E14.49376
G1 X20.48 Y2.169 E14.53796
G1 X20.432 Y2.433 E14.55135
G1 X20.231 Y3.314 E14.59643
G1 X20.159 Y3.573 E14.60984
G1 X19.887 Y4.411 E14.6538
G1 X19.791 Y4.669 E14.66753
G1 X19.441 Y5.484 E14.71178
G1 X19.328 Y5.718 E14.72475
G1 X18.902 Y6.512 E14.7697
G1 X18.758 Y6.752 E14.78366
G1 X18.26 Y7.503 E14.82862
G1 X18.102 Y7.72 E14.84201
G1 X17.568 Y8.387 E14.88464
G1 X17.375 Y8.612 E14.89943
G1 X16.759 Y9.253 E14.94378
G1 X16.569 Y9.434 E14.95687
G1 X15.899 Y10.019 E15.00125
G1 X15.688 Y10.187 E15.01471
G1 X14.945 Y10.726 E15.0605
G1 X14.712 Y10.879 E15.07441
G1 X13.959 Y11.325 E15.11807
G1 X13.728 Y11.448 E15.13113
G1 X12.949 Y11.822 E15.17424
G1 X12.709 Y11.925 E15.18727
G1 X11.876 Y12.239 E15.23168
G1 X11.584 Y12.334 E15.247
G1 X10.719 Y12.571 E15.29175
G1 X10.455 Y12.631 E15.30525
G1 X9.596 Y12.785 E15.34879
G1 X9.337 Y12.82 E15.36183
G1 X8.452 Y12.9 E15.40616
G1 X8.175 Y12.912 E15.42
G1 X7.273 Y12.91 E15.465
G1 X7.003 Y12.897 E15.47848
G1 X6.118 Y12.815 E15.52282
G1 X5.854 Y12.779 E15.53612
G1 X4.971 Y12.617 E15.58091
G1 X4.704 Y12.555 E15.59458
G1 X3.853 Y12.317 E15.63867
G1 X3.605 Y12.236 E15.65168
G1 X2.773 Y11.923 E15.69603
G1 X2.525 Y11.817 E15.70949
G1 X1.721 Y11.429 E15.75402
G1 X1.48 Y11.298 E15.76771
G1 X0.723 Y10.843 E15.81177
G1 X0.498 Y10.694 E15.82524
G1 X-.215 Y10.173 E15.86929
G1 X-.305 Y10.105 E15.87492
G1 X-.915 Y9.623 E15.91371
