;FLAVOR:Marlin
;TIME:242
;Filament used: 0.120188m
;Layer height: 0.15
;MINX:-11.333
;MINY:-5.046
;MINZ:0.36
;MAXX:11.335
;MAXY:5.046
;MAXZ:14.535
;Generated with Cura_SteamEngine 4.13.1
M140 S60
M105
M190 S60
M104 S200
M105
M109 S200
M82 ;absolute extrusion mode
G28 ;Home
G1 Z15.0 F6000 ;Move the platform down 15mm
;Prime the extruder
G92 E0
G1 F200 E3
G92 E0
G92 E0
G92 E0
G1 F1500 E-6.5
;LAYER_COUNT:92
;LAYER:-4
M106 S56.8
G0 F3600 X1.574 Y-4.533 Z0.36
;TYPE:SUPPORT-INTERFACE
G1 F1500 E0
G1 F1350 X2.249 Y-4.432 E0.08172
G1 X2.932 Y-4.417 E0.16352
G1 X3.614 Y-4.488 E0.24562
G1 X4.486 Y-4.714 E0.35348
G1 X4.968 Y-4.87 E0.41414
G1 X5.526 Y-4.988 E0.48243
G1 X6.089 Y-5.044 E0.55018
G1 X6.654 Y-5.035 E0.61784
G1 X7.188 Y-4.967 E0.68229
G1 X7.763 Y-4.827 E0.75315
G1 X8.274 Y-4.64 E0.81831
G1 X8.779 Y-4.389 E0.88583
G1 X9.251 Y-4.085 E0.95305
G1 X9.707 Y-3.713 E1.02352
G1 X10.085 Y-3.325 E1.08838
G1 X10.453 Y-2.851 E1.16023
G1 X10.731 Y-2.395 E1.22418
G1 X10.971 Y-1.884 E1.29177
G1 X11.155 Y-1.338 E1.36076
G1 X11.275 Y-.788 E1.42817
G1 X11.328 Y-.282 E1.48909
G1 X11.329 Y0.265 E1.55458
G1 X11.277 Y0.775 E1.61596
G1 X11.157 Y1.33 E1.68395
G1 X10.975 Y1.874 E1.75264
G1 X10.739 Y2.38 E1.81949
G1 X10.453 Y2.851 E1.88547
G1 X10.09 Y3.319 E1.95639
G1 X9.71 Y3.71 E2.02167
G1 X9.266 Y4.074 E2.09042
G1 X8.779 Y4.389 E2.15986
G1 X8.281 Y4.637 E2.22648
G1 X8.045 Y4.731 E2.25689
G1 X7.503 Y4.899 E2.32484
G1 X6.958 Y5.002 E2.39125
G1 X6.395 Y5.046 E2.45886
G1 X5.833 Y5.026 E2.5262
G1 X5.265 Y4.941 E2.59497
G1 X4.71 Y4.793 E2.66374
G1 X4.49 Y4.715 E2.69169
G1 X3.844 Y4.533 E2.77205
G1 X3.169 Y4.432 E2.85377
G1 X2.486 Y4.417 E2.93557
G1 X1.804 Y4.488 E3.01768
G1 X0.932 Y4.714 E3.12554
G1 X0.341 Y4.899 E3.19969
G1 X-.204 Y5.002 E3.2661
G1 X-.767 Y5.046 E3.33371
G1 X-1.312 Y5.027 E3.39901
G1 X-1.905 Y4.94 E3.47077
G1 X-2.436 Y4.799 E3.53656
G1 X-2.981 Y4.584 E3.60671
G1 X-3.57 Y4.299 E3.68506
G1 X-3.766 Y4.229 E3.70998
G1 X-4.42 Y4.033 E3.79172
G1 X-5.094 Y3.921 E3.87353
G1 X-5.778 Y3.895 E3.95549
G1 X-6.541 Y3.97 E4.04729
G1 X-7.169 Y4.039 E4.12294
G1 X-7.827 Y4.006 E4.20182
G1 X-8.34 Y3.906 E4.26441
G1 X-8.953 Y3.688 E4.34231
G1 X-9.55 Y3.355 E4.42416
G1 X-10.088 Y2.922 E4.50685
G1 X-10.556 Y2.388 E4.59187
G1 X-10.897 Y1.833 E4.66986
G1 X-11.161 Y1.177 E4.75453
G1 X-11.304 Y0.518 E4.83527
G1 X-11.333 Y0.004 E4.89692
G1 X-11.281 Y-.645 E4.97488
G1 X-11.105 Y-1.338 E5.06049
G1 X-10.843 Y-1.931 E5.13811
G1 X-10.452 Y-2.518 E5.22256
G1 X-9.995 Y-3.003 E5.30235
G1 X-9.443 Y-3.42 E5.38519
G1 X-8.825 Y-3.74 E5.46852
G1 X-8.182 Y-3.942 E5.54922
G1 X-7.583 Y-4.035 E5.6218
G1 X-6.99 Y-4.034 E5.6928
G1 X-6.543 Y-3.976 E5.74677
G1 X-5.878 Y-3.903 E5.82688
G1 X-5.196 Y-3.915 E5.90855
G1 X-4.519 Y-4.013 E5.99046
G1 X-3.86 Y-4.196 E6.07235
G1 X-3.57 Y-4.299 E6.1092
G1 X-2.979 Y-4.585 E6.18781
G1 X-2.436 Y-4.799 E6.25769
G1 X-1.905 Y-4.94 E6.32348
G1 X-1.312 Y-5.027 E6.39524
G1 X-.767 Y-5.046 E6.46054
G1 X-.204 Y-5.002 E6.52816
G1 X0.341 Y-4.899 E6.59457
G1 X0.928 Y-4.715 E6.66822
G1 X1.574 Y-4.533 E6.74859
G1 X1.6 Y-4.529
G1 X1.6 Y4.541 E7.8346
G0 F3600 X3.2 Y4.436
G1 F1350 X3.2 Y-4.445 E8.89797
G0 F3600 X4.8 Y-4.816
G1 F1350 X4.8 Y4.817 E10.0514
G0 F3600 X6.4 Y5.046
G1 F1350 X6.4 Y-5.039 E11.25894
G0 F3600 X8 Y-4.74
G1 F1350 X8 Y4.745 E12.39464
G0 F3600 X9.6 Y3.801
G1 F1350 X9.6 Y-3.8 E13.30476
G0 F3600 X11.2 Y-1.131
G1 F1350 X11.2 Y1.132 E13.57572
G0 F3600 X0.00 Y4.964
G1 F1350 X0.00 Y-4.963 E14.76434
G0 F3600 X-1.6 Y-4.985
G1 F1350 X-1.6 Y4.984 E15.958
G0 F3600 X-3.2 Y4.478
G1 F1350 X-3.2 Y-4.479 E17.03048
G0 F3600 X-4.8 Y-3.973
G1 F1350 X-4.8 Y3.969 E17.98142
G0 F3600 X-6.4 Y3.957
G1 F1350 X-6.4 Y-3.96 E18.92938
G0 F3600 X-8 Y-3.971
G1 F1350 X-8 Y3.972 E19.88044
G0 F3600 X-9.6 Y3.314
G1 F1350 X-9.6 Y-3.302 E20.67262
G0 F3600 X-11.2 Y-.964
G1 F1350 X-11.2 Y0.997 E20.90742
G0 F600 X-11.2 Y0.997 Z0.585
G0 F3600 X-10.804 Y1.998
;TIME_ELAPSED:10.827475
;LAYER:-3
M107
;TYPE:SUPPORT
G1 F1350 X-10.9 Y1.825 E20.92223
G1 X-10.993 Y1.621 E20.93901
G1 X-11.09 Y1.379 E20.95852
G1 X-11.165 Y1.163 E20.97563
G1 X-11.208 Y0.999 E20.98832
G1 X11.235 Y1 E22.66785
G1 X11.258 Y0.887 E22.67648
G1 X11.277 Y0.774 E22.68505
G1 X11.293 Y0.656 E22.69396
G1 X11.313 Y0.481 E22.70715
G1 X11.326 Y0.33 E22.71849
G1 X11.335 Y0.072 E22.73781
G1 X11.335 Y0.00 E22.74319
G1 X-11.332 Y0.00 E24.43949
G1 X-11.331 Y-.194 E24.454
G1 X-11.315 Y-.375 E24.4676
G1 X-11.281 Y-.644 E24.48789
G1 X-11.245 Y-.849 E24.50347
G1 X-11.206 Y-1 E24.51514
G1 X11.236 Y-.999 E26.19459
G1 X11.23 Y-1.031 E26.19703
G1 X11.179 Y-1.247 E26.21364
G1 X11.127 Y-1.436 E26.22831
G1 X11.064 Y-1.629 E26.2435
G1 X11.022 Y-1.75 E26.25309
G1 X10.971 Y-1.883 E26.26375
G1 X10.921 Y-1.999 E26.2732
G1 X-10.803 Y-2 E27.89892
G1 X-10.736 Y-2.12 E27.90921
G1 X-10.62 Y-2.291 E27.92467
G1 X-10.452 Y-2.517 E27.94574
G1 X-10.332 Y-2.666 E27.96006
G1 X-10.173 Y-2.831 E27.97721
G1 X-9.997 Y-3 E27.99547
G1 X10.347 Y-2.999 E29.51792
G1 X10.299 Y-3.062 E29.52385
G1 X10.17 Y-3.225 E29.5394
G1 X10.008 Y-3.41 E29.5578
G1 X9.915 Y-3.508 E29.56791
G1 X9.774 Y-3.649 E29.58284
G1 X9.707 Y-3.712 E29.58972
G1 X9.597 Y-3.81 E29.60074
G1 X9.508 Y-3.884 E29.60941
G1 X9.364 Y-3.999 E29.6232
G1 X-4.601 Y-4 E30.66827
G1 X-4.519 Y-4.012 E30.67447
G1 X-3.859 Y-4.196 E30.72575
G1 X-3.578 Y-4.316 E30.74862
G1 X-3.569 Y-4.299 E30.75005
G1 X-2.978 Y-4.585 E30.79919
G1 X-2.862 Y-4.637 E30.8087
G1 X-2.757 Y-4.681 E30.81722
G1 X-2.626 Y-4.731 E30.82771
G1 X-2.435 Y-4.799 E30.84289
G1 X-2.344 Y-4.827 E30.85001
G1 X-2.084 Y-4.899 E30.8702
G1 X-1.904 Y-4.94 E30.88402
G1 X-1.769 Y-4.967 E30.89432
G1 X-1.669 Y-4.984 E30.90191
G1 X-1.553 Y-5 E30.91067
G1 X-.188 Y-5 E31.01282
G1 X-0.073 Y-4.984 E31.02151
G1 X0.025 Y-4.967 E31.02896
G1 X0.16 Y-4.94 E31.03926
G1 X0.34 Y-4.899 E31.05307
G1 X0.6 Y-4.827 E31.07326
G1 X0.707 Y-4.793 E31.08167
G1 X0.927 Y-4.715 E31.09913
G1 X1.573 Y-4.533 E31.14936
G1 X2.248 Y-4.432 E31.20044
G1 X2.931 Y-4.417 E31.25156
G1 X3.613 Y-4.488 E31.30287
G1 X4.486 Y-4.714 E31.37036
G1 X4.71 Y-4.793 E31.38813
G1 X4.817 Y-4.827 E31.39654
G1 X5.074 Y-4.898 E31.41649
G1 X5.363 Y-4.961 E31.43862
G0 F3600 X6.958 Y-5.002
G1 F1350 X6.654 Y-5.034 E31.4615
G1 X6.489 Y-5.044 E31.47387
G1 X6.395 Y-5.046 E31.48091
G1 X6.089 Y-5.044 E31.50381
G1 X5.939 Y-5.036 E31.51505
G1 X5.833 Y-5.026 E31.52302
G1 X5.615 Y-5.001 E31.53944
G1 X5.609 Y-5 E31.53989
G1 X6.973 Y-5 E31.64197
G0 F3600 X2.758 Y-4.903
G0 X-.203 Y-5.002
G1 F1350 X-.507 Y-5.034 E31.66484
G1 X-.672 Y-5.044 E31.67721
G1 X-.766 Y-5.046 E31.68425
G1 X-1.07 Y-5.044 E31.707
G1 X-1.235 Y-5.035 E31.71937
G1 X-1.539 Y-5.002 E31.74225
G1 X-1.553 Y-5 E31.74331
G0 F3600 X-5.196 Y-3.914
G1 F1350 X-5.878 Y-3.902 E31.79435
G1 X-6.543 Y-3.975 E31.84442
G1 X-6.608 Y-3.986 E31.84935
G1 X-6.709 Y-4 E31.85698
G1 X-7.878 Y-4 E31.94446
G1 X-7.8 Y-4.011 E31.95036
G1 X-7.583 Y-4.034 E31.96669
G1 X-7.441 Y-4.044 E31.97734
G1 X-7.22 Y-4.047 E31.99388
G1 X-7.152 Y-4.045 E31.99897
G1 X-6.99 Y-4.033 E32.01113
G1 X-6.803 Y-4.013 E32.0252
G0 F3600 X-10.804 Y1.999
G1 F1350 X10.922 Y2 E33.65108
G1 X10.879 Y2.097 E33.65902
G1 X10.793 Y2.275 E33.67381
G1 X10.739 Y2.379 E33.68258
G1 X10.624 Y2.583 E33.70011
G1 X10.508 Y2.768 E33.71645
G1 X10.369 Y2.969 E33.73473
G1 X10.345 Y3 E33.73767
G1 X-10 Y2.999 E35.26019
G1 X-9.929 Y3.062 E35.2673
G1 X-9.713 Y3.235 E35.28801
G1 X-9.568 Y3.342 E35.30149
G1 X-9.376 Y3.461 E35.3184
G1 X-9.141 Y3.593 E35.33857
G1 X-8.974 Y3.677 E35.35256
G1 X-8.758 Y3.765 E35.37001
G1 X-8.491 Y3.859 E35.39119
G1 X-8.34 Y3.905 E35.40301
G1 X-8.281 Y3.92 E35.40756
G1 X-8.125 Y3.954 E35.41951
G1 X-7.863 Y3.999 E35.4394
G1 X-6.716 Y3.999 E35.52524
G1 X-6.733 Y4.002 E35.52653
G1 X-6.941 Y4.028 E35.54222
G1 X-7.169 Y4.038 E35.5593
G1 X-7.413 Y4.038 E35.57756
G1 X-7.656 Y4.027 E35.59576
G1 X-7.827 Y4.005 E35.60866
G0 F3600 X-6.541 Y3.969
G1 F1350 X-5.778 Y3.894 E35.66604
G1 X-5.094 Y3.92 E35.71726
G1 X-4.619 Y3.999 E35.7533
G1 X9.362 Y4 E36.79957
G1 X9.355 Y4.006 E36.80026
G1 X9.266 Y4.073 E36.8086
G1 X9.162 Y4.147 E36.81815
G1 X9.053 Y4.22 E36.82797
G1 X8.905 Y4.313 E36.84105
G1 X8.779 Y4.388 E36.85202
G1 X8.575 Y4.498 E36.86936
G1 X8.398 Y4.583 E36.88406
G1 X8.281 Y4.636 E36.89367
G1 X8.176 Y4.68 E36.90219
G1 X8.045 Y4.73 E36.91268
G1 X7.854 Y4.798 E36.92786
G1 X7.763 Y4.826 E36.93498
G1 X7.503 Y4.898 E36.95517
G1 X7.323 Y4.94 E36.969
G1 X7.188 Y4.967 E36.97931
G1 X7.088 Y4.984 E36.9869
G1 X6.972 Y5 E36.99566
G1 X5.608 Y5 E37.09774
G1 X5.363 Y4.961 E37.1163
G1 X5.072 Y4.898 E37.13858
G1 X4.817 Y4.827 E37.15839
G1 X4.71 Y4.793 E37.16679
G1 X4.49 Y4.715 E37.18426
G1 X3.843 Y4.533 E37.23456
G1 X3.168 Y4.432 E37.28563
G1 X2.485 Y4.417 E37.33676
G1 X1.803 Y4.488 E37.38807
G1 X0.931 Y4.714 E37.45549
G1 X0.707 Y4.793 E37.47326
G1 X0.6 Y4.827 E37.48166
G1 X0.34 Y4.899 E37.50185
G1 X0.16 Y4.94 E37.51567
G1 X0.025 Y4.967 E37.52597
G1 X-0.073 Y4.984 E37.53341
G0 F3600 X-1.539 Y5.002
G1 F1350 X-1.235 Y5.034 E37.55629
G1 X-1.07 Y5.044 E37.56866
G1 X-.976 Y5.046 E37.5757
G1 X-.672 Y5.044 E37.59845
G1 X-.507 Y5.035 E37.61081
G1 X-.203 Y5.002 E37.6337
G1 X-.189 Y5 E37.63475
G1 X-1.554 Y5 E37.7369
G0 F3600 X2.66 Y4.903
G0 X5.615 Y5.001
G1 F1350 X5.833 Y5.027 E37.75333
G1 X5.939 Y5.035 E37.76129
G1 X6.089 Y5.044 E37.77253
G1 X6.186 Y5.046 E37.7798
G1 X6.489 Y5.044 E37.80247
G1 X6.654 Y5.035 E37.81484
G1 X6.958 Y5.002 E37.83772
G1 X6.972 Y5 E37.83878
G0 F600 X6.972 Y5 Z0.885
G0 F3600 X1.15 Y-.986
;TIME_ELAPSED:21.715779
;LAYER:0
M106 S255
;TYPE:WALL-OUTER
;MESH:Connector_FPX.STL
G1 F1800 X1.322 Y-.501 E37.86445
G1 X1.377 Y0.00 E37.8896
G1 X1.322 Y0.501 E37.91474
G1 X1.151 Y0.983 E37.94026
G1 X0.892 Y1.397 E37.96462
G1 X0.534 Y1.757 E37.98995
G1 X0.106 Y2.025 E38.01514
G1 X-.371 Y2.194 E38.04039
G1 X-.872 Y2.249 E38.06554
G1 X-1.373 Y2.194 E38.09068
G1 X-1.85 Y2.025 E38.11593
G1 X-2.277 Y1.757 E38.14108
G1 X-2.635 Y1.397 E38.16641
G1 X-2.899 Y0.975 E38.19124
G1 X-3.065 Y0.501 E38.2163
G1 X-3.121 Y0.00 E38.24145
G1 X-3.065 Y-.501 E38.2666
G1 X-2.899 Y-.975 E38.29166
G1 X-2.635 Y-1.397 E38.31649
G1 X-2.277 Y-1.757 E38.34182
G1 X-1.85 Y-2.025 E38.36697
G1 X-1.373 Y-2.194 E38.39222
G1 X-.872 Y-2.249 E38.41737
G1 X-.371 Y-2.194 E38.44251
G1 X0.106 Y-2.025 E38.46776
G1 X0.534 Y-1.757 E38.49295
G1 X0.892 Y-1.397 E38.51828
G1 X1.15 Y-.986 E38.54249
G0 X1.216 Y-.798
G0 X1.122 Y-.766
G0 X0.062 Y-1.467
G0 X-.88 Y-1.741
G0 X-1.819 Y-1.459
G0 X-2.511 Y-.741
G0 X-2.42 Y-.7
G1 X-2.556 Y-.234 E38.56671
G1 X-2.554 Y0.25 E38.59086
G1 X-2.415 Y0.713 E38.61497
G1 X-2.152 Y1.119 E38.63911
G1 X-1.785 Y1.434 E38.66324
G1 X-1.343 Y1.632 E38.6874
G1 X-.864 Y1.701 E38.71154
G1 X-.385 Y1.629 E38.73571
G1 X0.054 Y1.426 E38.75984
G1 X0.418 Y1.107 E38.78399
G1 X0.678 Y0.7 E38.80808
G1 X0.812 Y0.234 E38.83227
G1 X0.81 Y-.25 E38.85642
G1 X0.672 Y-.713 E38.88052
G1 X0.408 Y-1.119 E38.90468
G1 X0.041 Y-1.434 E38.92881
G1 X-.393 Y-1.631 E38.95259
G1 X-.88 Y-1.701 E38.97714
G1 X-1.359 Y-1.629 E39.0013
G1 X-1.798 Y-1.426 E39.02543
G1 X-2.162 Y-1.107 E39.04958
G1 X-2.42 Y-.7 E39.07362
G0 X-2.476 Y-.508
G0 X-2.698 Y-.718
;TYPE:SKIN
G1 X-2.61 Y-.913 E39.07799
G1 X-2.1 Y-1.534 E39.09441
G1 X-1.339 Y-1.905 E39.11171
G1 X-.511 Y-1.926 E39.12863
G1 X-0.093 Y-1.79 E39.13761
G1 X0.555 Y-1.423 E39.15283
G1 X0.911 Y-.785 E39.16775
G1 X1.089 Y-0.042 E39.18336
G1 X0.965 Y0.682 E39.19837
G1 X0.527 Y1.375 E39.21512
G1 X-.153 Y1.825 E39.23178
G1 X-.864 Y1.963 E39.24657
G1 X-1.571 Y1.822 E39.2613
G1 X-2.275 Y1.401 E39.27806
G1 X-2.71 Y0.683 E39.29521
G1 X-2.83 Y-0.003 E39.30944
G1 X-2.766 Y-.503 E39.31974
G0 X-2.874 Y-.572
G1 F1500 E32.81974
G0 F1800 X-1.819 Y-1.459
G0 X-.88 Y-1.741
G0 X-.382 Y-1.669
G0 X0.274 Y-1.285
G0 X1.357 Y0.00
G0 X4.061 Y0.00
G1 F1500 E39.31974
G0 F1800 X4.041 Y0.00
;TYPE:WALL-OUTER
G1 X4.096 Y-.501 E39.34488
G1 X4.262 Y-.975 E39.36994
G1 X4.526 Y-1.397 E39.39477
G1 X4.884 Y-1.757 E39.4201
G1 X5.312 Y-2.025 E39.4453
G1 X5.788 Y-2.194 E39.4705
G1 X6.29 Y-2.249 E39.49569
G1 X6.791 Y-2.194 E39.52084
G1 X7.268 Y-2.025 E39.54608
G1 X7.695 Y-1.757 E39.57124
G1 X8.053 Y-1.397 E39.59657
G1 X8.317 Y-.975 E39.6214
G1 X8.483 Y-.501 E39.64646
G1 X8.539 Y0.00 E39.67161
G1 X8.483 Y0.501 E39.69676
G1 X8.317 Y0.975 E39.72181
G1 X8.053 Y1.397 E39.74665
G1 X7.695 Y1.757 E39.77198
G1 X7.268 Y2.025 E39.79713
G1 X6.791 Y2.194 E39.82238
G1 X6.29 Y2.249 E39.84752
G1 X5.788 Y2.194 E39.87272
G1 X5.312 Y2.025 E39.89792
G1 X4.884 Y1.757 E39.92311
G1 X4.526 Y1.397 E39.94844
G1 X4.262 Y0.975 E39.97327
G1 X4.096 Y0.501 E39.99833
G1 X4.041 Y0.00 E40.02347
G0 X4.062 Y-.198
G0 X4.74 Y-.7
G1 X4.606 Y-.234 E40.04767
G1 X4.608 Y0.25 E40.07181
G1 X4.746 Y0.713 E40.09592
G1 X5.01 Y1.119 E40.12008
G1 X5.378 Y1.434 E40.14424
G1 X5.811 Y1.631 E40.16798
G1 X6.298 Y1.701 E40.19252
G1 X6.777 Y1.629 E40.21669
G1 X7.216 Y1.426 E40.24082
G1 X7.579 Y1.107 E40.26493
G1 X7.838 Y0.7 E40.289
G1 X7.972 Y0.234 E40.31319
G1 X7.971 Y-.25 E40.33733
G1 X7.833 Y-.713 E40.36144
G1 X7.569 Y-1.119 E40.3856
G1 X7.203 Y-1.434 E40.40969
G1 X6.761 Y-1.632 E40.43385
G1 X6.282 Y-1.701 E40.458
G1 X5.803 Y-1.629 E40.48216
G1 X5.364 Y-1.426 E40.50629
G1 X5 Y-1.106 E40.53047
G1 X4.74 Y-.7 E40.55453
G0 X4.685 Y-.508
G0 X4.44 Y-.65
;TYPE:SKIN
G1 X4.513 Y-.86 E40.55928
G1 X5.012 Y-1.492 E40.57652
G1 X5.747 Y-1.888 E40.59438
G1 X6.544 Y-1.94 E40.61148
G1 X6.915 Y-1.852 E40.61964
G1 X7.671 Y-1.378 E40.63873
G1 X8.153 Y-.613 E40.65808
G1 X8.245 Y0.044 E40.67228
G1 X8.105 Y0.751 E40.68771
G1 X7.641 Y1.419 E40.70511
G1 X6.943 Y1.852 E40.72269
G1 X6.203 Y1.961 E40.7387
G1 X5.88 Y1.92 E40.74567
G1 X5.438 Y1.761 E40.75572
G0 X4.554 Y0.877
G1 X4.378 Y0.418 E40.77031
G1 X4.371 Y-.436 E40.79565
G0 X4.267 Y-.502
G1 F1500 E34.29565
G0 F1800 X4.061 Y0.00
G0 X3.177 Y0.049
G0 X1.331 Y2.203
G0 X0.786 Y2.637
G0 X0.157 Y2.941
G0 X-.524 Y3.096
G0 X-1.564 Y3.038
G0 X-2.225 Y2.806
G0 X-2.912 Y2.319
G0 X-5.18 Y-0.019
G0 X-6.468 Y0.039
G0 X-6.692 Y-.442
G1 F1500 E40.79565
G0 F1800 X-6.612 Y-.501
;TYPE:WALL-INNER
G1 X-6.486 Y-.249 E40.80971
G1 X-6.449 Y0.039 E40.82419
G1 X-6.508 Y0.311 E40.83808
G1 X-6.659 Y0.559 E40.85257
G1 X-6.88 Y0.737 E40.86672
G1 X-7.153 Y0.832 E40.88114
G1 X-7.429 Y0.832 E40.89491
G1 X-7.702 Y0.737 E40.90934
G1 X-7.924 Y0.558 E40.92356
G1 X-8.075 Y0.315 E40.93784
G1 X-8.134 Y0.04 E40.95187
G1 X-8.097 Y-.251 E40.9665
G1 X-7.97 Y-.5 E40.98045
G1 X-7.761 Y-.699 E40.99485
G1 X-7.492 Y-.821 E41.00958
G1 X-7.09 Y-.821 E41.02964
G1 X-6.821 Y-.699 E41.04437
G1 X-6.612 Y-.501 E41.05874
G0 X-6.286 Y-.743
;TYPE:WALL-OUTER
G1 X-6.098 Y-.368 E41.07967
G1 X-6.043 Y0.056 E41.101
G1 X-6.131 Y0.462 E41.12172
G1 X-6.354 Y0.826 E41.14302
G1 X-6.685 Y1.093 E41.16424
G1 X-7.084 Y1.232 E41.18532
G1 X-7.498 Y1.232 E41.20597
G1 X-7.897 Y1.093 E41.22705
G1 X-8.229 Y0.825 E41.24834
G1 X-8.451 Y0.467 E41.26935
G1 X-8.539 Y0.057 E41.29027
G1 X-8.485 Y-.37 E41.31175
G1 X-8.296 Y-.743 E41.33261
G1 X-7.988 Y-1.036 E41.35382
G1 X-7.602 Y-1.21 E41.37494
G1 X-7.291 Y-1.25 E41.39058
G1 X-6.98 Y-1.21 E41.40623
G1 X-6.594 Y-1.036 E41.42735
G1 X-6.286 Y-.743 E41.44856
G0 X-6.197 Y-.565
G0 X-6.93 Y-.264
;TYPE:SKIN
G1 X-6.844 Y0.021 E41.46341
G1 X-6.874 Y0.164 E41.4707
G1 X-6.957 Y0.299 E41.47861
G1 X-7.072 Y0.391 E41.48595
G1 X-7.219 Y0.442 E41.49372
G1 X-7.507 Y0.392 E41.5083
G1 X-7.627 Y0.296 E41.51597
G1 X-7.707 Y0.166 E41.52358
G1 X-7.738 Y0.021 E41.53098
G1 X-7.719 Y-.136 E41.53887
G1 X-7.655 Y-.261 E41.54588
G1 X-7.539 Y-.371 E41.55385
G1 X-7.407 Y-.431 E41.56109
G1 X-7.175 Y-.431 E41.57266
G1 X-6.93 Y-.264 E41.58745
G0 X-7.138 Y0.214
G1 X-7.505 Y-.152 E41.61331
