;FLAVOR:Marlin
;TIME:1703
;Filament used: 0.465287m
;Layer height: 0.1
;MINX:-16.806
;MINY:-11.176
;MINZ:0.2
;MAXX:17.378
;MAXY:11.18
;MAXZ:7
;Generated with Cura_SteamEngine 4.13.1
M140 S60
M105
M190 S60
M104 S205
M105
M109 S205
M82 ;absolute extrusion mode
G28 ;Home
G1 Z15.0 F6000 ;Move the platform down 15mm
;Prime the extruder
G92 E0
G1 F200 E3
G92 E0
G92 E0
G92 E0
G1 F2400 E-5
;LAYER_COUNT:69
;LAYER:0
M107
G0 F900 X2.426 Y-7.748 Z0.2
;TYPE:SKIRT
G1 F2400 E0.01123
G1 F900 X13.328 Y-7.748 E0.28318
G1 X13.895 Y-7.708 E0.29736
G1 X14.452 Y-7.589 E0.31156
G1 X14.986 Y-7.393 E0.32575
G1 X15.487 Y-7.124 E0.33994
G1 X15.946 Y-6.788 E0.35413
G1 X16.353 Y-6.391 E0.36831
G1 X16.701 Y-5.94 E0.38252
G1 X16.981 Y-5.446 E0.39669
G1 X17.19 Y-4.917 E0.41087
G1 X17.323 Y-4.363 E0.42509
G1 X17.378 Y-3.698 E0.44173
G1 X17.378 Y-1.421 E0.49853
G1 X17.338 Y-.854 E0.51271
G1 X17.219 Y-.297 E0.52692
G1 X17.11 Y0.00 E0.53481
G1 X17.181 Y0.176 E0.53954
G1 X17.318 Y0.728 E0.55373
G1 X17.378 Y1.425 E0.57118
G1 X17.378 Y3.702 E0.62798
G1 X17.338 Y4.269 E0.64216
G1 X17.219 Y4.826 E0.65637
G1 X17.023 Y5.36 E0.67056
G1 X16.754 Y5.861 E0.68474
G1 X16.418 Y6.32 E0.69893
G1 X16.021 Y6.727 E0.71312
G1 X15.57 Y7.075 E0.72733
G1 X15.076 Y7.355 E0.74149
G1 X14.547 Y7.564 E0.75568
G1 X13.993 Y7.697 E0.76989
G1 X13.328 Y7.752 E0.78654
G1 X2.426 Y7.752 E1.05849
G1 X1.825 Y8.337 E1.07941
G1 X1.337 Y8.749 E1.09534
G1 X1.041 Y8.976 E1.10465
G1 X0.522 Y9.338 E1.12043
G1 X0.235 Y9.521 E1.12892
G1 X-.314 Y9.839 E1.14475
G1 X-.641 Y10.008 E1.15393
G1 X-1.217 Y10.275 E1.16977
G1 X-1.561 Y10.416 E1.17904
G1 X-2.162 Y10.63 E1.19496
G1 X-2.491 Y10.732 E1.20355
G1 X-3.103 Y10.893 E1.21933
G1 X-3.466 Y10.971 E1.2286
G1 X-4.095 Y11.076 E1.2445
G1 X-4.449 Y11.119 E1.2534
G1 X-5.082 Y11.168 E1.26924
G1 X-5.44 Y11.18 E1.27817
G1 X-6.073 Y11.173 E1.29396
G1 X-6.436 Y11.152 E1.30303
G1 X-7.068 Y11.088 E1.31888
G1 X-7.422 Y11.037 E1.3278
G1 X-8.048 Y10.917 E1.3437
G1 X-8.405 Y10.831 E1.35286
G1 X-9.014 Y10.656 E1.36867
G1 X-9.36 Y10.54 E1.37777
G1 X-9.953 Y10.31 E1.39364
G1 X-10.263 Y10.174 E1.40208
G1 X-10.833 Y9.896 E1.4179
G1 X-11.167 Y9.714 E1.42739
G1 X-11.708 Y9.384 E1.4432
G1 X-11.994 Y9.192 E1.45179
G1 X-12.508 Y8.815 E1.46769
G1 X-12.806 Y8.574 E1.47725
G1 X-13.28 Y8.152 E1.49308
G1 X-13.532 Y7.907 E1.50185
G1 X-13.968 Y7.445 E1.5177
G1 X-14.199 Y7.178 E1.5265
G1 X-14.593 Y6.68 E1.54234
G1 X-14.806 Y6.384 E1.55144
G1 X-15.154 Y5.852 E1.5673
G1 X-15.339 Y5.54 E1.57635
G1 X-15.638 Y4.979 E1.5922
G1 X-15.79 Y4.66 E1.60102
G1 X-16.039 Y4.075 E1.61688
G1 X-16.17 Y3.725 E1.6262
G1 X-16.363 Y3.123 E1.64197
G1 X-16.455 Y2.784 E1.65073
G1 X-16.596 Y2.163 E1.66662
G1 X-16.661 Y1.801 E1.67579
G1 X-16.745 Y1.171 E1.69165
G1 X-16.777 Y0.821 E1.70041
G1 X-16.806 Y0.188 E1.71622
G1 X-16.806 Y-.182 E1.72545
G1 X-16.777 Y-.817 E1.74131
G1 X-16.745 Y-1.167 E1.75007
G1 X-16.661 Y-1.797 E1.76593
G1 X-16.596 Y-2.159 E1.7751
G1 X-16.455 Y-2.78 E1.79099
G1 X-16.363 Y-3.119 E1.79975
G1 X-16.17 Y-3.721 E1.81552
G1 X-16.039 Y-4.071 E1.82484
G1 X-15.79 Y-4.656 E1.8407
G1 X-15.638 Y-4.975 E1.84952
G1 X-15.339 Y-5.536 E1.86538
G1 X-15.154 Y-5.848 E1.87442
G1 X-14.806 Y-6.38 E1.89028
G1 X-14.593 Y-6.676 E1.89938
G1 X-14.199 Y-7.174 E1.91522
G1 X-13.968 Y-7.441 E1.92403
G1 X-13.532 Y-7.903 E1.93987
G1 X-13.28 Y-8.148 E1.94864
G1 X-12.806 Y-8.57 E1.96447
G1 X-12.508 Y-8.811 E1.97403
G1 X-11.994 Y-9.188 E1.98993
G1 X-11.708 Y-9.38 E1.99852
G1 X-11.167 Y-9.71 E2.01433
G1 X-10.833 Y-9.892 E2.02382
G1 X-10.263 Y-10.17 E2.03964
G1 X-9.953 Y-10.306 E2.04808
G1 X-9.36 Y-10.536 E2.06395
G1 X-9.014 Y-10.652 E2.07305
G1 X-8.405 Y-10.827 E2.08886
G1 X-8.048 Y-10.913 E2.09802
G1 X-7.422 Y-11.033 E2.11392
G1 X-7.068 Y-11.084 E2.12284
G1 X-6.436 Y-11.148 E2.13869
G1 X-6.073 Y-11.169 E2.14776
G1 X-5.44 Y-11.176 E2.16355
G1 X-5.082 Y-11.164 E2.17249
G1 X-4.449 Y-11.115 E2.18832
G1 X-4.095 Y-11.072 E2.19722
G1 X-3.466 Y-10.967 E2.21313
G1 X-3.103 Y-10.889 E2.22239
G1 X-2.491 Y-10.728 E2.23817
G1 X-2.162 Y-10.626 E2.24677
G1 X-1.561 Y-10.412 E2.26268
G1 X-1.217 Y-10.272 E2.27194
G1 X-.643 Y-10.006 E2.28773
G1 X-.317 Y-9.836 E2.2969
G1 X0.234 Y-9.517 E2.31278
G1 X0.522 Y-9.334 E2.32129
G1 X1.041 Y-8.972 E2.33708
G1 X1.336 Y-8.745 E2.34636
G1 X1.823 Y-8.334 E2.36226
G1 X2.426 Y-7.748 E2.38323
G0 X2.299 Y-7.448
G1 X13.328 Y-7.448 E2.65835
G1 X13.874 Y-7.408 E2.67201
G1 X14.408 Y-7.289 E2.68566
G1 X14.919 Y-7.094 E2.6993
G1 X15.397 Y-6.826 E2.71297
G1 X15.83 Y-6.491 E2.72663
G1 X16.21 Y-6.097 E2.74028
G1 X16.529 Y-5.652 E2.75394
G1 X16.779 Y-5.165 E2.76759
G1 X16.956 Y-4.647 E2.78125
G1 X17.055 Y-4.109 E2.79489
G1 X17.078 Y-3.698 E2.80516
G1 X17.078 Y-1.421 E2.86196
G1 X17.038 Y-.875 E2.87562
G1 X16.919 Y-.341 E2.88927
G1 X16.791 Y-0.005 E2.89824
G1 X16.954 Y0.467 E2.91069
G1 X17.054 Y1.005 E2.92434
G1 X17.078 Y1.425 E2.93484
G1 X17.078 Y3.702 E2.99164
G1 X17.038 Y4.248 E3.00529
G1 X16.919 Y4.782 E3.01894
G1 X16.724 Y5.293 E3.03258
G1 X16.456 Y5.771 E3.04625
G1 X16.121 Y6.204 E3.05991
G1 X15.727 Y6.584 E3.07357
G1 X15.282 Y6.903 E3.08722
G1 X14.795 Y7.153 E3.10088
G1 X14.277 Y7.33 E3.11453
G1 X13.739 Y7.429 E3.12818
G1 X13.328 Y7.452 E3.13845
G1 X2.3 Y7.452 E3.41354
G1 X1.878 Y7.879 E3.42852
G1 X1.631 Y8.107 E3.4369
G1 X1.143 Y8.519 E3.45284
G1 X0.869 Y8.73 E3.46146
G1 X0.35 Y9.092 E3.47725
G1 X0.085 Y9.261 E3.48509
G1 X-.464 Y9.579 E3.50091
G1 X-.767 Y9.736 E3.50943
G1 X-1.343 Y10.003 E3.52526
G1 X-1.662 Y10.134 E3.53387
G1 X-2.263 Y10.348 E3.54978
G1 X-2.567 Y10.442 E3.55772
G1 X-3.179 Y10.603 E3.5735
G1 X-3.516 Y10.675 E3.5821
G1 X-4.145 Y10.78 E3.59801
G1 X-4.473 Y10.82 E3.60625
G1 X-5.106 Y10.869 E3.62209
G1 X-5.436 Y10.88 E3.63032
G1 X-6.069 Y10.873 E3.64611
G1 X-6.406 Y10.854 E3.65453
G1 X-7.038 Y10.79 E3.67038
G1 X-7.366 Y10.742 E3.67865
G1 X-7.992 Y10.622 E3.69455
G1 X-8.322 Y10.543 E3.70301
G1 X-8.931 Y10.368 E3.71882
G1 X-9.251 Y10.26 E3.72724
G1 X-9.844 Y10.03 E3.74311
G1 X-10.132 Y9.904 E3.75095
G1 X-10.702 Y9.626 E3.76677
G1 X-11.011 Y9.457 E3.77556
G1 X-11.552 Y9.127 E3.79137
G1 X-11.817 Y8.95 E3.79931
G1 X-12.331 Y8.573 E3.81522
G1 X-12.607 Y8.35 E3.82407
G1 X-13.081 Y7.928 E3.8399
G1 X-13.314 Y7.701 E3.84801
G1 X-13.75 Y7.239 E3.86386
G1 X-13.964 Y6.992 E3.87201
G1 X-14.358 Y6.494 E3.88785
G1 X-14.555 Y6.22 E3.89627
G1 X-14.903 Y5.688 E3.91213
G1 X-15.074 Y5.399 E3.9205
G1 X-15.373 Y4.838 E3.93636
G1 X-15.514 Y4.543 E3.94452
G1 X-15.763 Y3.958 E3.96038
G1 X-15.884 Y3.634 E3.96901
G1 X-16.077 Y3.032 E3.98478
G1 X-16.163 Y2.717 E3.99292
G1 X-16.304 Y2.096 E4.00881
G1 X-16.364 Y1.762 E4.01727
G1 X-16.448 Y1.132 E4.03313
G1 X-16.477 Y0.808 E4.04124
G1 X-16.506 Y0.175 E4.05705
G1 X-16.506 Y-.168 E4.0656
G1 X-16.477 Y-.803 E4.08146
G1 X-16.448 Y-1.128 E4.0896
G1 X-16.364 Y-1.758 E4.10545
G1 X-16.304 Y-2.092 E4.11392
G1 X-16.163 Y-2.713 E4.1298
G1 X-16.077 Y-3.028 E4.13795
G1 X-15.884 Y-3.63 E4.15372
G1 X-15.763 Y-3.954 E4.16235
G1 X-15.514 Y-4.539 E4.17821
G1 X-15.373 Y-4.834 E4.18636
G1 X-15.074 Y-5.395 E4.20222
G1 X-14.903 Y-5.684 E4.2106
G1 X-14.555 Y-6.216 E4.22645
G1 X-14.358 Y-6.49 E4.23487
G1 X-13.964 Y-6.988 E4.25071
G1 X-13.75 Y-7.235 E4.25887
G1 X-13.314 Y-7.697 E4.27471
G1 X-13.081 Y-7.924 E4.28283
G1 X-12.607 Y-8.346 E4.29866
G1 X-12.331 Y-8.569 E4.30751
G1 X-11.817 Y-8.946 E4.32341
G1 X-11.552 Y-9.123 E4.33136
G1 X-11.011 Y-9.453 E4.34717
G1 X-10.702 Y-9.622 E4.35595
G1 X-10.132 Y-9.9 E4.37177
G1 X-9.844 Y-10.026 E4.37961
G1 X-9.251 Y-10.256 E4.39548
G1 X-8.931 Y-10.364 E4.4039
G1 X-8.322 Y-10.539 E4.41971
G1 X-7.992 Y-10.618 E4.42818
G1 X-7.366 Y-10.738 E4.44408
G1 X-7.038 Y-10.786 E4.45234
G1 X-6.406 Y-10.85 E4.46819
G1 X-6.069 Y-10.869 E4.47661
G1 X-5.436 Y-10.876 E4.4924
G1 X-5.106 Y-10.865 E4.50064
G1 X-4.473 Y-10.816 E4.51648
G1 X-4.145 Y-10.776 E4.52472
G1 X-3.516 Y-10.671 E4.54063
G1 X-3.179 Y-10.599 E4.54922
G1 X-2.567 Y-10.438 E4.56501
G1 X-2.263 Y-10.344 E4.57295
G1 X-1.662 Y-10.13 E4.58886
G1 X-1.343 Y-9.999 E4.59746
G1 X-.769 Y-9.733 E4.61324
G1 X-.467 Y-9.576 E4.62173
G1 X0.084 Y-9.257 E4.63762
G1 X0.35 Y-9.088 E4.64548
G1 X0.869 Y-8.726 E4.66126
G1 X1.143 Y-8.516 E4.66987
G1 X1.63 Y-8.105 E4.68577
G1 X1.88 Y-7.873 E4.69428
G1 X2.299 Y-7.448 E4.70916
G0 X2.114 Y-7.209
G1 X2.169 Y-7.148 E4.71121
G1 X13.328 Y-7.148 E4.98958
G1 X13.851 Y-7.108 E5.00266
G1 X14.363 Y-6.989 E5.01577
G1 X14.85 Y-6.794 E5.02886
G1 X15.302 Y-6.527 E5.04195
G1 X15.709 Y-6.195 E5.05506
G1 X16.06 Y-5.805 E5.06814
G1 X16.348 Y-5.366 E5.08124
G1 X16.566 Y-4.888 E5.09435
G1 X16.709 Y-4.383 E5.10744
G1 X16.778 Y-3.698 E5.12461
G1 X16.778 Y-1.421 E5.18141
G1 X16.738 Y-.898 E5.1945
G1 X16.619 Y-.386 E5.20761
G1 X16.462 Y0.007 E5.21817
G1 X16.571 Y0.247 E5.22474
G1 X16.712 Y0.753 E5.23785
G1 X16.778 Y1.425 E5.25469
G1 X16.778 Y3.702 E5.31149
G1 X16.738 Y4.225 E5.32457
G1 X16.619 Y4.737 E5.33769
G1 X16.424 Y5.224 E5.35077
G1 X16.157 Y5.676 E5.36387
G1 X15.825 Y6.083 E5.37697
G1 X15.435 Y6.434 E5.39006
G1 X14.996 Y6.722 E5.40315
G1 X14.518 Y6.94 E5.41626
G1 X14.013 Y7.083 E5.42935
G1 X13.328 Y7.152 E5.44653
G1 X2.17 Y7.152 E5.72486
G1 X2.112 Y7.216 E5.72702
G1 X1.665 Y7.668 E5.74288
G1 X1.438 Y7.878 E5.75059
G1 X0.95 Y8.29 E5.76652
G1 X0.698 Y8.484 E5.77445
G1 X0.179 Y8.846 E5.79024
G1 X-0.066 Y9.001 E5.79747
G1 X-.615 Y9.319 E5.8133
G1 X-.893 Y9.464 E5.82112
G1 X-1.469 Y9.731 E5.83696
G1 X-1.763 Y9.851 E5.84488
G1 X-2.364 Y10.065 E5.86079
G1 X-2.643 Y10.151 E5.86807
G1 X-3.255 Y10.312 E5.88386
G1 X-3.565 Y10.379 E5.89177
G1 X-4.194 Y10.484 E5.90768
G1 X-4.496 Y10.521 E5.91527
G1 X-5.129 Y10.57 E5.93111
G1 X-5.433 Y10.58 E5.93869
G1 X-6.066 Y10.573 E5.95448
G1 X-6.376 Y10.555 E5.96223
G1 X-7.008 Y10.491 E5.97808
G1 X-7.31 Y10.447 E5.98569
G1 X-7.936 Y10.327 E6.00159
G1 X-8.239 Y10.255 E6.00936
G1 X-8.848 Y10.08 E6.02516
G1 X-9.143 Y9.981 E6.03293
G1 X-9.736 Y9.751 E6.04879
G1 X-10 Y9.635 E6.05599
G1 X-10.57 Y9.357 E6.07181
G1 X-10.855 Y9.201 E6.07991
G1 X-11.396 Y8.871 E6.09572
G1 X-11.639 Y8.708 E6.10302
G1 X-12.153 Y8.331 E6.11892
G1 X-12.407 Y8.126 E6.12706
G1 X-12.881 Y7.704 E6.14289
G1 X-13.096 Y7.495 E6.15037
G1 X-13.532 Y7.033 E6.16622
G1 X-13.729 Y6.806 E6.17372
G1 X-14.123 Y6.308 E6.18956
G1 X-14.304 Y6.056 E6.1973
G1 X-14.652 Y5.524 E6.21315
G1 X-14.81 Y5.258 E6.22087
G1 X-15.109 Y4.697 E6.23673
G1 X-15.238 Y4.425 E6.24424
G1 X-15.487 Y3.84 E6.2601
G1 X-15.598 Y3.542 E6.26803
G1 X-15.791 Y2.94 E6.2838
G1 X-15.87 Y2.651 E6.29127
G1 X-16.011 Y2.03 E6.30716
G1 X-16.067 Y1.722 E6.31497
G1 X-16.151 Y1.092 E6.33082
G1 X-16.177 Y0.794 E6.33828
G1 X-16.206 Y0.161 E6.35409
G1 X-16.206 Y-.154 E6.36195
G1 X-16.177 Y-.789 E6.37781
G1 X-16.151 Y-1.088 E6.38529
G1 X-16.067 Y-1.718 E6.40115
G1 X-16.011 Y-2.026 E6.40896
G1 X-15.87 Y-2.647 E6.42484
G1 X-15.791 Y-2.936 E6.43231
G1 X-15.598 Y-3.538 E6.44808
G1 X-15.487 Y-3.836 E6.45602
G1 X-15.238 Y-4.421 E6.47188
G1 X-15.109 Y-4.693 E6.47939
G1 X-14.81 Y-5.254 E6.49524
G1 X-14.652 Y-5.52 E6.50296
G1 X-14.304 Y-6.052 E6.51882
G1 X-14.123 Y-6.304 E6.52656
G1 X-13.729 Y-6.802 E6.5424
G1 X-13.532 Y-7.029 E6.5499
G1 X-13.096 Y-7.491 E6.56574
G1 X-12.881 Y-7.7 E6.57322
G1 X-12.407 Y-8.122 E6.58905
G1 X-12.153 Y-8.327 E6.5972
G1 X-11.639 Y-8.704 E6.6131
G1 X-11.396 Y-8.867 E6.6204
G1 X-10.855 Y-9.197 E6.6362
G1 X-10.57 Y-9.353 E6.64431
G1 X-10 Y-9.631 E6.66013
G1 X-9.736 Y-9.747 E6.66732
G1 X-9.143 Y-9.977 E6.68319
G1 X-8.848 Y-10.076 E6.69095
G1 X-8.239 Y-10.251 E6.70676
G1 X-7.936 Y-10.323 E6.71453
G1 X-7.31 Y-10.443 E6.73043
G1 X-7.008 Y-10.487 E6.73804
G1 X-6.376 Y-10.551 E6.75388
G1 X-6.066 Y-10.569 E6.76163
G1 X-5.433 Y-10.576 E6.77742
G1 X-5.129 Y-10.566 E6.78501
G1 X-4.496 Y-10.517 E6.80085
G1 X-4.194 Y-10.48 E6.80844
G1 X-3.565 Y-10.375 E6.82434
G1 X-3.255 Y-10.308 E6.83226
G1 X-2.643 Y-10.147 E6.84804
G1 X-2.364 Y-10.061 E6.85532
G1 X-1.763 Y-9.847 E6.87124
G1 X-1.469 Y-9.727 E6.87916
G1 X-.895 Y-9.461 E6.89494
G1 X-.617 Y-9.317 E6.90275
G1 X-0.066 Y-8.998 E6.91863
G1 X0.179 Y-8.842 E6.92588
G1 X0.698 Y-8.48 E6.94166
G1 X0.949 Y-8.287 E6.94956
G1 X1.436 Y-7.876 E6.96546
G1 X1.667 Y-7.662 E6.97331
G1 X2.114 Y-7.209 E6.98919
G0 X1.9 Y-6.998
G1 X2.036 Y-6.848 E6.99424
G1 X13.328 Y-6.848 E7.27592
G1 X13.828 Y-6.808 E7.28843
G1 X14.315 Y-6.689 E7.30094
G1 X14.778 Y-6.495 E7.31346
G1 X15.203 Y-6.229 E7.32597
G1 X15.581 Y-5.899 E7.33848
G1 X15.902 Y-5.514 E7.35099
G1 X16.158 Y-5.082 E7.36351
G1 X16.341 Y-4.615 E7.37602
G1 X16.449 Y-4.126 E7.38852
G1 X16.478 Y-3.698 E7.39922
G1 X16.478 Y-1.421 E7.45602
G1 X16.438 Y-.921 E7.46853
G1 X16.319 Y-.434 E7.48104
G1 X16.135 Y0.006 E7.49293
G1 X16.173 Y0.072 E7.49483
G1 X16.351 Y0.54 E7.50732
G1 X16.453 Y1.032 E7.51986
G1 X16.478 Y1.425 E7.52968
G1 X16.478 Y3.702 E7.58648
G1 X16.438 Y4.202 E7.59899
G1 X16.319 Y4.689 E7.6115
G1 X16.125 Y5.152 E7.62402
G1 X15.859 Y5.577 E7.63653
G1 X15.529 Y5.955 E7.64904
G1 X15.144 Y6.276 E7.66155
G1 X14.712 Y6.532 E7.67407
G1 X14.245 Y6.715 E7.68659
G1 X13.756 Y6.823 E7.69908
G1 X13.328 Y6.852 E7.70978
G1 X2.038 Y6.852 E7.99141
G1 X1.899 Y7.005 E7.99657
G1 X1.452 Y7.457 E8.01242
G1 X1.244 Y7.649 E8.01949
G1 X0.756 Y8.061 E8.03542
G1 X0.526 Y8.238 E8.04266
G1 X0.007 Y8.6 E8.05844
G1 X-.216 Y8.742 E8.06504
G1 X-.765 Y9.06 E8.08086
G1 X-1.019 Y9.192 E8.088
G1 X-1.595 Y9.459 E8.10384
G1 X-1.863 Y9.568 E8.11106
G1 X-2.464 Y9.782 E8.12697
G1 X-2.72 Y9.861 E8.13365
G1 X-3.332 Y10.022 E8.14944
G1 X-3.614 Y10.083 E8.15664
G1 X-4.243 Y10.188 E8.17254
G1 X-4.519 Y10.222 E8.17948
G1 X-5.152 Y10.271 E8.19532
G1 X-5.43 Y10.28 E8.20226
G1 X-6.063 Y10.273 E8.21805
G1 X-6.345 Y10.257 E8.22509
G1 X-6.977 Y10.193 E8.24094
G1 X-7.253 Y10.153 E8.2479
G1 X-7.879 Y10.033 E8.2638
G1 X-8.156 Y9.966 E8.27091
G1 X-8.765 Y9.791 E8.28671
G1 X-9.034 Y9.701 E8.29379
G1 X-9.627 Y9.471 E8.30965
G1 X-9.869 Y9.365 E8.31624
G1 X-10.439 Y9.087 E8.33206
G1 X-10.698 Y8.945 E8.33943
G1 X-11.239 Y8.615 E8.35524
G1 X-11.462 Y8.466 E8.36193
G1 X-11.976 Y8.089 E8.37783
G1 X-12.208 Y7.902 E8.38526
G1 X-12.682 Y7.48 E8.4011
G1 X-12.878 Y7.289 E8.40792
G1 X-13.314 Y6.827 E8.42377
G1 X-13.493 Y6.619 E8.43061
G1 X-13.887 Y6.121 E8.44645
G1 X-14.053 Y5.891 E8.45353
G1 X-14.401 Y5.359 E8.46939
G1 X-14.545 Y5.117 E8.47641
G1 X-14.844 Y4.556 E8.49227
G1 X-14.962 Y4.308 E8.49912
G1 X-15.211 Y3.723 E8.51498
G1 X-15.313 Y3.451 E8.52223
G1 X-15.506 Y2.849 E8.538
G1 X-15.578 Y2.584 E8.54485
G1 X-15.719 Y1.963 E8.56073
G1 X-15.769 Y1.682 E8.56785
G1 X-15.853 Y1.052 E8.58371
G1 X-15.878 Y0.78 E8.59052
G1 X-15.907 Y0.147 E8.60633
G1 X-15.907 Y-.141 E8.61351
G1 X-15.878 Y-.776 E8.62937
G1 X-15.853 Y-1.048 E8.63618
G1 X-15.769 Y-1.678 E8.65204
G1 X-15.719 Y-1.959 E8.65916
G1 X-15.578 Y-2.58 E8.67504
G1 X-15.506 Y-2.845 E8.68189
G1 X-15.313 Y-3.447 E8.69766
G1 X-15.211 Y-3.719 E8.70491
G1 X-14.962 Y-4.304 E8.72077
G1 X-14.844 Y-4.552 E8.72762
G1 X-14.545 Y-5.113 E8.74348
G1 X-14.401 Y-5.355 E8.7505
G1 X-14.053 Y-5.887 E8.76636
G1 X-13.887 Y-6.117 E8.77343
G1 X-13.493 Y-6.615 E8.78927
G1 X-13.314 Y-6.823 E8.79612
G1 X-12.878 Y-7.285 E8.81197
G1 X-12.682 Y-7.476 E8.81879
G1 X-12.208 Y-7.898 E8.83462
G1 X-11.976 Y-8.085 E8.84206
G1 X-11.462 Y-8.462 E8.85796
G1 X-11.239 Y-8.611 E8.86465
G1 X-10.698 Y-8.941 E8.88046
G1 X-10.439 Y-9.083 E8.88782
G1 X-9.869 Y-9.361 E8.90364
G1 X-9.627 Y-9.467 E8.91023
G1 X-9.034 Y-9.697 E8.9261
G1 X-8.765 Y-9.787 E8.93318
G1 X-8.156 Y-9.962 E8.94898
G1 X-7.879 Y-10.029 E8.95609
G1 X-7.253 Y-10.149 E8.97199
G1 X-6.977 Y-10.189 E8.97895
G1 X-6.345 Y-10.253 E8.99479
G1 X-6.063 Y-10.269 E9.00184
G1 X-5.43 Y-10.276 E9.01763
G1 X-5.152 Y-10.267 E9.02457
G1 X-4.519 Y-10.218 E9.04041
G1 X-4.243 Y-10.184 E9.04734
G1 X-3.614 Y-10.079 E9.06325
G1 X-3.332 Y-10.018 E9.07045
G1 X-2.72 Y-9.857 E9.08623
G1 X-2.464 Y-9.778 E9.09292
G1 X-1.863 Y-9.564 E9.10883
G1 X-1.596 Y-9.455 E9.11603
G1 X-1.022 Y-9.189 E9.13181
G1 X-.768 Y-9.057 E9.13895
G1 X-.217 Y-8.738 E9.15483
G1 X0.007 Y-8.596 E9.16145
G1 X0.526 Y-8.234 E9.17723
G1 X0.756 Y-8.057 E9.18447
G1 X1.243 Y-7.646 E9.20037
G1 X1.453 Y-7.451 E9.20751
G1 X1.9 Y-6.998 E9.22339
G0 X1.687 Y-6.788
G1 X1.899 Y-6.548 E9.23138
G1 X13.328 Y-6.548 E9.51648
G1 X13.803 Y-6.508 E9.52837
