;FLAVOR:Marlin
;TIME:2640
;Filament used: 1.09126m
;Layer height: 0.1
;MINX:-21.85
;MINY:-9.847
;MINZ:0.2
;MAXX:21.85
;MAXY:9.847
;MAXZ:8
;Generated with Cura_SteamEngine 4.13.1
M140 S110
M105
M190 S110
M104 S235
M105
M109 S235
M82 ;absolute extrusion mode
G28 ;Home
G1 Z15.0 F6000 ;Move the platform down 15mm
;Prime the extruder
G92 E0
G1 F200 E3
G92 E0
G92 E0
G92 E0
G1 F2700 E-5
;LAYER_COUNT:79
;LAYER:0
M107
;MESH:FPII_v2.STL
G0 F900 X19.15 Y2.4 Z0.2
;TYPE:WALL-OUTER
G1 F2700 E0.01123
G1 F900 X19.15 Y1.65 E0.03087
G1 X21.85 Y1.65 E0.10159
G1 X21.85 Y3.782 E0.15743
G1 X16.053 Y3.785 E0.30927
G1 X-1.736 Y3.784 E0.7752
G1 X-2.004 Y3.847 E0.78241
G1 X-2.054 Y3.879 E0.78397
G1 X-6.897 Y7.265 E0.93875
G1 X-7.633 Y7.73 E0.96155
G1 X-8.398 Y8.114 E0.98397
G1 X-9.199 Y8.425 E1.00648
G1 X-10.034 Y8.657 E1.02918
G1 X-10.877 Y8.807 E1.0516
G1 X-11.742 Y8.875 E1.07433
G1 X-12.599 Y8.858 E1.09678
G1 X-13.448 Y8.759 E1.11917
G1 X-14.296 Y8.576 E1.14189
G1 X-15.116 Y8.314 E1.16444
G1 X-15.912 Y7.97 E1.18715
G1 X-16.652 Y7.562 E1.20928
G1 X-17.374 Y7.067 E1.23221
G1 X-18.027 Y6.519 E1.25454
G1 X-18.63 Y5.904 E1.2771
G1 X-19.176 Y5.228 E1.29986
G1 X-19.641 Y4.521 E1.32202
G1 X-20.046 Y3.752 E1.34479
G1 X-20.371 Y2.956 E1.36731
G1 X-20.62 Y2.124 E1.39006
G1 X-20.736 Y1.543 E1.40557
G1 X-20.784 Y1.289 E1.41234
G1 X-20.868 Y0.438 E1.43474
G1 X-20.868 Y-.438 E1.45769
G1 X-20.785 Y-1.286 E1.48
G1 X-20.62 Y-2.124 E1.50237
G1 X-20.371 Y-2.956 E1.52512
G1 X-20.046 Y-3.752 E1.54764
G1 X-19.641 Y-4.521 E1.57041
G1 X-19.176 Y-5.228 E1.59257
G1 X-18.63 Y-5.904 E1.61533
G1 X-18.027 Y-6.519 E1.63789
G1 X-17.374 Y-7.067 E1.66022
G1 X-16.652 Y-7.562 E1.68315
G1 X-15.912 Y-7.97 E1.70528
G1 X-15.116 Y-8.314 E1.72799
G1 X-14.296 Y-8.576 E1.75054
G1 X-13.708 Y-8.705 E1.76631
G1 X-13.45 Y-8.759 E1.77321
G1 X-12.599 Y-8.858 E1.79565
G1 X-11.742 Y-8.875 E1.8181
G1 X-10.877 Y-8.807 E1.84083
G1 X-10.034 Y-8.657 E1.86326
G1 X-9.199 Y-8.425 E1.88596
G1 X-8.398 Y-8.114 E1.90846
G1 X-7.633 Y-7.73 E1.93088
G1 X-6.903 Y-7.269 E1.9535
G1 X-2.039 Y-3.868 E2.10895
G1 X-1.821 Y-3.786 E2.11505
G1 X1.852 Y-3.783 E2.21125
G1 X21.85 Y-3.782 E2.73505
G1 X21.85 Y-1.65 E2.79089
G1 X19.15 Y-1.65 E2.86161
G1 X19.15 Y-2.4 E2.88125
G1 X16.85 Y-2.4 E2.9415
G1 X16.85 Y2.4 E3.06722
G1 X19.15 Y2.4 E3.12746
G0 X19.15 Y2.25
G0 X19.48 Y2.25
G1 F2700 E-1.87254
G0 F900 X19.55 Y2.25
G0 X16.522 Y2.728
G0 X4.743 Y1.522
G0 X-10.321 Y-4.753
G0 X-11.158 Y-4.97
G0 X-12 Y-5.042
G0 X-12.861 Y-4.967
G0 X-13.68 Y-4.753
G0 X-14.467 Y-4.395
G0 X-15.174 Y-3.916
G0 X-15.785 Y-3.33
G0 X-16.297 Y-2.634
G0 X-16.976 Y-1.108
G1 F2700 E3.13869
G0 F900 X-16.595 Y-.991
G1 X-16.696 Y-.19 E3.15983
G1 X-16.662 Y0.597 E3.18047
G1 X-16.492 Y1.385 E3.20158
G1 X-16.197 Y2.116 E3.22223
G1 X-15.773 Y2.803 E3.24337
G1 X-15.245 Y3.4 E3.26425
G1 X-14.632 Y3.895 E3.28489
G1 X-13.927 Y4.286 E3.306
G1 X-13.185 Y4.549 E3.32662
G1 X-12.397 Y4.683 E3.34756
G1 X-11.589 Y4.682 E3.36872
G1 X-10.807 Y4.546 E3.38951
G1 X-10.056 Y4.279 E3.41039
G1 X-9.368 Y3.895 E3.43102
G1 X-8.742 Y3.387 E3.45214
G1 X-8.221 Y2.796 E3.47278
G1 X-7.803 Y2.116 E3.49368
G1 X-7.503 Y1.367 E3.51482
G1 X-7.338 Y0.597 E3.53544
G1 X-7.305 Y-.209 E3.55657
G1 X-7.405 Y-.991 E3.57722
G1 X-7.642 Y-1.76 E3.5983
G1 X-8.003 Y-2.473 E3.61923
G1 X-8.471 Y-3.106 E3.63985
G1 X-9.056 Y-3.662 E3.66099
G1 X-9.708 Y-4.103 E3.6816
G1 X-10.434 Y-4.432 E3.70248
G1 X-11.215 Y-4.634 E3.72361
G1 X-12 Y-4.701 E3.74425
G1 X-12.804 Y-4.631 E3.76538
G1 X-13.566 Y-4.432 E3.78601
G1 X-14.301 Y-4.098 E3.80716
G1 X-14.96 Y-3.651 E3.82802
G1 X-15.529 Y-3.105 E3.84867
G1 X-16.006 Y-2.457 E3.86975
G1 X-16.365 Y-1.743 E3.89068
G1 X-16.595 Y-.991 E3.91127
G0 X-16.613 Y-.843
G0 X-16.889 Y-1.054
;TYPE:WALL-INNER
G1 X-16.997 Y-.202 E3.93377
G1 X-16.961 Y0.635 E3.95571
G1 X-16.78 Y1.473 E3.97817
G1 X-16.466 Y2.252 E4.00017
G1 X-16.015 Y2.982 E4.02264
G1 X-15.453 Y3.618 E4.04487
G1 X-14.8 Y4.145 E4.06685
G1 X-14.051 Y4.56 E4.08928
G1 X-13.261 Y4.84 E4.11123
G1 X-12.422 Y4.983 E4.13352
G1 X-11.563 Y4.982 E4.15602
G1 X-10.731 Y4.837 E4.17814
G1 X-9.932 Y4.553 E4.20035
G1 X-9.199 Y4.144 E4.22234
G1 X-8.534 Y3.604 E4.24478
G1 X-7.979 Y2.975 E4.26675
G1 X-7.534 Y2.251 E4.28901
G1 X-7.215 Y1.455 E4.31147
G1 X-7.039 Y0.635 E4.33344
G1 X-7.004 Y-.222 E4.3559
G1 X-7.111 Y-1.055 E4.3779
G1 X-7.363 Y-1.873 E4.40032
G1 X-7.747 Y-2.631 E4.42257
G1 X-8.245 Y-3.305 E4.44452
G1 X-8.867 Y-3.897 E4.46701
G1 X-9.561 Y-4.366 E4.48895
G1 X-10.334 Y-4.716 E4.51118
G1 X-11.164 Y-4.931 E4.53364
G1 X-12 Y-5.002 E4.55561
G1 X-12.855 Y-4.928 E4.57809
G1 X-13.667 Y-4.716 E4.60007
G1 X-14.448 Y-4.361 E4.62254
G1 X-15.149 Y-3.885 E4.64474
G1 X-15.755 Y-3.304 E4.66672
G1 X-16.263 Y-2.614 E4.68917
G1 X-16.644 Y-1.855 E4.71141
G1 X-16.889 Y-1.054 E4.73335
G0 X-17.183 Y-1.117
G1 X-17.298 Y-.215 E4.75717
G1 X-17.26 Y0.673 E4.78045
G1 X-17.068 Y1.561 E4.80424
G1 X-16.735 Y2.388 E4.8276
G1 X-16.257 Y3.161 E4.8514
G1 X-15.661 Y3.836 E4.87499
G1 X-14.968 Y4.395 E4.89831
G1 X-14.175 Y4.834 E4.92205
G1 X-13.337 Y5.131 E4.94533
G1 X-12.447 Y5.283 E4.96898
G1 X-11.537 Y5.282 E4.99282
G1 X-10.654 Y5.128 E5.01629
G1 X-9.808 Y4.827 E5.03981
G1 X-9.03 Y4.393 E5.06315
G1 X-8.326 Y3.821 E5.08691
G1 X-7.737 Y3.154 E5.11021
G1 X-7.265 Y2.386 E5.13382
G1 X-6.927 Y1.543 E5.15761
G1 X-6.74 Y0.673 E5.18092
G1 X-6.703 Y-.235 E5.20472
G1 X-6.817 Y-1.119 E5.22807
G1 X-7.084 Y-1.986 E5.25183
G1 X-7.491 Y-2.789 E5.27541
G1 X-8.019 Y-3.504 E5.29869
G1 X-8.678 Y-4.132 E5.32253
G1 X-9.414 Y-4.629 E5.34579
G1 X-10.234 Y-5 E5.36937
G1 X-11.113 Y-5.228 E5.39315
G1 X-12 Y-5.303 E5.41647
G1 X-12.906 Y-5.225 E5.44029
G1 X-13.768 Y-5 E5.46362
G1 X-14.595 Y-4.624 E5.48742
G1 X-15.338 Y-4.119 E5.51095
G1 X-15.981 Y-3.503 E5.53427
G1 X-16.52 Y-2.771 E5.55808
G1 X-16.923 Y-1.967 E5.58164
G1 X-17.183 Y-1.117 E5.60492
G1 F2700 E0.60492
G0 F900 X-16.297 Y-2.634
G0 X-15.785 Y-3.33
G0 X-15.174 Y-3.916
G0 X-14.467 Y-4.395
G0 X-13.68 Y-4.753
G0 X-12.861 Y-4.967
G0 X-12 Y-5.042
G0 X-11.243 Y-4.978
G0 X3.678 Y-.89
G1 F2700 E5.61614
G0 F900 X4.034 Y-.711
;TYPE:WALL-OUTER
G1 X3.852 Y-.348 E5.62678
G1 X3.801 Y0.053 E5.63737
G1 X3.887 Y0.449 E5.64798
G1 X4.1 Y0.795 E5.65862
G1 X4.417 Y1.05 E5.66928
G1 X4.8 Y1.183 E5.6799
G1 X5.205 Y1.183 E5.69051
G1 X5.588 Y1.047 E5.70115
G1 X5.902 Y0.791 E5.71176
G1 X6.114 Y0.445 E5.72239
G1 X6.199 Y0.049 E5.733
G1 X6.147 Y-.353 E5.74362
G1 X5.964 Y-.715 E5.75424
G1 X5.67 Y-.996 E5.76489
G1 X5.301 Y-1.162 E5.77549
G1 X5.1 Y-1.196 E5.78083
G1 X4.695 Y-1.162 E5.79148
G1 X4.327 Y-.994 E5.80207
G1 X4.034 Y-.711 E5.81274
G0 X3.967 Y-.577
G0 X3.789 Y-.891
;TYPE:WALL-INNER
G1 X3.561 Y-.437 E5.82605
G1 X3.497 Y0.066 E5.83933
G1 X3.605 Y0.563 E5.85265
G1 X3.872 Y0.996 E5.86597
G1 X4.269 Y1.316 E5.87933
G1 X4.749 Y1.483 E5.89264
G1 X5.257 Y1.483 E5.90595
G1 X5.737 Y1.312 E5.91929
G1 X6.131 Y0.991 E5.9326
G1 X6.397 Y0.558 E5.94591
G1 X6.503 Y0.062 E5.9592
G1 X6.438 Y-.442 E5.97251
G1 X6.209 Y-.896 E5.98583
G1 X5.84 Y-1.248 E5.99919
G1 X5.389 Y-1.451 E6.01214
G1 X5.113 Y-1.498 E6.01947
G1 X4.618 Y-1.457 E6.03248
G1 X4.156 Y-1.246 E6.04579
G1 X3.789 Y-.891 E6.05916
G0 X3.544 Y-1.071
G1 X3.27 Y-.526 E6.07514
G1 X3.193 Y0.079 E6.09111
G1 X3.323 Y0.677 E6.10714
G1 X3.644 Y1.197 E6.12315
G1 X4.121 Y1.582 E6.1392
G1 X4.698 Y1.783 E6.15521
G1 X5.309 Y1.783 E6.17121
G1 X5.886 Y1.577 E6.18726
G1 X6.36 Y1.191 E6.20327
G1 X6.68 Y0.671 E6.21926
G1 X6.807 Y0.075 E6.23522
G1 X6.729 Y-.531 E6.25122
G1 X6.454 Y-1.077 E6.26724
G1 X6.01 Y-1.5 E6.2833
G1 X5.477 Y-1.74 E6.29861
G1 X5.126 Y-1.8 E6.30794
G1 X4.541 Y-1.752 E6.32331
G1 X3.984 Y-1.497 E6.33936
G1 X3.544 Y-1.071 E6.3554
G1 F2700 E1.3554
G0 F900 X4.608 Y-1.495
G0 X9.678 Y-.89
G1 F2700 E6.36662
G0 F900 X10.034 Y-.711
;TYPE:WALL-OUTER
G1 X9.852 Y-.348 E6.37726
G1 X9.801 Y0.053 E6.38785
G1 X9.887 Y0.449 E6.39846
G1 X10.1 Y0.795 E6.4091
G1 X10.417 Y1.05 E6.41976
G1 X10.8 Y1.183 E6.43038
G1 X11.205 Y1.183 E6.44098
G1 X11.588 Y1.047 E6.45163
G1 X11.902 Y0.791 E6.46224
G1 X12.114 Y0.445 E6.47287
G1 X12.199 Y0.049 E6.48348
G1 X12.147 Y-.353 E6.4941
G1 X11.964 Y-.715 E6.50472
G1 X11.67 Y-.996 E6.51537
G1 X11.301 Y-1.162 E6.52597
G1 X11.1 Y-1.196 E6.53131
G1 X10.695 Y-1.162 E6.54195
G1 X10.327 Y-.994 E6.55255
G1 X10.034 Y-.711 E6.56322
G0 X9.967 Y-.577
G0 X9.789 Y-.891
;TYPE:WALL-INNER
G1 X9.561 Y-.437 E6.57653
G1 X9.497 Y0.066 E6.58981
G1 X9.605 Y0.563 E6.60313
G1 X9.872 Y0.996 E6.61645
G1 X10.269 Y1.316 E6.62981
G1 X10.749 Y1.483 E6.64312
G1 X11.257 Y1.483 E6.65643
G1 X11.737 Y1.312 E6.66977
G1 X12.131 Y0.991 E6.68308
G1 X12.397 Y0.558 E6.69639
G1 X12.503 Y0.062 E6.70968
G1 X12.438 Y-.442 E6.72299
G1 X12.209 Y-.896 E6.73631
G1 X11.84 Y-1.248 E6.74966
G1 X11.389 Y-1.451 E6.76262
G1 X11.113 Y-1.498 E6.76995
G1 X10.618 Y-1.457 E6.78296
G1 X10.156 Y-1.246 E6.79626
G1 X9.789 Y-.891 E6.80964
G0 X9.544 Y-1.071
G1 X9.27 Y-.526 E6.82562
G1 X9.193 Y0.079 E6.84159
G1 X9.323 Y0.677 E6.85762
G1 X9.644 Y1.197 E6.87363
G1 X10.121 Y1.582 E6.88968
G1 X10.698 Y1.783 E6.90568
G1 X11.309 Y1.783 E6.92169
G1 X11.886 Y1.577 E6.93774
G1 X12.36 Y1.191 E6.95375
G1 X12.68 Y0.671 E6.96974
G1 X12.807 Y0.075 E6.9857
G1 X12.729 Y-.531 E7.0017
G1 X12.454 Y-1.077 E7.01772
G1 X12.01 Y-1.5 E7.03378
G1 X11.477 Y-1.74 E7.04909
G1 X11.126 Y-1.8 E7.05842
G1 X10.541 Y-1.752 E7.07379
G1 X9.984 Y-1.497 E7.08983
G1 X9.544 Y-1.071 E7.10588
G0 X10.608 Y-1.495
G0 X11.114 Y-1.537
G0 X11.862 Y-1.281
G0 X16.522 Y2.728
G0 X19.52 Y2.77
G0 X19.45 Y2.7
G1 X19.45 Y1.95 E7.12552
G1 X21.55 Y1.95 E7.18052
G1 X21.55 Y3.482 E7.22065
G1 X16.053 Y3.485 E7.36463
G1 X-1.771 Y3.484 E7.83148
G1 X-2.123 Y3.567 E7.84096
G1 X-2.221 Y3.63 E7.84401
G1 X-7.063 Y7.015 E7.99875
G1 X-7.782 Y7.469 E8.02102
G1 X-8.516 Y7.838 E8.04254
G1 X-9.299 Y8.142 E8.06454
G1 X-10.102 Y8.365 E8.08637
G1 X-10.913 Y8.509 E8.10794
G1 X-11.75 Y8.575 E8.12993
G1 X-12.579 Y8.558 E8.15165
G1 X-13.402 Y8.462 E8.17335
G1 X-14.214 Y8.287 E8.19511
G1 X-15.015 Y8.031 E8.21714
G1 X-15.773 Y7.703 E8.23877
G1 X-16.499 Y7.304 E8.26047
G1 X-17.189 Y6.83 E8.28239
G1 X-17.826 Y6.296 E8.30416
G1 X-18.404 Y5.706 E8.3258
G1 X-18.931 Y5.054 E8.34776
G1 X-19.386 Y4.362 E8.36945
G1 X-19.772 Y3.629 E8.39115
G1 X-20.09 Y2.851 E8.41316
G1 X-20.328 Y2.054 E8.43495
G1 X-20.442 Y1.484 E8.45017
G1 X-20.486 Y1.248 E8.45646
G1 X-20.568 Y0.419 E8.47828
G1 X-20.568 Y-.419 E8.50023
G1 X-20.487 Y-1.25 E8.5221
G1 X-20.329 Y-2.053 E8.54353
G1 X-20.09 Y-2.851 E8.56535
G1 X-19.772 Y-3.629 E8.58737
G1 X-19.386 Y-4.362 E8.60906
G1 X-18.931 Y-5.054 E8.63076
G1 X-18.404 Y-5.706 E8.65272
G1 X-17.826 Y-6.296 E8.67435
G1 X-17.189 Y-6.83 E8.69612
G1 X-16.499 Y-7.304 E8.71805
G1 X-15.773 Y-7.703 E8.73974
G1 X-15.015 Y-8.031 E8.76138
G1 X-14.216 Y-8.287 E8.78335
G1 X-13.399 Y-8.463 E8.80524
G1 X-12.579 Y-8.558 E8.82686
G1 X-11.75 Y-8.575 E8.84858
G1 X-10.913 Y-8.509 E8.87057
G1 X-10.102 Y-8.365 E8.89215
G1 X-9.299 Y-8.142 E8.91398
G1 X-8.516 Y-7.838 E8.93598
G1 X-7.782 Y-7.469 E8.95749
G1 X-7.069 Y-7.019 E8.97958
G1 X-2.18 Y-3.601 E9.13582
G1 X-1.876 Y-3.486 E9.14434
G1 X1.852 Y-3.483 E9.24198
G1 X21.55 Y-3.482 E9.75792
G1 X21.55 Y-1.95 E9.79805
G1 X19.45 Y-1.95 E9.85305
G1 X19.45 Y-2.7 E9.87269
G1 X16.55 Y-2.7 E9.94865
G1 X16.55 Y2.7 E10.09009
G1 X19.45 Y2.7 E10.16605
G0 X19.75 Y2.25
G1 X21.25 Y2.25 E10.20534
G1 X21.25 Y3.182 E10.22975
G1 X19.751 Y3.182 E10.26901
G1 X16.053 Y3.185 E10.36587
G1 X-1.806 Y3.184 E10.83364
G1 X-2.242 Y3.287 E10.84537
G1 X-2.388 Y3.381 E10.84992
G1 X-7.229 Y6.765 E11.00463
G1 X-7.931 Y7.208 E11.02637
G1 X-8.634 Y7.562 E11.04698
G1 X-9.399 Y7.859 E11.06848
G1 X-10.172 Y8.073 E11.08949
G1 X-10.947 Y8.211 E11.11011
G1 X-11.758 Y8.275 E11.13141
G1 X-12.559 Y8.258 E11.1524
G1 X-13.357 Y8.165 E11.17344
G1 X-14.132 Y7.998 E11.19421
G1 X-14.914 Y7.748 E11.21571
G1 X-15.639 Y7.434 E11.2364
G1 X-16.341 Y7.048 E11.25739
G1 X-17.004 Y6.593 E11.27845
G1 X-17.625 Y6.073 E11.29966
G1 X-18.178 Y5.508 E11.32037
G1 X-18.686 Y4.88 E11.34153
G1 X-19.131 Y4.203 E11.36275
G1 X-19.496 Y3.509 E11.38329
G1 X-19.81 Y2.743 E11.40497
G1 X-20.036 Y1.984 E11.42571
G1 X-20.148 Y1.425 E11.44064
G1 X-20.188 Y1.21 E11.44637
G1 X-20.268 Y0.399 E11.46772
G1 X-20.268 Y-.4 E11.48865
G1 X-20.189 Y-1.214 E11.51007
G1 X-20.038 Y-1.982 E11.53057
G1 X-19.81 Y-2.743 E11.55137
G1 X-19.496 Y-3.509 E11.57306
G1 X-19.131 Y-4.203 E11.5936
G1 X-18.686 Y-4.88 E11.61482
G1 X-18.178 Y-5.508 E11.63597
G1 X-17.625 Y-6.073 E11.65668
G1 X-17.004 Y-6.593 E11.6779
G1 X-16.341 Y-7.048 E11.69896
G1 X-15.639 Y-7.434 E11.71994
G1 X-14.917 Y-7.747 E11.74055
G1 X-14.131 Y-7.999 E11.76217
G1 X-13.354 Y-8.166 E11.78299
G1 X-12.559 Y-8.258 E11.80395
G1 X-11.758 Y-8.275 E11.82493
G1 X-10.947 Y-8.211 E11.84624
G1 X-10.172 Y-8.073 E11.86686
G1 X-9.399 Y-7.859 E11.88787
G1 X-8.634 Y-7.562 E11.90936
G1 X-7.931 Y-7.208 E11.92998
G1 X-7.235 Y-6.769 E11.95153
G1 X-2.321 Y-3.334 E12.10857
G1 X-1.931 Y-3.186 E12.1195
G1 X1.852 Y-3.183 E12.21858
G1 X16.25 Y-3.183 E12.5957
G1 X19.75 Y-3.183 E12.68737
G1 X21.25 Y-3.182 E12.72666
G1 X21.25 Y-2.25 E12.75107
G1 X19.75 Y-2.25 E12.79036
G1 X19.75 Y-3 E12.81
G1 X16.25 Y-3 E12.86611
G1 X16.25 Y3 E13.02327
G1 X19.75 Y3 E13.09192
G1 X19.75 Y2.25 E13.11157
G0 X20.04 Y2.54
;TYPE:SKIN
G1 X20.96 Y2.54 E13.13567
G1 X20.96 Y2.892 E13.14489
G1 X20.04 Y2.893 E13.16898
G1 X20.04 Y2.54 E13.17823
G0 X20.494 Y2.675
G1 X20.576 Y2.757 E13.18127
G0 X15.96 Y2.895
G1 X-1.84 Y2.894 E13.64749
G1 X-2.357 Y3.016 E13.6614
G1 X-2.55 Y3.14 E13.66741
G1 X-7.389 Y6.523 E13.82206
G1 X-8.075 Y6.956 E13.84331
G1 X-8.744 Y7.293 E13.86293
G1 X-9.493 Y7.584 E13.88397
G1 X-10.237 Y7.79 E13.90419
G1 X-10.978 Y7.921 E13.9239
G1 X-11.775 Y7.985 E13.94485
G1 X-12.541 Y7.968 E13.96491
G1 X-13.304 Y7.879 E13.98504
G1 X-14.061 Y7.716 E14.00532
G1 X-14.81 Y7.477 E14.02591
G1 X-15.514 Y7.172 E14.04601
G1 X-16.189 Y6.801 E14.06618
G1 X-16.832 Y6.36 E14.0866
G1 X-17.425 Y5.863 E14.10687
G1 X-17.96 Y5.316 E14.12691
G1 X-18.456 Y4.703 E14.14756
G1 X-18.878 Y4.061 E14.16768
G1 X-19.231 Y3.389 E14.18757
G1 X-19.538 Y2.64 E14.20877
G1 X-19.758 Y1.901 E14.22896
G1 X-19.863 Y1.37 E14.24314
G1 X-19.901 Y1.166 E14.24858
G1 X-19.978 Y0.399 E14.26877
G1 X-19.978 Y-.4 E14.2897
G1 X-19.903 Y-1.17 E14.30996
G1 X-19.76 Y-1.899 E14.32942
G1 X-19.538 Y-2.64 E14.34968
G1 X-19.23 Y-3.392 E14.37096
G1 X-18.878 Y-4.061 E14.39076
G1 X-18.456 Y-4.703 E14.41089
G1 X-17.96 Y-5.316 E14.43154
G1 X-17.425 Y-5.863 E14.45158
G1 X-16.832 Y-6.36 E14.47185
G1 X-16.189 Y-6.801 E14.49227
G1 X-15.514 Y-7.172 E14.51244
G1 X-14.813 Y-7.476 E14.53246
G1 X-14.06 Y-7.717 E14.55316
G1 X-13.301 Y-7.88 E14.5735
G1 X-12.541 Y-7.968 E14.59354
G1 X-11.775 Y-7.985 E14.6136
G1 X-10.978 Y-7.921 E14.63455
G1 X-10.237 Y-7.79 E14.65426
G1 X-9.494 Y-7.584 E14.67445
G1 X-8.744 Y-7.293 E14.69552
G1 X-8.074 Y-6.956 E14.71517
G1 X-7.401 Y-6.531 E14.73601
G1 X-2.458 Y-3.075 E14.89399
G1 X-1.985 Y-2.896 E14.90724
G1 X1.852 Y-2.893 E15.00774
G1 X15.96 Y-2.892 E15.37726
G1 X15.96 Y2.895 E15.52883
G0 X12.953 Y0.781
G1 X13.101 Y0.087 E15.54742
G1 X13.01 Y-.618 E15.56604
G1 X12.69 Y-1.253 E15.58466
G1 X12.174 Y-1.744 E15.60332
G1 X11.562 Y-2.02 E15.6209
G1 X11.139 Y-2.092 E15.63214
G1 X10.466 Y-2.037 E15.64983
G1 X9.818 Y-1.74 E15.6685
G1 X9.307 Y-1.245 E15.68713
G1 X8.988 Y-.611 E15.70572
G1 X8.899 Y0.092 E15.72428
G1 X9.05 Y0.787 E15.74291
G1 X9.423 Y1.392 E15.76153
G1 X9.978 Y1.839 E15.78019
G1 X10.649 Y2.073 E15.79881
G1 X11.359 Y2.073 E15.8174
G1 X12.031 Y1.834 E15.83608
G1 X12.581 Y1.385 E15.85468
G1 X12.953 Y0.781 E15.87326
G0 X11.263 Y1.522
G0 X7.101 Y0.087
G1 X7.01 Y-.618 E15.89188
G1 X6.69 Y-1.253 E15.9105
G1 X6.174 Y-1.744 E15.92916
G1 X5.562 Y-2.02 E15.94674
G1 X5.139 Y-2.092 E15.95798
G1 X4.466 Y-2.037 E15.97567
G1 X3.818 Y-1.74 E15.99434
G1 X3.307 Y-1.245 E16.01297
G1 X2.988 Y-.611 E16.03156
G1 X2.899 Y0.092 E16.05012
G1 X3.05 Y0.787 E16.06875
G1 X3.423 Y1.392 E16.08737
G1 X3.978 Y1.839 E16.10603
G1 X4.649 Y2.073 E16.12465
G1 X5.359 Y2.073 E16.14324
G1 X6.031 Y1.834 E16.16192
G1 X6.581 Y1.385 E16.18052
G1 X6.953 Y0.781 E16.1991
G1 X7.101 Y0.087 E16.21769
G0 X5.756 Y1.346
G0 X5.263 Y1.522
G0 X-6.452 Y0.71
G1 X-6.413 Y-.248 E16.2428
